(G-CODE GENERATED BY FLATCAM v8.994 - www.flatcam.org - Version Date: 2020/11/7)

(Name: atmega32u4 test.TXT_cnc)
(Type: G-code from Geometry)
(Units: MM)

(Created on Sunday, 29 August 2021 at 11:03)

(This preprocessor is the default preprocessor used by FlatCAM.)
(It is made to work with MACH3 compatible motion controllers.)


(TOOLS DIAMETER: )
(Tool: 1 -> Dia: 0.8)
(Tool: 2 -> Dia: 0.9)
(Tool: 3 -> Dia: 0.97)
(Tool: 4 -> Dia: 1.0)
(Tool: 5 -> Dia: 2.35)

(FEEDRATE Z: )
(Tool: 1 -> Feedrate: 300)
(Tool: 2 -> Feedrate: 300)
(Tool: 3 -> Feedrate: 60.0)
(Tool: 4 -> Feedrate: 300)
(Tool: 5 -> Feedrate: 300)

(FEEDRATE RAPIDS: )
(Tool: 1 -> Feedrate Rapids: 1500)
(Tool: 2 -> Feedrate Rapids: 1500)
(Tool: 3 -> Feedrate Rapids: 1500)
(Tool: 4 -> Feedrate Rapids: 1500)
(Tool: 5 -> Feedrate Rapids: 1500)

(Z_CUT: )
(Tool: 1 -> Z_Cut: -1.7)
(Tool: 2 -> Z_Cut: -1.7)
(Tool: 3 -> Z_Cut: -1.7)
(Tool: 4 -> Z_Cut: -1.7)
(Tool: 5 -> Z_Cut: -1.7)

(Tools Offset: )
(Tool: 3 -> Offset Z: 0.0)

(DEPTH_PER_CUT: )
(Tool: 1 -> DeptPerCut: 0.7)
(Tool: 2 -> DeptPerCut: 0.7)
(Tool: 3 -> DeptPerCut: 0.7)
(Tool: 4 -> DeptPerCut: 0.7)
(Tool: 5 -> DeptPerCut: 0.7)

(Z_MOVE: )
(Tool: 1 -> Z_Move: 2)
(Tool: 2 -> Z_Move: 2)
(Tool: 3 -> Z_Move: 2)
(Tool: 4 -> Z_Move: 2)
(Tool: 5 -> Z_Move: 2)

(Z Toolchange: 15 mm)
(X,Y Toolchange: 0.0000, 0.0000 mm)
(Z Start: None mm)
(Z End: 0.5 mm)
(X,Y End: None mm)
(Steps per circle: 64)
(Preprocessor Excellon: default)

(X range:    4.4300 ...   59.3850  mm)
(Y range:  -46.0500 ...   -2.7500  mm)

(Spindle Speed: 0 RPM)
G21
G90
G94

G01 F60.00

M5
G00 Z15.0000
T3
G00 X0.0000 Y0.0000                
M6
(MSG, Change to Tool Dia = 0.9700 ||| Total drills for tool T3 = 4)
M0
G00 Z15.0000

G01 F60.00
M03
G00 X55.5000 Y-25.5000
G01 Z-0.7000
G01 Z0
G00 Z2.0000
G01 Z-1.4000
G01 Z0
G00 Z2.0000
G01 Z-1.7000
G01 Z0
G00 Z2.0000
G00 X55.5000 Y-23.0000
G01 Z-0.7000
G01 Z0
G00 Z2.0000
G01 Z-1.4000
G01 Z0
G00 Z2.0000
G01 Z-1.7000
G01 Z0
G00 Z2.0000
G00 X53.5000 Y-23.0000
G01 Z-0.7000
G01 Z0
G00 Z2.0000
G01 Z-1.4000
G01 Z0
G00 Z2.0000
G01 Z-1.7000
G01 Z0
G00 Z2.0000
G00 X53.5000 Y-25.5000
G01 Z-0.7000
G01 Z0
G00 Z2.0000
G01 Z-1.4000
G01 Z0
G00 Z2.0000
G01 Z-1.7000
G01 Z0
G00 Z2.0000
M05
G00 Z0.50


