(G-CODE GENERATED BY FLATCAM v8.994 - www.flatcam.org - Version Date: 2020/11/7)

(Name: atmega32u4 test.TXT_mill_cnc)
(Type: G-code from Geometry)
(Units: MM)

(Created on Sunday, 29 August 2021 at 11:08)

(This preprocessor is the default preprocessor used by FlatCAM.)
(It is made to work with MACH3 compatible motion controllers.)

(TOOL DIAMETER: 1.1 mm)
(Feedrate_XY: 60.0 mm/min)
(Feedrate_Z: 60.0 mm/min)
(Feedrate rapids 1500.0 mm/min)

(Z_Cut: -1.7 mm)
(DepthPerCut: 0.8 mm <=>3 passes)
(Z_Move: 2.0 mm)
(Z Start: None mm)
(Z End: 15.0 mm)
(X,Y End: None mm)
(Steps per circle: 64)
(Preprocessor Geometry: default)

(X range:   57.5850 ...   58.8350  mm)
(Y range:  -30.8950 ...  -17.6050  mm)

(Spindle Speed: 0.0 RPM)
G21
G90
G94

G01 F60.00

M5
G00 Z15.0000
G00 X0.0000 Y0.0000
T1
M6    
(MSG, Change to Tool Dia = 1.1000)
M0
G00 Z15.0000

M03
G01 F60.00
G00 X58.8350 Y-18.2300
G01 F60.00
G01 Z-0.8000
G01 F60.00
G01 X58.8320 Y-18.2913
G01 X58.8230 Y-18.3519
G01 X58.8081 Y-18.4114
G01 X58.7874 Y-18.4692
G01 X58.7612 Y-18.5246
G01 X58.7297 Y-18.5772
G01 X58.6931 Y-18.6265
G01 X58.6519 Y-18.6719
G01 X58.6065 Y-18.7131
G01 X58.5572 Y-18.7497
G01 X58.5046 Y-18.7812
G01 X58.4492 Y-18.8074
G01 X58.3914 Y-18.8281
G01 X58.3319 Y-18.8430
G01 X58.2713 Y-18.8520
G01 X58.2100 Y-18.8550
G01 X58.1487 Y-18.8520
G01 X58.0881 Y-18.8430
G01 X58.0286 Y-18.8281
G01 X57.9708 Y-18.8074
G01 X57.9154 Y-18.7812
G01 X57.8628 Y-18.7497
G01 X57.8135 Y-18.7131
G01 X57.7681 Y-18.6719
G01 X57.7269 Y-18.6265
G01 X57.6903 Y-18.5772
G01 X57.6588 Y-18.5246
G01 X57.6326 Y-18.4692
G01 X57.6119 Y-18.4114
G01 X57.5970 Y-18.3519
G01 X57.5880 Y-18.2913
G01 X57.5850 Y-18.2300
G01 X57.5880 Y-18.1687
G01 X57.5970 Y-18.1081
G01 X57.6119 Y-18.0486
G01 X57.6326 Y-17.9908
G01 X57.6588 Y-17.9354
G01 X57.6903 Y-17.8828
G01 X57.7269 Y-17.8335
G01 X57.7681 Y-17.7881
G01 X57.8135 Y-17.7469
G01 X57.8628 Y-17.7103
G01 X57.9154 Y-17.6788
G01 X57.9708 Y-17.6526
G01 X58.0286 Y-17.6319
G01 X58.0881 Y-17.6170
G01 X58.1487 Y-17.6080
G01 X58.2100 Y-17.6050
G01 X58.2713 Y-17.6080
G01 X58.3319 Y-17.6170
G01 X58.3914 Y-17.6319
G01 X58.4492 Y-17.6526
G01 X58.5046 Y-17.6788
G01 X58.5572 Y-17.7103
G01 X58.6065 Y-17.7469
G01 X58.6519 Y-17.7881
G01 X58.6931 Y-17.8335
G01 X58.7297 Y-17.8828
G01 X58.7612 Y-17.9354
G01 X58.7874 Y-17.9908
G01 X58.8081 Y-18.0486
G01 X58.8230 Y-18.1081
G01 X58.8320 Y-18.1687
G01 X58.8350 Y-18.2300
G00 X58.8350 Y-18.2300
G01 F60.00
G01 Z-1.6000
G01 F60.00
G01 X58.8320 Y-18.2913
G01 X58.8230 Y-18.3519
G01 X58.8081 Y-18.4114
G01 X58.7874 Y-18.4692
G01 X58.7612 Y-18.5246
G01 X58.7297 Y-18.5772
G01 X58.6931 Y-18.6265
G01 X58.6519 Y-18.6719
G01 X58.6065 Y-18.7131
G01 X58.5572 Y-18.7497
G01 X58.5046 Y-18.7812
G01 X58.4492 Y-18.8074
G01 X58.3914 Y-18.8281
G01 X58.3319 Y-18.8430
G01 X58.2713 Y-18.8520
G01 X58.2100 Y-18.8550
G01 X58.1487 Y-18.8520
G01 X58.0881 Y-18.8430
G01 X58.0286 Y-18.8281
G01 X57.9708 Y-18.8074
G01 X57.9154 Y-18.7812
G01 X57.8628 Y-18.7497
G01 X57.8135 Y-18.7131
G01 X57.7681 Y-18.6719
G01 X57.7269 Y-18.6265
G01 X57.6903 Y-18.5772
G01 X57.6588 Y-18.5246
G01 X57.6326 Y-18.4692
G01 X57.6119 Y-18.4114
G01 X57.5970 Y-18.3519
G01 X57.5880 Y-18.2913
G01 X57.5850 Y-18.2300
G01 X57.5880 Y-18.1687
G01 X57.5970 Y-18.1081
G01 X57.6119 Y-18.0486
G01 X57.6326 Y-17.9908
G01 X57.6588 Y-17.9354
G01 X57.6903 Y-17.8828
G01 X57.7269 Y-17.8335
G01 X57.7681 Y-17.7881
G01 X57.8135 Y-17.7469
G01 X57.8628 Y-17.7103
G01 X57.9154 Y-17.6788
G01 X57.9708 Y-17.6526
G01 X58.0286 Y-17.6319
G01 X58.0881 Y-17.6170
G01 X58.1487 Y-17.6080
G01 X58.2100 Y-17.6050
G01 X58.2713 Y-17.6080
G01 X58.3319 Y-17.6170
G01 X58.3914 Y-17.6319
G01 X58.4492 Y-17.6526
G01 X58.5046 Y-17.6788
G01 X58.5572 Y-17.7103
G01 X58.6065 Y-17.7469
G01 X58.6519 Y-17.7881
G01 X58.6931 Y-17.8335
G01 X58.7297 Y-17.8828
G01 X58.7612 Y-17.9354
G01 X58.7874 Y-17.9908
G01 X58.8081 Y-18.0486
G01 X58.8230 Y-18.1081
G01 X58.8320 Y-18.1687
G01 X58.8350 Y-18.2300
G00 X58.8350 Y-18.2300
G01 F60.00
G01 Z-1.7000
G01 F60.00
G01 X58.8320 Y-18.2913
G01 X58.8230 Y-18.3519
G01 X58.8081 Y-18.4114
G01 X58.7874 Y-18.4692
G01 X58.7612 Y-18.5246
G01 X58.7297 Y-18.5772
G01 X58.6931 Y-18.6265
G01 X58.6519 Y-18.6719
G01 X58.6065 Y-18.7131
G01 X58.5572 Y-18.7497
G01 X58.5046 Y-18.7812
G01 X58.4492 Y-18.8074
G01 X58.3914 Y-18.8281
G01 X58.3319 Y-18.8430
G01 X58.2713 Y-18.8520
G01 X58.2100 Y-18.8550
G01 X58.1487 Y-18.8520
G01 X58.0881 Y-18.8430
G01 X58.0286 Y-18.8281
G01 X57.9708 Y-18.8074
G01 X57.9154 Y-18.7812
G01 X57.8628 Y-18.7497
G01 X57.8135 Y-18.7131
G01 X57.7681 Y-18.6719
G01 X57.7269 Y-18.6265
G01 X57.6903 Y-18.5772
G01 X57.6588 Y-18.5246
G01 X57.6326 Y-18.4692
G01 X57.6119 Y-18.4114
G01 X57.5970 Y-18.3519
G01 X57.5880 Y-18.2913
G01 X57.5850 Y-18.2300
G01 X57.5880 Y-18.1687
G01 X57.5970 Y-18.1081
G01 X57.6119 Y-18.0486
G01 X57.6326 Y-17.9908
G01 X57.6588 Y-17.9354
G01 X57.6903 Y-17.8828
G01 X57.7269 Y-17.8335
G01 X57.7681 Y-17.7881
G01 X57.8135 Y-17.7469
G01 X57.8628 Y-17.7103
G01 X57.9154 Y-17.6788
G01 X57.9708 Y-17.6526
G01 X58.0286 Y-17.6319
G01 X58.0881 Y-17.6170
G01 X58.1487 Y-17.6080
G01 X58.2100 Y-17.6050
G01 X58.2713 Y-17.6080
G01 X58.3319 Y-17.6170
G01 X58.3914 Y-17.6319
G01 X58.4492 Y-17.6526
G01 X58.5046 Y-17.6788
G01 X58.5572 Y-17.7103
G01 X58.6065 Y-17.7469
G01 X58.6519 Y-17.7881
G01 X58.6931 Y-17.8335
G01 X58.7297 Y-17.8828
G01 X58.7612 Y-17.9354
G01 X58.7874 Y-17.9908
G01 X58.8081 Y-18.0486
G01 X58.8230 Y-18.1081
G01 X58.8320 Y-18.1687
G01 X58.8350 Y-18.2300
G00 Z2.0000
G00 X58.8350 Y-30.2700
G01 F60.00
G01 Z-0.8000
G01 F60.00
G01 X58.8320 Y-30.3313
G01 X58.8230 Y-30.3919
G01 X58.8081 Y-30.4514
G01 X58.7874 Y-30.5092
G01 X58.7612 Y-30.5646
G01 X58.7297 Y-30.6172
G01 X58.6931 Y-30.6665
G01 X58.6519 Y-30.7119
G01 X58.6065 Y-30.7531
G01 X58.5572 Y-30.7897
G01 X58.5046 Y-30.8212
G01 X58.4492 Y-30.8474
G01 X58.3914 Y-30.8681
G01 X58.3319 Y-30.8830
G01 X58.2713 Y-30.8920
G01 X58.2100 Y-30.8950
G01 X58.1487 Y-30.8920
G01 X58.0881 Y-30.8830
G01 X58.0286 Y-30.8681
G01 X57.9708 Y-30.8474
G01 X57.9154 Y-30.8212
G01 X57.8628 Y-30.7897
G01 X57.8135 Y-30.7531
G01 X57.7681 Y-30.7119
G01 X57.7269 Y-30.6665
G01 X57.6903 Y-30.6172
G01 X57.6588 Y-30.5646
G01 X57.6326 Y-30.5092
G01 X57.6119 Y-30.4514
G01 X57.5970 Y-30.3919
G01 X57.5880 Y-30.3313
G01 X57.5850 Y-30.2700
G01 X57.5880 Y-30.2087
G01 X57.5970 Y-30.1481
G01 X57.6119 Y-30.0886
G01 X57.6326 Y-30.0308
G01 X57.6588 Y-29.9754
G01 X57.6903 Y-29.9228
G01 X57.7269 Y-29.8735
G01 X57.7681 Y-29.8281
G01 X57.8135 Y-29.7869
G01 X57.8628 Y-29.7503
G01 X57.9154 Y-29.7188
G01 X57.9708 Y-29.6926
G01 X58.0286 Y-29.6719
G01 X58.0881 Y-29.6570
G01 X58.1487 Y-29.6480
G01 X58.2100 Y-29.6450
G01 X58.2713 Y-29.6480
G01 X58.3319 Y-29.6570
G01 X58.3914 Y-29.6719
G01 X58.4492 Y-29.6926
G01 X58.5046 Y-29.7188
G01 X58.5572 Y-29.7503
G01 X58.6065 Y-29.7869
G01 X58.6519 Y-29.8281
G01 X58.6931 Y-29.8735
G01 X58.7297 Y-29.9228
G01 X58.7612 Y-29.9754
G01 X58.7874 Y-30.0308
G01 X58.8081 Y-30.0886
G01 X58.8230 Y-30.1481
G01 X58.8320 Y-30.2087
G01 X58.8350 Y-30.2700
G00 X58.8350 Y-30.2700
G01 F60.00
G01 Z-1.6000
G01 F60.00
G01 X58.8320 Y-30.3313
G01 X58.8230 Y-30.3919
G01 X58.8081 Y-30.4514
G01 X58.7874 Y-30.5092
G01 X58.7612 Y-30.5646
G01 X58.7297 Y-30.6172
G01 X58.6931 Y-30.6665
G01 X58.6519 Y-30.7119
G01 X58.6065 Y-30.7531
G01 X58.5572 Y-30.7897
G01 X58.5046 Y-30.8212
G01 X58.4492 Y-30.8474
G01 X58.3914 Y-30.8681
G01 X58.3319 Y-30.8830
G01 X58.2713 Y-30.8920
G01 X58.2100 Y-30.8950
G01 X58.1487 Y-30.8920
G01 X58.0881 Y-30.8830
G01 X58.0286 Y-30.8681
G01 X57.9708 Y-30.8474
G01 X57.9154 Y-30.8212
G01 X57.8628 Y-30.7897
G01 X57.8135 Y-30.7531
G01 X57.7681 Y-30.7119
G01 X57.7269 Y-30.6665
G01 X57.6903 Y-30.6172
G01 X57.6588 Y-30.5646
G01 X57.6326 Y-30.5092
G01 X57.6119 Y-30.4514
G01 X57.5970 Y-30.3919
G01 X57.5880 Y-30.3313
G01 X57.5850 Y-30.2700
G01 X57.5880 Y-30.2087
G01 X57.5970 Y-30.1481
G01 X57.6119 Y-30.0886
G01 X57.6326 Y-30.0308
G01 X57.6588 Y-29.9754
G01 X57.6903 Y-29.9228
G01 X57.7269 Y-29.8735
G01 X57.7681 Y-29.8281
G01 X57.8135 Y-29.7869
G01 X57.8628 Y-29.7503
G01 X57.9154 Y-29.7188
G01 X57.9708 Y-29.6926
G01 X58.0286 Y-29.6719
G01 X58.0881 Y-29.6570
G01 X58.1487 Y-29.6480
G01 X58.2100 Y-29.6450
G01 X58.2713 Y-29.6480
G01 X58.3319 Y-29.6570
G01 X58.3914 Y-29.6719
G01 X58.4492 Y-29.6926
G01 X58.5046 Y-29.7188
G01 X58.5572 Y-29.7503
G01 X58.6065 Y-29.7869
G01 X58.6519 Y-29.8281
G01 X58.6931 Y-29.8735
G01 X58.7297 Y-29.9228
G01 X58.7612 Y-29.9754
G01 X58.7874 Y-30.0308
G01 X58.8081 Y-30.0886
G01 X58.8230 Y-30.1481
G01 X58.8320 Y-30.2087
G01 X58.8350 Y-30.2700
G00 X58.8350 Y-30.2700
G01 F60.00
G01 Z-1.7000
G01 F60.00
G01 X58.8320 Y-30.3313
G01 X58.8230 Y-30.3919
G01 X58.8081 Y-30.4514
G01 X58.7874 Y-30.5092
G01 X58.7612 Y-30.5646
G01 X58.7297 Y-30.6172
G01 X58.6931 Y-30.6665
G01 X58.6519 Y-30.7119
G01 X58.6065 Y-30.7531
G01 X58.5572 Y-30.7897
G01 X58.5046 Y-30.8212
G01 X58.4492 Y-30.8474
G01 X58.3914 Y-30.8681
G01 X58.3319 Y-30.8830
G01 X58.2713 Y-30.8920
G01 X58.2100 Y-30.8950
G01 X58.1487 Y-30.8920
G01 X58.0881 Y-30.8830
G01 X58.0286 Y-30.8681
G01 X57.9708 Y-30.8474
G01 X57.9154 Y-30.8212
G01 X57.8628 Y-30.7897
G01 X57.8135 Y-30.7531
G01 X57.7681 Y-30.7119
G01 X57.7269 Y-30.6665
G01 X57.6903 Y-30.6172
G01 X57.6588 Y-30.5646
G01 X57.6326 Y-30.5092
G01 X57.6119 Y-30.4514
G01 X57.5970 Y-30.3919
G01 X57.5880 Y-30.3313
G01 X57.5850 Y-30.2700
G01 X57.5880 Y-30.2087
G01 X57.5970 Y-30.1481
G01 X57.6119 Y-30.0886
G01 X57.6326 Y-30.0308
G01 X57.6588 Y-29.9754
G01 X57.6903 Y-29.9228
G01 X57.7269 Y-29.8735
G01 X57.7681 Y-29.8281
G01 X57.8135 Y-29.7869
G01 X57.8628 Y-29.7503
G01 X57.9154 Y-29.7188
G01 X57.9708 Y-29.6926
G01 X58.0286 Y-29.6719
G01 X58.0881 Y-29.6570
G01 X58.1487 Y-29.6480
G01 X58.2100 Y-29.6450
G01 X58.2713 Y-29.6480
G01 X58.3319 Y-29.6570
G01 X58.3914 Y-29.6719
G01 X58.4492 Y-29.6926
G01 X58.5046 Y-29.7188
G01 X58.5572 Y-29.7503
G01 X58.6065 Y-29.7869
G01 X58.6519 Y-29.8281
G01 X58.6931 Y-29.8735
G01 X58.7297 Y-29.9228
G01 X58.7612 Y-29.9754
G01 X58.7874 Y-30.0308
G01 X58.8081 Y-30.0886
G01 X58.8230 Y-30.1481
G01 X58.8320 Y-30.2087
G01 X58.8350 Y-30.2700
G00 Z2.0000
M05
G00 Z2.0000
G00 Z15.00


