(G-CODE GENERATED BY FLATCAM v8.994 - www.flatcam.org - Version Date: 2020/11/7)

(Name: atmega32u4 test.GM2_cutout_cnc)
(Type: G-code from Geometry)
(Units: MM)

(Created on Sunday, 29 August 2021 at 12:52)

(This preprocessor is the default preprocessor used by FlatCAM.)
(It is made to work with MACH3 compatible motion controllers.)

(TOOL DIAMETER: 1.1 mm)
(Feedrate_XY: 60.0 mm/min)
(Feedrate_Z: 60.0 mm/min)
(Feedrate rapids 1500.0 mm/min)

(Z_Cut: -1.7 mm)
(DepthPerCut: 0.6 mm <=>3 passes)
(Z_Move: 2.0 mm)
(Z Start: None mm)
(Z End: 15.0 mm)
(X,Y End: None mm)
(Steps per circle: 64)
(Preprocessor Geometry: default)

(X range:   -0.7125 ...   60.7125  mm)
(Y range:  -50.7125 ...    0.7125  mm)

(Spindle Speed: 0.0 RPM)
G21
G90
G94

G01 F60.00

M5
G00 Z15.0000
G00 X0.0000 Y0.0000
T1
M6    
(MSG, Change to Tool Dia = 1.1000)
M0
G00 Z15.0000

M03
G01 F60.00
G00 X-0.7125 Y-23.8500
G01 F60.00
G01 Z-0.6000
G01 F60.00
G01 X-0.7125 Y-2.5583
G01 X-0.7117 Y-2.5233
G01 X-0.6994 Y-2.2726
G01 X-0.6964 Y-2.2347
G01 X-0.6925 Y-2.2030
G01 X-0.6557 Y-1.9547
G01 X-0.6502 Y-1.9232
G01 X-0.6420 Y-1.8861
G01 X-0.5810 Y-1.6425
G01 X-0.5725 Y-1.6118
G01 X-0.5607 Y-1.5756
G01 X-0.4761 Y-1.3392
G01 X-0.4647 Y-1.3095
G01 X-0.4494 Y-1.2746
G01 X-0.3420 Y-1.0477
G01 X-0.3277 Y-1.0192
G01 X-0.3091 Y-0.9860
G01 X-0.1800 Y-0.7707
G01 X-0.1629 Y-0.7437
G01 X-0.1412 Y-0.7125
G01 X0.0084 Y-0.5109
G01 X0.0280 Y-0.4857
G01 X0.0528 Y-0.4568
G01 X0.2214 Y-0.2708
G01 X0.2434 Y-0.2477
G01 X0.2708 Y-0.2214
G01 X0.4568 Y-0.0528
G01 X0.4810 Y-0.0319
G01 X0.5109 Y-0.0084
G01 X0.7125 Y0.1412
G01 X0.7386 Y0.1595
G01 X0.7707 Y0.1800
G01 X0.9860 Y0.3091
G01 X1.0192 Y0.3277
G01 X1.0477 Y0.3420
G01 X1.2746 Y0.4494
G01 X1.3095 Y0.4647
G01 X1.3392 Y0.4761
G01 X1.5756 Y0.5607
G01 X1.6118 Y0.5725
G01 X1.6425 Y0.5810
G01 X1.8861 Y0.6420
G01 X1.9232 Y0.6502
G01 X1.9547 Y0.6557
G01 X2.2030 Y0.6925
G01 X2.2347 Y0.6964
G01 X2.2726 Y0.6994
G01 X2.5393 Y0.7123
G01 X2.5583 Y0.7125
G01 X29.0500 Y0.7125
G00 X29.0500 Y0.7125
G01 F60.00
G01 Z-1.2000
G01 F60.00
G01 X2.5583 Y0.7125
G01 X2.5393 Y0.7123
G01 X2.2726 Y0.6994
G01 X2.2347 Y0.6964
G01 X2.2030 Y0.6925
G01 X1.9547 Y0.6557
G01 X1.9232 Y0.6502
G01 X1.8861 Y0.6420
G01 X1.6425 Y0.5810
G01 X1.6118 Y0.5725
G01 X1.5756 Y0.5607
G01 X1.3392 Y0.4761
G01 X1.3095 Y0.4647
G01 X1.2746 Y0.4494
G01 X1.0477 Y0.3420
G01 X1.0192 Y0.3277
G01 X0.9860 Y0.3091
G01 X0.7707 Y0.1800
G01 X0.7386 Y0.1595
G01 X0.7125 Y0.1412
G01 X0.5109 Y-0.0084
G01 X0.4810 Y-0.0319
G01 X0.4568 Y-0.0528
G01 X0.2708 Y-0.2214
G01 X0.2434 Y-0.2477
G01 X0.2214 Y-0.2708
G01 X0.0528 Y-0.4568
G01 X0.0280 Y-0.4857
G01 X0.0084 Y-0.5109
G01 X-0.1412 Y-0.7125
G01 X-0.1629 Y-0.7437
G01 X-0.1800 Y-0.7707
G01 X-0.3091 Y-0.9860
G01 X-0.3277 Y-1.0192
G01 X-0.3420 Y-1.0477
G01 X-0.4494 Y-1.2746
G01 X-0.4647 Y-1.3095
G01 X-0.4761 Y-1.3392
G01 X-0.5607 Y-1.5756
G01 X-0.5725 Y-1.6118
G01 X-0.5810 Y-1.6425
G01 X-0.6420 Y-1.8861
G01 X-0.6502 Y-1.9232
G01 X-0.6557 Y-1.9547
G01 X-0.6925 Y-2.2030
G01 X-0.6964 Y-2.2347
G01 X-0.6994 Y-2.2726
G01 X-0.7117 Y-2.5233
G01 X-0.7125 Y-2.5583
G01 X-0.7125 Y-23.8500
G00 X-0.7125 Y-23.8500
G01 F60.00
G01 Z-1.7000
G01 F60.00
G01 X-0.7125 Y-2.5583
G01 X-0.7117 Y-2.5233
G01 X-0.6994 Y-2.2726
G01 X-0.6964 Y-2.2347
G01 X-0.6925 Y-2.2030
G01 X-0.6557 Y-1.9547
G01 X-0.6502 Y-1.9232
G01 X-0.6420 Y-1.8861
G01 X-0.5810 Y-1.6425
G01 X-0.5725 Y-1.6118
G01 X-0.5607 Y-1.5756
G01 X-0.4761 Y-1.3392
G01 X-0.4647 Y-1.3095
G01 X-0.4494 Y-1.2746
G01 X-0.3420 Y-1.0477
G01 X-0.3277 Y-1.0192
G01 X-0.3091 Y-0.9860
G01 X-0.1800 Y-0.7707
G01 X-0.1629 Y-0.7437
G01 X-0.1412 Y-0.7125
G01 X0.0084 Y-0.5109
G01 X0.0280 Y-0.4857
G01 X0.0528 Y-0.4568
G01 X0.2214 Y-0.2708
G01 X0.2434 Y-0.2477
G01 X0.2708 Y-0.2214
G01 X0.4568 Y-0.0528
G01 X0.4810 Y-0.0319
G01 X0.5109 Y-0.0084
G01 X0.7125 Y0.1412
G01 X0.7386 Y0.1595
G01 X0.7707 Y0.1800
G01 X0.9860 Y0.3091
G01 X1.0192 Y0.3277
G01 X1.0477 Y0.3420
G01 X1.2746 Y0.4494
G01 X1.3095 Y0.4647
G01 X1.3392 Y0.4761
G01 X1.5756 Y0.5607
G01 X1.6118 Y0.5725
G01 X1.6425 Y0.5810
G01 X1.8861 Y0.6420
G01 X1.9232 Y0.6502
G01 X1.9547 Y0.6557
G01 X2.2030 Y0.6925
G01 X2.2347 Y0.6964
G01 X2.2726 Y0.6994
G01 X2.5393 Y0.7123
G01 X2.5583 Y0.7125
G01 X29.0500 Y0.7125
G00 Z2.0000
G00 X31.1500 Y0.7125
G01 F60.00
G01 Z-0.6000
G01 F60.00
G01 X57.5000 Y0.7125
G01 X57.5190 Y0.7123
G01 X57.7800 Y0.6996
G01 X57.8179 Y0.6967
G01 X57.8496 Y0.6928
G01 X58.0923 Y0.6568
G01 X58.1237 Y0.6513
G01 X58.1609 Y0.6431
G01 X58.3988 Y0.5835
G01 X58.4296 Y0.5750
G01 X58.4658 Y0.5632
G01 X58.6968 Y0.4806
G01 X58.7322 Y0.4667
G01 X58.7614 Y0.4538
G01 X58.9831 Y0.3489
G01 X59.0170 Y0.3317
G01 X59.0448 Y0.3160
G01 X59.2552 Y0.1898
G01 X59.2873 Y0.1694
G01 X59.3134 Y0.1510
G01 X59.5104 Y0.0048
G01 X59.5403 Y-0.0187
G01 X59.5645 Y-0.0395
G01 X59.7463 Y-0.2043
G01 X59.7737 Y-0.2306
G01 X59.7957 Y-0.2537
G01 X59.9605 Y-0.4355
G01 X59.9852 Y-0.4644
G01 X60.0048 Y-0.4896
G01 X60.1510 Y-0.6866
G01 X60.1728 Y-0.7178
G01 X60.1898 Y-0.7448
G01 X60.3160 Y-0.9552
G01 X60.3346 Y-0.9884
G01 X60.3489 Y-1.0169
G01 X60.4538 Y-1.2386
G01 X60.4691 Y-1.2735
G01 X60.4806 Y-1.3032
G01 X60.5632 Y-1.5342
G01 X60.5750 Y-1.5704
G01 X60.5835 Y-1.6012
G01 X60.6431 Y-1.8391
G01 X60.6513 Y-1.8763
G01 X60.6568 Y-1.9077
G01 X60.6928 Y-2.1504
G01 X60.6973 Y-2.1882
G01 X60.6996 Y-2.2200
G01 X60.7117 Y-2.4650
G01 X60.7125 Y-2.5000
G01 X60.7125 Y-23.8500
G00 X60.7125 Y-23.8500
G01 F60.00
G01 Z-1.2000
G01 F60.00
G01 X60.7125 Y-2.5000
G01 X60.7117 Y-2.4650
G01 X60.6996 Y-2.2200
G01 X60.6973 Y-2.1882
G01 X60.6928 Y-2.1504
G01 X60.6568 Y-1.9077
G01 X60.6513 Y-1.8763
G01 X60.6431 Y-1.8391
G01 X60.5835 Y-1.6012
G01 X60.5750 Y-1.5704
G01 X60.5632 Y-1.5342
G01 X60.4806 Y-1.3032
G01 X60.4691 Y-1.2735
G01 X60.4538 Y-1.2386
G01 X60.3489 Y-1.0169
G01 X60.3346 Y-0.9884
G01 X60.3160 Y-0.9552
G01 X60.1898 Y-0.7448
G01 X60.1728 Y-0.7178
G01 X60.1510 Y-0.6866
G01 X60.0048 Y-0.4896
G01 X59.9852 Y-0.4644
G01 X59.9605 Y-0.4355
G01 X59.7957 Y-0.2537
G01 X59.7737 Y-0.2306
G01 X59.7463 Y-0.2043
G01 X59.5645 Y-0.0395
G01 X59.5403 Y-0.0187
G01 X59.5104 Y0.0048
G01 X59.3134 Y0.1510
G01 X59.2873 Y0.1694
G01 X59.2552 Y0.1898
G01 X59.0448 Y0.3160
G01 X59.0170 Y0.3317
G01 X58.9831 Y0.3489
G01 X58.7614 Y0.4538
G01 X58.7322 Y0.4667
G01 X58.6968 Y0.4806
G01 X58.4658 Y0.5632
G01 X58.4296 Y0.5750
G01 X58.3988 Y0.5835
G01 X58.1609 Y0.6431
G01 X58.1237 Y0.6513
G01 X58.0923 Y0.6568
G01 X57.8496 Y0.6928
G01 X57.8179 Y0.6967
G01 X57.7800 Y0.6996
G01 X57.5190 Y0.7123
G01 X57.5000 Y0.7125
G01 X31.1500 Y0.7125
G00 X31.1500 Y0.7125
G01 F60.00
G01 Z-1.7000
G01 F60.00
G01 X57.5000 Y0.7125
G01 X57.5190 Y0.7123
G01 X57.7800 Y0.6996
G01 X57.8179 Y0.6967
G01 X57.8496 Y0.6928
G01 X58.0923 Y0.6568
G01 X58.1237 Y0.6513
G01 X58.1609 Y0.6431
G01 X58.3988 Y0.5835
G01 X58.4296 Y0.5750
G01 X58.4658 Y0.5632
G01 X58.6968 Y0.4806
G01 X58.7322 Y0.4667
G01 X58.7614 Y0.4538
G01 X58.9831 Y0.3489
G01 X59.0170 Y0.3317
G01 X59.0448 Y0.3160
G01 X59.2552 Y0.1898
G01 X59.2873 Y0.1694
G01 X59.3134 Y0.1510
G01 X59.5104 Y0.0048
G01 X59.5403 Y-0.0187
G01 X59.5645 Y-0.0395
G01 X59.7463 Y-0.2043
G01 X59.7737 Y-0.2306
G01 X59.7957 Y-0.2537
G01 X59.9605 Y-0.4355
G01 X59.9852 Y-0.4644
G01 X60.0048 Y-0.4896
G01 X60.1510 Y-0.6866
G01 X60.1728 Y-0.7178
G01 X60.1898 Y-0.7448
G01 X60.3160 Y-0.9552
G01 X60.3346 Y-0.9884
G01 X60.3489 Y-1.0169
G01 X60.4538 Y-1.2386
G01 X60.4691 Y-1.2735
G01 X60.4806 Y-1.3032
G01 X60.5632 Y-1.5342
G01 X60.5750 Y-1.5704
G01 X60.5835 Y-1.6012
G01 X60.6431 Y-1.8391
G01 X60.6513 Y-1.8763
G01 X60.6568 Y-1.9077
G01 X60.6928 Y-2.1504
G01 X60.6973 Y-2.1882
G01 X60.6996 Y-2.2200
G01 X60.7117 Y-2.4650
G01 X60.7125 Y-2.5000
G01 X60.7125 Y-23.8500
G00 Z2.0000
G00 X60.7125 Y-25.9500
G01 F60.00
G01 Z-0.6000
G01 F60.00
G01 X60.7125 Y-47.5000
G01 X60.7117 Y-47.5350
G01 X60.6996 Y-47.7800
G01 X60.6967 Y-47.8179
G01 X60.6928 Y-47.8496
G01 X60.6568 Y-48.0923
G01 X60.6501 Y-48.1297
G01 X60.6431 Y-48.1609
G01 X60.5835 Y-48.3988
G01 X60.5732 Y-48.4355
G01 X60.5632 Y-48.4658
G01 X60.4806 Y-48.6968
G01 X60.4667 Y-48.7322
G01 X60.4538 Y-48.7614
G01 X60.3489 Y-48.9831
G01 X60.3317 Y-49.0170
G01 X60.3160 Y-49.0448
G01 X60.1898 Y-49.2552
G01 X60.1728 Y-49.2822
G01 X60.1510 Y-49.3134
G01 X60.0048 Y-49.5104
G01 X59.9852 Y-49.5356
G01 X59.9605 Y-49.5645
G01 X59.7957 Y-49.7463
G01 X59.7737 Y-49.7694
G01 X59.7463 Y-49.7957
G01 X59.5645 Y-49.9605
G01 X59.5403 Y-49.9813
G01 X59.5104 Y-50.0048
G01 X59.3134 Y-50.1510
G01 X59.2873 Y-50.1694
G01 X59.2552 Y-50.1898
G01 X59.0448 Y-50.3160
G01 X59.0116 Y-50.3346
G01 X58.9831 Y-50.3489
G01 X58.7614 Y-50.4538
G01 X58.7265 Y-50.4691
G01 X58.6968 Y-50.4806
G01 X58.4658 Y-50.5632
G01 X58.4296 Y-50.5750
G01 X58.3988 Y-50.5835
G01 X58.1609 Y-50.6431
G01 X58.1237 Y-50.6513
G01 X58.0923 Y-50.6568
G01 X57.8496 Y-50.6928
G01 X57.8179 Y-50.6967
G01 X57.7800 Y-50.6996
G01 X57.5190 Y-50.7123
G01 X57.5000 Y-50.7125
G01 X31.1500 Y-50.7125
G00 X31.1500 Y-50.7125
G01 F60.00
G01 Z-1.2000
G01 F60.00
G01 X57.5000 Y-50.7125
G01 X57.5190 Y-50.7123
G01 X57.7800 Y-50.6996
G01 X57.8179 Y-50.6967
G01 X57.8496 Y-50.6928
G01 X58.0923 Y-50.6568
G01 X58.1237 Y-50.6513
G01 X58.1609 Y-50.6431
G01 X58.3988 Y-50.5835
G01 X58.4296 Y-50.5750
G01 X58.4658 Y-50.5632
G01 X58.6968 Y-50.4806
G01 X58.7265 Y-50.4691
G01 X58.7614 Y-50.4538
G01 X58.9831 Y-50.3489
G01 X59.0116 Y-50.3346
G01 X59.0448 Y-50.3160
G01 X59.2552 Y-50.1898
G01 X59.2873 Y-50.1694
G01 X59.3134 Y-50.1510
G01 X59.5104 Y-50.0048
G01 X59.5403 Y-49.9813
G01 X59.5645 Y-49.9605
G01 X59.7463 Y-49.7957
G01 X59.7737 Y-49.7694
G01 X59.7957 Y-49.7463
G01 X59.9605 Y-49.5645
G01 X59.9852 Y-49.5356
G01 X60.0048 Y-49.5104
G01 X60.1510 Y-49.3134
G01 X60.1728 Y-49.2822
G01 X60.1898 Y-49.2552
G01 X60.3160 Y-49.0448
G01 X60.3317 Y-49.0170
G01 X60.3489 Y-48.9831
G01 X60.4538 Y-48.7614
G01 X60.4667 Y-48.7322
G01 X60.4806 Y-48.6968
G01 X60.5632 Y-48.4658
G01 X60.5732 Y-48.4355
G01 X60.5835 Y-48.3988
G01 X60.6431 Y-48.1609
G01 X60.6501 Y-48.1297
G01 X60.6568 Y-48.0923
G01 X60.6928 Y-47.8496
G01 X60.6967 Y-47.8179
G01 X60.6996 Y-47.7800
G01 X60.7117 Y-47.5350
G01 X60.7125 Y-47.5000
G01 X60.7125 Y-25.9500
G00 X60.7125 Y-25.9500
G01 F60.00
G01 Z-1.7000
G01 F60.00
G01 X60.7125 Y-47.5000
G01 X60.7117 Y-47.5350
G01 X60.6996 Y-47.7800
G01 X60.6967 Y-47.8179
G01 X60.6928 Y-47.8496
G01 X60.6568 Y-48.0923
G01 X60.6501 Y-48.1297
G01 X60.6431 Y-48.1609
G01 X60.5835 Y-48.3988
G01 X60.5732 Y-48.4355
G01 X60.5632 Y-48.4658
G01 X60.4806 Y-48.6968
G01 X60.4667 Y-48.7322
G01 X60.4538 Y-48.7614
G01 X60.3489 Y-48.9831
G01 X60.3317 Y-49.0170
G01 X60.3160 Y-49.0448
G01 X60.1898 Y-49.2552
G01 X60.1728 Y-49.2822
G01 X60.1510 Y-49.3134
G01 X60.0048 Y-49.5104
G01 X59.9852 Y-49.5356
G01 X59.9605 Y-49.5645
G01 X59.7957 Y-49.7463
G01 X59.7737 Y-49.7694
G01 X59.7463 Y-49.7957
G01 X59.5645 Y-49.9605
G01 X59.5403 Y-49.9813
G01 X59.5104 Y-50.0048
G01 X59.3134 Y-50.1510
G01 X59.2873 Y-50.1694
G01 X59.2552 Y-50.1898
G01 X59.0448 Y-50.3160
G01 X59.0116 Y-50.3346
G01 X58.9831 Y-50.3489
G01 X58.7614 Y-50.4538
G01 X58.7265 Y-50.4691
G01 X58.6968 Y-50.4806
G01 X58.4658 Y-50.5632
G01 X58.4296 Y-50.5750
G01 X58.3988 Y-50.5835
G01 X58.1609 Y-50.6431
G01 X58.1237 Y-50.6513
G01 X58.0923 Y-50.6568
G01 X57.8496 Y-50.6928
G01 X57.8179 Y-50.6967
G01 X57.7800 Y-50.6996
G01 X57.5190 Y-50.7123
G01 X57.5000 Y-50.7125
G01 X31.1500 Y-50.7125
G00 Z2.0000
G00 X29.0500 Y-50.7125
G01 F60.00
G01 Z-0.6000
G01 F60.00
G01 X2.5392 Y-50.7125
G01 X2.5202 Y-50.7123
G01 X2.2554 Y-50.6994
G01 X2.2174 Y-50.6965
G01 X2.1858 Y-50.6926
G01 X1.9393 Y-50.6560
G01 X1.9078 Y-50.6506
G01 X1.8707 Y-50.6424
G01 X1.6290 Y-50.5818
G01 X1.5982 Y-50.5733
G01 X1.5621 Y-50.5615
G01 X1.3274 Y-50.4776
G01 X1.2920 Y-50.4638
G01 X1.2628 Y-50.4508
G01 X1.0376 Y-50.3443
G01 X1.0037 Y-50.3271
G01 X0.9759 Y-50.3113
G01 X0.7622 Y-50.1832
G01 X0.7301 Y-50.1627
G01 X0.7040 Y-50.1444
G01 X0.5039 Y-49.9959
G01 X0.4740 Y-49.9724
G01 X0.4498 Y-49.9516
G01 X0.2652 Y-49.7842
G01 X0.2378 Y-49.7579
G01 X0.2158 Y-49.7348
G01 X0.0484 Y-49.5502
G01 X0.0237 Y-49.5213
G01 X0.0041 Y-49.4961
G01 X-0.1444 Y-49.2960
G01 X-0.1662 Y-49.2648
G01 X-0.1832 Y-49.2378
G01 X-0.3113 Y-49.0241
G01 X-0.3300 Y-48.9909
G01 X-0.3443 Y-48.9624
G01 X-0.4508 Y-48.7372
G01 X-0.4661 Y-48.7023
G01 X-0.4776 Y-48.6726
G01 X-0.5615 Y-48.4379
G01 X-0.5733 Y-48.4018
G01 X-0.5818 Y-48.3710
G01 X-0.6424 Y-48.1293
G01 X-0.6506 Y-48.0922
G01 X-0.6560 Y-48.0607
G01 X-0.6926 Y-47.8142
G01 X-0.6971 Y-47.7765
G01 X-0.6994 Y-47.7446
G01 X-0.7117 Y-47.4958
G01 X-0.7125 Y-47.4608
G01 X-0.7125 Y-25.9500
G00 X-0.7125 Y-25.9500
G01 F60.00
G01 Z-1.2000
G01 F60.00
G01 X-0.7125 Y-47.4608
G01 X-0.7117 Y-47.4958
G01 X-0.6994 Y-47.7446
G01 X-0.6971 Y-47.7765
G01 X-0.6926 Y-47.8142
G01 X-0.6560 Y-48.0607
G01 X-0.6506 Y-48.0922
G01 X-0.6424 Y-48.1293
G01 X-0.5818 Y-48.3710
G01 X-0.5733 Y-48.4018
G01 X-0.5615 Y-48.4379
G01 X-0.4776 Y-48.6726
G01 X-0.4661 Y-48.7023
G01 X-0.4508 Y-48.7372
G01 X-0.3443 Y-48.9624
G01 X-0.3300 Y-48.9909
G01 X-0.3113 Y-49.0241
G01 X-0.1832 Y-49.2378
G01 X-0.1662 Y-49.2648
G01 X-0.1444 Y-49.2960
G01 X0.0041 Y-49.4961
G01 X0.0237 Y-49.5213
G01 X0.0484 Y-49.5502
G01 X0.2158 Y-49.7348
G01 X0.2378 Y-49.7579
G01 X0.2652 Y-49.7842
G01 X0.4498 Y-49.9516
G01 X0.4740 Y-49.9724
G01 X0.5039 Y-49.9959
G01 X0.7040 Y-50.1444
G01 X0.7301 Y-50.1627
G01 X0.7622 Y-50.1832
G01 X0.9759 Y-50.3113
G01 X1.0037 Y-50.3271
G01 X1.0376 Y-50.3443
G01 X1.2628 Y-50.4508
G01 X1.2920 Y-50.4638
G01 X1.3274 Y-50.4776
G01 X1.5621 Y-50.5615
G01 X1.5982 Y-50.5733
G01 X1.6290 Y-50.5818
G01 X1.8707 Y-50.6424
G01 X1.9078 Y-50.6506
G01 X1.9393 Y-50.6560
G01 X2.1858 Y-50.6926
G01 X2.2174 Y-50.6965
G01 X2.2554 Y-50.6994
G01 X2.5202 Y-50.7123
G01 X2.5392 Y-50.7125
G01 X29.0500 Y-50.7125
G00 X29.0500 Y-50.7125
G01 F60.00
G01 Z-1.7000
G01 F60.00
G01 X2.5392 Y-50.7125
G01 X2.5202 Y-50.7123
G01 X2.2554 Y-50.6994
G01 X2.2174 Y-50.6965
G01 X2.1858 Y-50.6926
G01 X1.9393 Y-50.6560
G01 X1.9078 Y-50.6506
G01 X1.8707 Y-50.6424
G01 X1.6290 Y-50.5818
G01 X1.5982 Y-50.5733
G01 X1.5621 Y-50.5615
G01 X1.3274 Y-50.4776
G01 X1.2920 Y-50.4638
G01 X1.2628 Y-50.4508
G01 X1.0376 Y-50.3443
G01 X1.0037 Y-50.3271
G01 X0.9759 Y-50.3113
G01 X0.7622 Y-50.1832
G01 X0.7301 Y-50.1627
G01 X0.7040 Y-50.1444
G01 X0.5039 Y-49.9959
G01 X0.4740 Y-49.9724
G01 X0.4498 Y-49.9516
G01 X0.2652 Y-49.7842
G01 X0.2378 Y-49.7579
G01 X0.2158 Y-49.7348
G01 X0.0484 Y-49.5502
G01 X0.0237 Y-49.5213
G01 X0.0041 Y-49.4961
G01 X-0.1444 Y-49.2960
G01 X-0.1662 Y-49.2648
G01 X-0.1832 Y-49.2378
G01 X-0.3113 Y-49.0241
G01 X-0.3300 Y-48.9909
G01 X-0.3443 Y-48.9624
G01 X-0.4508 Y-48.7372
G01 X-0.4661 Y-48.7023
G01 X-0.4776 Y-48.6726
G01 X-0.5615 Y-48.4379
G01 X-0.5733 Y-48.4018
G01 X-0.5818 Y-48.3710
G01 X-0.6424 Y-48.1293
G01 X-0.6506 Y-48.0922
G01 X-0.6560 Y-48.0607
G01 X-0.6926 Y-47.8142
G01 X-0.6971 Y-47.7765
G01 X-0.6994 Y-47.7446
G01 X-0.7117 Y-47.4958
G01 X-0.7125 Y-47.4608
G01 X-0.7125 Y-25.9500
G00 Z2.0000
M05
G00 Z2.0000
G00 Z15.00


