(G-CODE GENERATED BY FLATCAM v8.994 - www.flatcam.org - Version Date: 2020/11/7)

(Name: atmega32u4 test.GBL_iso_combined_cnc)
(Type: G-code from Geometry)
(Units: MM)

(Created on Sunday, 29 August 2021 at 10:33)

(This preprocessor is the default preprocessor used by FlatCAM.)
(It is made to work with MACH3 compatible motion controllers.)

(TOOL DIAMETER: 0.1268 mm)
(Feedrate_XY: 60.0 mm/min)
(Feedrate_Z: 60.0 mm/min)
(Feedrate rapids 1500.0 mm/min)

(Z_Cut: -0.05 mm)
(Z_Move: 2.0 mm)
(Z Start: None mm)
(Z End: 15.0 mm)
(X,Y End: None mm)
(Steps per circle: 64)
(Preprocessor Geometry: default)

(X range:    0.1405 ...   59.9564  mm)
(Y range:  -49.8595 ...   -0.1405  mm)

(Spindle Speed: 0.0 RPM)
G21
G90
G94

G01 F60.00

M5
G00 Z15.0000
G00 X0.0000 Y0.0000
T1
M6    
(MSG, Change to Tool Dia = 0.1268)
M0
G00 Z15.0000

M03
G01 F60.00
G00 X1.8462 Y-0.2315
G01 F60.00
G01 Z-0.0500
G01 F60.00
G01 X1.8402 Y-0.2330
G01 X1.8343 Y-0.2351
G01 X1.4091 Y-0.4112
G01 X1.4035 Y-0.4139
G01 X1.3982 Y-0.4171
G01 X1.0156 Y-0.6727
G01 X1.0106 Y-0.6764
G01 X1.0060 Y-0.6806
G01 X0.6806 Y-1.0060
G01 X0.6764 Y-1.0106
G01 X0.6727 Y-1.0156
G01 X0.4171 Y-1.3982
G01 X0.4139 Y-1.4035
G01 X0.4112 Y-1.4091
G01 X0.2351 Y-1.8343
G01 X0.2330 Y-1.8402
G01 X0.2315 Y-1.8462
G01 X0.1417 Y-2.2975
G01 X0.1405 Y-2.3083
G01 X0.1405 Y-47.6917
G01 X0.1417 Y-47.7025
G01 X0.2315 Y-48.1538
G01 X0.2330 Y-48.1598
G01 X0.2351 Y-48.1657
G01 X0.4112 Y-48.5909
G01 X0.4139 Y-48.5965
G01 X0.4171 Y-48.6018
G01 X0.6727 Y-48.9844
G01 X0.6764 Y-48.9894
G01 X0.6806 Y-48.9940
G01 X1.0094 Y-49.3226
G01 X1.0156 Y-49.3273
G01 X1.3982 Y-49.5829
G01 X1.4035 Y-49.5861
G01 X1.4091 Y-49.5888
G01 X1.8343 Y-49.7649
G01 X1.8402 Y-49.7670
G01 X1.8462 Y-49.7685
G01 X2.2975 Y-49.8583
G01 X2.3037 Y-49.8592
G01 X2.3099 Y-49.8595
G01 X57.6901 Y-49.8595
G01 X57.6963 Y-49.8592
G01 X57.7025 Y-49.8583
G01 X58.1538 Y-49.7685
G01 X58.1598 Y-49.7670
G01 X58.1657 Y-49.7649
G01 X58.5909 Y-49.5888
G01 X58.5965 Y-49.5861
G01 X58.6018 Y-49.5829
G01 X58.9844 Y-49.3273
G01 X58.9894 Y-49.3236
G01 X58.9940 Y-49.3194
G01 X59.3226 Y-48.9906
G01 X59.3273 Y-48.9844
G01 X59.5829 Y-48.6018
G01 X59.5861 Y-48.5965
G01 X59.5888 Y-48.5909
G01 X59.7649 Y-48.1657
G01 X59.7670 Y-48.1598
G01 X59.7685 Y-48.1538
G01 X59.8583 Y-47.7025
G01 X59.8592 Y-47.6963
G01 X59.8595 Y-47.6901
G01 X59.8595 Y-30.8378
G01 X59.8816 Y-30.7755
G01 X59.9231 Y-30.6092
G01 X59.9480 Y-30.4412
G01 X59.9564 Y-30.2700
G01 X59.9480 Y-30.0988
G01 X59.9231 Y-29.9308
G01 X59.8816 Y-29.7645
G01 X59.8595 Y-29.7022
G01 X59.8595 Y-18.7978
G01 X59.8816 Y-18.7355
G01 X59.9231 Y-18.5692
G01 X59.9480 Y-18.4012
G01 X59.9564 Y-18.2300
G01 X59.9480 Y-18.0588
G01 X59.9231 Y-17.8908
G01 X59.8816 Y-17.7245
G01 X59.8595 Y-17.6622
G01 X59.8595 Y-2.3099
G01 X59.8592 Y-2.3037
G01 X59.8583 Y-2.2975
G01 X59.7685 Y-1.8462
G01 X59.7670 Y-1.8402
G01 X59.7649 Y-1.8343
G01 X59.5888 Y-1.4091
G01 X59.5861 Y-1.4035
G01 X59.5829 Y-1.3982
G01 X59.3273 Y-1.0156
G01 X59.3236 Y-1.0106
G01 X59.3194 Y-1.0060
G01 X58.9906 Y-0.6774
G01 X58.9844 Y-0.6727
G01 X58.6018 Y-0.4171
G01 X58.5965 Y-0.4139
G01 X58.5909 Y-0.4112
G01 X58.1657 Y-0.2351
G01 X58.1598 Y-0.2330
G01 X58.1538 Y-0.2315
G01 X57.7025 Y-0.1417
G01 X57.6963 Y-0.1408
G01 X57.6901 Y-0.1405
G01 X2.3099 Y-0.1405
G01 X2.3037 Y-0.1408
G01 X2.2975 Y-0.1417
G01 X1.8462 Y-0.2315
G00 Z2.0000
G00 X8.4041 Y-0.5574
G01 F60.00
G01 Z-0.0500
G01 F60.00
G01 X8.2339 Y-0.5798
G01 X8.0790 Y-0.6440
G01 X7.9426 Y-0.7486
G01 X2.3486 Y-6.3427
G01 X2.2439 Y-6.4790
G01 X2.1798 Y-6.6338
G01 X2.1574 Y-6.8041
G01 X2.1574 Y-36.1959
G01 X2.1798 Y-36.3662
G01 X2.2439 Y-36.5210
G01 X2.3486 Y-36.6573
G01 X6.2427 Y-40.5514
G01 X6.3790 Y-40.6560
G01 X6.5339 Y-40.7202
G01 X6.7041 Y-40.7426
G01 X20.0940 Y-40.7426
G01 X20.1018 Y-40.7431
G01 X20.1109 Y-40.7449
G01 X20.1197 Y-40.7480
G01 X20.1279 Y-40.7524
G01 X20.1342 Y-40.7570
G01 X20.1410 Y-40.7634
G01 X20.1458 Y-40.7695
G01 X20.1499 Y-40.7761
G01 X20.1532 Y-40.7832
G01 X20.1555 Y-40.7906
G01 X20.1569 Y-40.7982
G01 X20.1574 Y-40.8060
G01 X20.1574 Y-47.0959
G01 X20.1798 Y-47.2662
G01 X20.2439 Y-47.4210
G01 X20.3486 Y-47.5574
G01 X21.6426 Y-48.8515
G01 X21.7790 Y-48.9560
G01 X21.9339 Y-49.0202
G01 X22.1041 Y-49.0426
G01 X39.6959 Y-49.0426
G01 X39.8661 Y-49.0202
G01 X40.0210 Y-48.9560
G01 X40.1573 Y-48.8515
G01 X41.1514 Y-47.8573
G01 X41.2560 Y-47.7210
G01 X41.3202 Y-47.5661
G01 X41.3426 Y-47.3959
G01 X41.3426 Y-40.9541
G01 X41.3202 Y-40.7839
G01 X41.2560 Y-40.6290
G01 X41.1514 Y-40.4927
G01 X36.3112 Y-35.6523
G01 X36.3051 Y-35.6453
G01 X36.2994 Y-35.6360
G01 X36.2958 Y-35.6274
G01 X36.2933 Y-35.6168
G01 X36.2926 Y-35.6075
G01 X36.2926 Y-34.0060
G01 X36.2933 Y-33.9967
G01 X36.2953 Y-33.9876
G01 X36.2980 Y-33.9803
G01 X36.3024 Y-33.9721
G01 X36.3070 Y-33.9658
G01 X36.3123 Y-33.9601
G01 X36.3195 Y-33.9542
G01 X36.3261 Y-33.9501
G01 X36.3332 Y-33.9468
G01 X36.3406 Y-33.9445
G01 X36.3482 Y-33.9431
G01 X36.3560 Y-33.9426
G01 X40.6959 Y-33.9426
G01 X40.8661 Y-33.9202
G01 X41.0210 Y-33.8560
G01 X41.1573 Y-33.7514
G01 X42.8514 Y-32.0574
G01 X42.9560 Y-31.9210
G01 X43.0202 Y-31.7661
G01 X43.0426 Y-31.5959
G01 X43.0426 Y-28.8560
G01 X43.0429 Y-28.8498
G01 X43.0438 Y-28.8436
G01 X43.0453 Y-28.8376
G01 X43.0474 Y-28.8317
G01 X43.0501 Y-28.8261
G01 X43.0533 Y-28.8208
G01 X43.0601 Y-28.8123
G01 X43.0646 Y-28.8080
G01 X43.0708 Y-28.8033
G01 X43.0761 Y-28.8001
G01 X43.0817 Y-28.7974
G01 X43.0876 Y-28.7953
G01 X43.0936 Y-28.7938
G01 X43.0998 Y-28.7929
G01 X43.1060 Y-28.7926
G01 X45.5459 Y-28.7926
G01 X45.7161 Y-28.7702
G01 X45.8710 Y-28.7060
G01 X46.0073 Y-28.6015
G01 X48.3976 Y-26.2112
G01 X48.4022 Y-26.2070
G01 X48.4072 Y-26.2033
G01 X48.4125 Y-26.2001
G01 X48.4181 Y-26.1974
G01 X48.4240 Y-26.1953
G01 X48.4300 Y-26.1938
G01 X48.4362 Y-26.1929
G01 X48.4424 Y-26.1926
G01 X50.1959 Y-26.1926
G01 X50.2377 Y-26.1871
G01 X50.2459 Y-26.1866
G01 X51.0866 Y-26.1866
G01 X51.0871 Y-26.1732
G01 X51.0881 Y-26.1671
G01 X51.0898 Y-26.1611
G01 X51.0920 Y-26.1553
G01 X51.0948 Y-26.1498
G01 X51.0982 Y-26.1445
G01 X51.1020 Y-26.1396
G01 X51.1063 Y-26.1351
G01 X51.1110 Y-26.1310
G01 X51.1161 Y-26.1274
G01 X51.1229 Y-26.1237
G01 X51.1286 Y-26.1213
G01 X51.1346 Y-26.1195
G01 X51.1407 Y-26.1183
G01 X51.1469 Y-26.1177
G01 X52.5031 Y-26.1177
G01 X52.5124 Y-26.1188
G01 X52.5228 Y-26.1218
G01 X52.5326 Y-26.1266
G01 X52.5414 Y-26.1330
G01 X52.5490 Y-26.1408
G01 X52.5552 Y-26.1498
G01 X52.5597 Y-26.1596
G01 X52.5622 Y-26.1686
G01 X52.5631 Y-26.1748
G01 X52.5634 Y-26.1810
G01 X52.5634 Y-26.4366
G01 X54.4366 Y-26.4366
G01 X54.4366 Y-24.5634
G01 X52.5634 Y-24.5634
G01 X52.5634 Y-24.7690
G01 X52.5631 Y-24.7752
G01 X52.5619 Y-24.7829
G01 X52.5592 Y-24.7918
G01 X52.5544 Y-24.8016
G01 X52.5490 Y-24.8092
G01 X52.5414 Y-24.8170
G01 X52.5339 Y-24.8226
G01 X52.5243 Y-24.8276
G01 X52.5154 Y-24.8305
G01 X52.5047 Y-24.8322
G01 X50.4850 Y-24.8324
G01 X50.4774 Y-24.8319
G01 X50.4676 Y-24.8300
G01 X50.3000 Y-24.8079
G01 X50.1339 Y-24.8298
G01 X49.9789 Y-24.8940
G01 X49.9717 Y-24.8989
G01 X49.9631 Y-24.9030
G01 X49.9540 Y-24.9058
G01 X49.9431 Y-24.9073
G01 X48.1541 Y-24.9074
G01 X47.9839 Y-24.9298
G01 X47.8290 Y-24.9940
G01 X47.6927 Y-25.0986
G01 X45.3024 Y-27.4888
G01 X45.2954 Y-27.4949
G01 X45.2875 Y-27.4999
G01 X45.2775 Y-27.5042
G01 X45.2684 Y-27.5065
G01 X45.2576 Y-27.5074
G01 X38.7041 Y-27.5074
G01 X38.5339 Y-27.5298
G01 X38.4762 Y-27.5535
G01 X38.4702 Y-27.5552
G01 X38.4641 Y-27.5562
G01 X38.4532 Y-27.5566
G01 X38.4424 Y-27.5552
G01 X38.4320 Y-27.5519
G01 X38.4264 Y-27.5492
G01 X38.4211 Y-27.5460
G01 X38.4126 Y-27.5392
G01 X38.0411 Y-27.1677
G01 X37.9316 Y-27.0945
G01 X37.9267 Y-27.0907
G01 X37.9222 Y-27.0864
G01 X37.9181 Y-27.0817
G01 X37.9145 Y-27.0766
G01 X37.9108 Y-27.0698
G01 X37.9079 Y-27.0626
G01 X37.9059 Y-27.0551
G01 X37.9050 Y-27.0489
G01 X37.9047 Y-27.0427
G01 X37.9049 Y-26.9777
G01 X37.9057 Y-26.9713
G01 X37.9072 Y-26.9650
G01 X37.9287 Y-26.8965
G01 X37.9322 Y-26.8879
G01 X37.9377 Y-26.8787
G01 X37.9436 Y-26.8716
G01 X37.9505 Y-26.8654
G01 X37.9582 Y-26.8603
G01 X37.9680 Y-26.8558
G01 X37.9785 Y-26.8531
G01 X37.9877 Y-26.8522
G01 X45.2986 Y-26.8522
G01 X45.4325 Y-26.8256
G01 X45.5460 Y-26.7498
G01 X46.1323 Y-26.1635
G01 X46.2081 Y-26.0500
G01 X46.2348 Y-25.9160
G01 X46.2349 Y-21.6793
G01 X46.2355 Y-21.6731
G01 X46.2367 Y-21.6670
G01 X46.2402 Y-21.6567
G01 X46.2455 Y-21.6472
G01 X46.2523 Y-21.6387
G01 X46.4212 Y-21.4697
G01 X46.4271 Y-21.4647
G01 X46.4336 Y-21.4604
G01 X46.4406 Y-21.4570
G01 X46.4480 Y-21.4545
G01 X46.4556 Y-21.4529
G01 X46.4649 Y-21.4522
G01 X47.1047 Y-21.4524
G01 X47.1139 Y-21.4537
G01 X47.1243 Y-21.4570
G01 X47.1326 Y-21.4612
G01 X47.1402 Y-21.4666
G01 X47.1470 Y-21.4730
G01 X47.1536 Y-21.4817
G01 X47.1586 Y-21.4913
G01 X47.1615 Y-21.5002
G01 X47.1629 Y-21.5078
G01 X47.1634 Y-21.5156
G01 X47.1634 Y-24.2366
G01 X48.6366 Y-24.2366
G01 X48.6366 Y-20.9634
G01 X47.6835 Y-20.9634
G01 X47.6743 Y-20.9627
G01 X47.6683 Y-20.9615
G01 X47.6624 Y-20.9598
G01 X47.6553 Y-20.9568
G01 X47.6499 Y-20.9538
G01 X47.6448 Y-20.9502
G01 X47.6401 Y-20.9463
G01 X47.6349 Y-20.9407
G01 X47.6311 Y-20.9358
G01 X47.5691 Y-20.8291
G01 X47.5660 Y-20.8220
G01 X47.5641 Y-20.8161
G01 X47.5626 Y-20.8085
G01 X47.5620 Y-20.8008
G01 X47.5624 Y-20.7930
G01 X47.5637 Y-20.7854
G01 X47.5660 Y-20.7780
G01 X47.5691 Y-20.7709
G01 X47.6311 Y-20.6642
G01 X47.6359 Y-20.6582
G01 X47.6401 Y-20.6537
G01 X47.6448 Y-20.6498
G01 X47.6499 Y-20.6462
G01 X47.6553 Y-20.6432
G01 X47.6624 Y-20.6402
G01 X47.6683 Y-20.6385
G01 X47.6743 Y-20.6373
G01 X47.6835 Y-20.6366
G01 X48.6366 Y-20.6366
G01 X48.6366 Y-17.3634
G01 X47.1634 Y-17.3634
G01 X47.1634 Y-20.0844
G01 X47.1629 Y-20.0922
G01 X47.1611 Y-20.1013
G01 X47.1586 Y-20.1087
G01 X47.1544 Y-20.1170
G01 X47.1500 Y-20.1234
G01 X47.1448 Y-20.1292
G01 X47.1390 Y-20.1344
G01 X47.1326 Y-20.1388
G01 X47.1257 Y-20.1424
G01 X47.1184 Y-20.1451
G01 X47.1108 Y-20.1469
G01 X47.1031 Y-20.1477
G01 X46.0432 Y-20.1478
G01 X45.9093 Y-20.1744
G01 X45.7958 Y-20.2502
G01 X45.0327 Y-21.0133
G01 X44.9569 Y-21.1268
G01 X44.9302 Y-21.2608
G01 X44.9302 Y-25.4860
G01 X44.9295 Y-25.4937
G01 X44.9279 Y-25.5013
G01 X44.9248 Y-25.5101
G01 X44.9212 Y-25.5170
G01 X44.9168 Y-25.5234
G01 X44.9116 Y-25.5292
G01 X44.9058 Y-25.5344
G01 X44.8980 Y-25.5396
G01 X44.8911 Y-25.5430
G01 X44.8822 Y-25.5459
G01 X44.8746 Y-25.5473
G01 X44.8668 Y-25.5478
G01 X36.8598 Y-25.5478
G01 X36.8490 Y-25.5466
G01 X36.8386 Y-25.5436
G01 X36.8288 Y-25.5388
G01 X36.8200 Y-25.5324
G01 X36.8144 Y-25.5270
G01 X36.8096 Y-25.5209
G01 X36.7593 Y-25.4457
G01 X36.6914 Y-25.4003
G01 X36.6049 Y-25.3831
G01 X34.7551 Y-25.3831
G01 X34.6686 Y-25.4003
G01 X34.6007 Y-25.4457
G01 X34.5553 Y-25.5136
G01 X34.5381 Y-25.6001
G01 X34.5381 Y-26.0000
G01 X34.5553 Y-26.0863
G01 X34.6077 Y-26.1648
G01 X34.6109 Y-26.1701
G01 X34.6147 Y-26.1786
G01 X34.6169 Y-26.1861
G01 X34.6181 Y-26.1938
G01 X34.6184 Y-26.2016
G01 X34.6177 Y-26.2093
G01 X34.6161 Y-26.2169
G01 X34.6136 Y-26.2243
G01 X34.6102 Y-26.2312
G01 X34.5553 Y-26.3137
G01 X34.5381 Y-26.4000
G01 X34.5381 Y-26.7999
G01 X34.5553 Y-26.8864
G01 X34.6102 Y-26.9688
G01 X34.6136 Y-26.9757
G01 X34.6161 Y-26.9831
G01 X34.6179 Y-26.9922
G01 X34.6184 Y-27.0000
G01 X34.6179 Y-27.0078
G01 X34.6165 Y-27.0154
G01 X34.6142 Y-27.0228
G01 X34.6102 Y-27.0312
G01 X34.5553 Y-27.1136
G01 X34.5381 Y-27.2001
G01 X34.5381 Y-27.6000
G01 X34.5553 Y-27.6863
G01 X34.6102 Y-27.7688
G01 X34.6136 Y-27.7757
G01 X34.6161 Y-27.7831
G01 X34.6177 Y-27.7907
G01 X34.6184 Y-27.8000
G01 X34.6179 Y-27.8078
G01 X34.6165 Y-27.8154
G01 X34.6142 Y-27.8228
G01 X34.6102 Y-27.8312
G01 X34.5553 Y-27.9137
G01 X34.5381 Y-28.0000
G01 X34.5381 Y-28.3999
G01 X34.5553 Y-28.4864
G01 X34.6007 Y-28.5543
G01 X34.6686 Y-28.5997
G01 X34.7551 Y-28.6169
G01 X36.6049 Y-28.6169
G01 X36.6914 Y-28.5997
G01 X36.7593 Y-28.5543
G01 X36.8047 Y-28.4864
G01 X36.8219 Y-28.3999
G01 X36.8219 Y-28.0000
G01 X36.8089 Y-27.9344
G01 X36.8082 Y-27.9250
G01 X36.8089 Y-27.9156
G01 X36.8115 Y-27.9049
G01 X36.8159 Y-27.8948
G01 X36.8763 Y-27.7904
G01 X36.8799 Y-27.7854
G01 X36.8839 Y-27.7807
G01 X36.9142 Y-27.7509
G01 X36.9190 Y-27.7470
G01 X36.9241 Y-27.7436
G01 X36.9338 Y-27.7389
G01 X36.9442 Y-27.7359
G01 X36.9550 Y-27.7347
G01 X37.6367 Y-27.7347
G01 X37.6475 Y-27.7359
G01 X37.6535 Y-27.7374
G01 X37.6594 Y-27.7395
G01 X37.6690 Y-27.7445
G01 X37.6741 Y-27.7481
G01 X37.6788 Y-27.7522
G01 X37.8959 Y-27.9694
G01 X37.9009 Y-27.9753
G01 X37.9059 Y-27.9832
G01 X37.9092 Y-27.9903
G01 X37.9115 Y-27.9977
G01 X37.9129 Y-28.0053
G01 X37.9134 Y-28.0131
G01 X37.9134 Y-28.8866
G01 X39.4866 Y-28.8866
G01 X39.4866 Y-28.8544
G01 X39.4875 Y-28.8452
G01 X39.4889 Y-28.8391
G01 X39.4908 Y-28.8332
G01 X39.4934 Y-28.8275
G01 X39.4973 Y-28.8208
G01 X39.5020 Y-28.8146
G01 X39.5074 Y-28.8090
G01 X39.5135 Y-28.8042
G01 X39.5201 Y-28.8001
G01 X39.5272 Y-28.7968
G01 X39.5346 Y-28.7945
G01 X39.5422 Y-28.7931
G01 X39.5500 Y-28.7926
G01 X41.6956 Y-28.7926
G01 X41.7048 Y-28.7935
G01 X41.7154 Y-28.7963
G01 X41.7239 Y-28.8001
G01 X41.7330 Y-28.8060
G01 X41.7410 Y-28.8134
G01 X41.7476 Y-28.8221
G01 X41.7520 Y-28.8303
G01 X41.7555 Y-28.8406
G01 X41.7569 Y-28.8482
G01 X41.7574 Y-28.8560
G01 X41.7574 Y-31.3076
G01 X41.7565 Y-31.3184
G01 X41.7537 Y-31.3290
G01 X41.7506 Y-31.3361
G01 X41.7476 Y-31.3415
G01 X41.7440 Y-31.3466
G01 X41.7388 Y-31.3524
G01 X40.4524 Y-32.6388
G01 X40.4441 Y-32.6458
G01 X40.4388 Y-32.6492
G01 X40.4333 Y-32.6520
G01 X40.4275 Y-32.6542
G01 X40.4215 Y-32.6559
G01 X40.4154 Y-32.6569
G01 X40.4092 Y-32.6574
G01 X36.3500 Y-32.6574
G01 X36.3407 Y-32.6567
G01 X36.3301 Y-32.6542
G01 X36.3215 Y-32.6506
G01 X36.3122 Y-32.6449
G01 X36.3041 Y-32.6377
G01 X36.2982 Y-32.6305
G01 X36.2934 Y-32.6225
G01 X36.2896 Y-32.6134
G01 X36.0465 Y-32.6134
G01 X36.0403 Y-32.6129
G01 X36.0327 Y-32.6115
G01 X36.0253 Y-32.6092
G01 X36.0182 Y-32.6059
G01 X36.0116 Y-32.6018
G01 X36.0044 Y-32.5959
G01 X35.9991 Y-32.5902
G01 X35.9937 Y-32.5826
G01 X35.9901 Y-32.5757
G01 X35.9870 Y-32.5669
G01 X35.9854 Y-32.5593
G01 X35.9847 Y-32.5516
G01 X35.9847 Y-30.7562
G01 X35.9581 Y-30.6223
G01 X35.8823 Y-30.5089
G01 X35.0211 Y-29.6477
G01 X34.9076 Y-29.5719
G01 X34.7737 Y-29.5452
G01 X34.4803 Y-29.5452
G01 X34.4741 Y-29.5449
G01 X34.4679 Y-29.5440
G01 X34.4619 Y-29.5425
G01 X34.4560 Y-29.5404
G01 X34.4504 Y-29.5377
G01 X34.4413 Y-29.5318
G01 X34.4366 Y-29.5277
G01 X34.4323 Y-29.5232
G01 X34.4259 Y-29.5144
G01 X34.4211 Y-29.5046
G01 X34.4181 Y-29.4942
G01 X34.4169 Y-29.4834
G01 X34.4169 Y-28.9550
G01 X34.3997 Y-28.8687
G01 X34.3543 Y-28.8007
G01 X34.2864 Y-28.7553
G01 X34.1999 Y-28.7381
G01 X33.8001 Y-28.7381
G01 X33.7136 Y-28.7553
G01 X33.6457 Y-28.8007
G01 X33.6003 Y-28.8687
G01 X33.5831 Y-28.9550
G01 X33.5831 Y-30.8050
G01 X33.6003 Y-30.8913
G01 X33.6457 Y-30.9593
G01 X33.7136 Y-31.0047
G01 X33.8001 Y-31.0219
G01 X34.1999 Y-31.0219
G01 X34.2864 Y-31.0047
G01 X34.3543 Y-30.9593
G01 X34.3997 Y-30.8913
G01 X34.4169 Y-30.8050
G01 X34.4169 Y-30.2782
G01 X34.4178 Y-30.2674
G01 X34.4206 Y-30.2568
G01 X34.4251 Y-30.2470
G01 X34.4313 Y-30.2380
G01 X34.4389 Y-30.2302
G01 X34.4477 Y-30.2238
G01 X34.4575 Y-30.2190
G01 X34.4679 Y-30.2160
G01 X34.4787 Y-30.2148
G01 X34.6198 Y-30.2150
G01 X34.6290 Y-30.2163
G01 X34.6379 Y-30.2190
G01 X34.6477 Y-30.2238
G01 X34.6553 Y-30.2292
G01 X34.6599 Y-30.2334
G01 X35.2967 Y-30.8701
G01 X35.3028 Y-30.8771
G01 X35.3078 Y-30.8850
G01 X35.3116 Y-30.8935
G01 X35.3141 Y-30.9025
G01 X35.3150 Y-30.9087
G01 X35.3153 Y-30.9149
G01 X35.3153 Y-32.5500
G01 X35.3144 Y-32.5608
G01 X35.3121 Y-32.5699
G01 X35.3085 Y-32.5785
G01 X35.3028 Y-32.5878
G01 X35.2967 Y-32.5948
G01 X35.2884 Y-32.6018
G01 X35.2804 Y-32.6066
G01 X35.2718 Y-32.6102
G01 X35.2627 Y-32.6125
G01 X35.2519 Y-32.6134
G01 X35.0134 Y-32.6134
G01 X35.0134 Y-33.2541
G01 X35.0129 Y-33.2623
G01 X35.0079 Y-33.3000
G01 X35.0131 Y-33.3393
G01 X35.0134 Y-33.3541
G01 X35.0129 Y-33.3623
G01 X35.0074 Y-33.4041
G01 X35.0074 Y-35.8959
G01 X35.0298 Y-36.0662
G01 X35.0939 Y-36.2210
G01 X35.1985 Y-36.3573
G01 X40.0388 Y-41.1976
G01 X40.0440 Y-41.2034
G01 X40.0476 Y-41.2085
G01 X40.0513 Y-41.2153
G01 X40.0537 Y-41.2210
G01 X40.0565 Y-41.2316
G01 X40.0574 Y-41.2424
G01 X40.0574 Y-47.1075
G01 X40.0565 Y-47.1183
G01 X40.0537 Y-47.1289
G01 X40.0492 Y-47.1387
G01 X40.0458 Y-47.1440
G01 X40.0420 Y-47.1489
G01 X39.4513 Y-47.7399
G01 X39.4428 Y-47.7467
G01 X39.4375 Y-47.7499
G01 X39.4319 Y-47.7526
G01 X39.4260 Y-47.7547
G01 X39.4200 Y-47.7562
G01 X39.4092 Y-47.7574
G01 X22.3924 Y-47.7574
G01 X22.3846 Y-47.7569
G01 X22.3785 Y-47.7559
G01 X22.3696 Y-47.7532
G01 X22.3625 Y-47.7499
G01 X22.3546 Y-47.7449
G01 X22.3476 Y-47.7388
G01 X21.4612 Y-46.8523
G01 X21.4542 Y-46.8440
G01 X21.4487 Y-46.8346
G01 X21.4449 Y-46.8244
G01 X21.4435 Y-46.8183
G01 X21.4428 Y-46.8122
G01 X21.4426 Y-35.3925
G01 X21.4429 Y-35.3863
G01 X21.4441 Y-35.3786
G01 X21.4468 Y-35.3697
G01 X21.4508 Y-35.3613
G01 X21.4560 Y-35.3535
G01 X21.4612 Y-35.3477
G01 X22.7476 Y-34.0612
G01 X22.7534 Y-34.0560
G01 X22.7598 Y-34.0516
G01 X22.7653 Y-34.0487
G01 X22.7725 Y-34.0458
G01 X22.7816 Y-34.0435
G01 X22.7924 Y-34.0426
G01 X23.6500 Y-34.0426
G01 X23.6593 Y-34.0433
G01 X23.6669 Y-34.0449
G01 X23.6743 Y-34.0474
G01 X23.6812 Y-34.0508
G01 X23.6890 Y-34.0560
G01 X23.6948 Y-34.0612
G01 X23.7009 Y-34.0682
G01 X23.7059 Y-34.0761
G01 X23.7092 Y-34.0832
G01 X23.7122 Y-34.0936
G01 X23.7133 Y-34.1029
G01 X23.7134 Y-34.1866
G01 X24.9866 Y-34.1866
G01 X24.9866 Y-32.6134
G01 X24.6482 Y-32.6134
G01 X24.6389 Y-32.6127
G01 X24.6283 Y-32.6102
G01 X24.6197 Y-32.6066
G01 X24.6104 Y-32.6009
G01 X24.6023 Y-32.5937
G01 X24.5964 Y-32.5865
G01 X24.5909 Y-32.5771
G01 X24.5875 Y-32.5684
G01 X24.5853 Y-32.5578
G01 X24.5848 Y-32.5500
G01 X24.5849 Y-30.8118
G01 X24.5863 Y-30.8010
G01 X24.5896 Y-30.7906
G01 X24.5946 Y-30.7810
G01 X24.5982 Y-30.7759
G01 X24.6023 Y-30.7712
G01 X25.1401 Y-30.2334
G01 X25.1459 Y-30.2282
G01 X25.1523 Y-30.2238
G01 X25.1606 Y-30.2196
G01 X25.1680 Y-30.2171
G01 X25.1756 Y-30.2155
G01 X25.1833 Y-30.2148
G01 X25.5228 Y-30.2149
G01 X25.5305 Y-30.2157
G01 X25.5366 Y-30.2171
G01 X25.5440 Y-30.2196
G01 X25.5509 Y-30.2230
G01 X25.5575 Y-30.2273
G01 X25.5623 Y-30.2312
G01 X25.5677 Y-30.2368
G01 X25.5724 Y-30.2430
G01 X25.5770 Y-30.2511
G01 X25.5804 Y-30.2598
G01 X25.5824 Y-30.2689
G01 X25.5831 Y-30.2766
G01 X25.5831 Y-30.8050
G01 X25.6003 Y-30.8913
G01 X25.6457 Y-30.9593
G01 X25.7136 Y-31.0047
G01 X25.8001 Y-31.0219
G01 X26.1999 Y-31.0219
G01 X26.2655 Y-31.0089
G01 X26.2765 Y-31.0082
G01 X26.2874 Y-31.0095
G01 X26.2965 Y-31.0120
G01 X26.3051 Y-31.0159
G01 X26.4070 Y-31.0747
G01 X26.4122 Y-31.0780
G01 X26.4193 Y-31.0839
G01 X26.4501 Y-31.1153
G01 X26.4539 Y-31.1202
G01 X26.4572 Y-31.1255
G01 X26.4616 Y-31.1353
G01 X26.4644 Y-31.1457
G01 X26.4653 Y-31.1565
G01 X26.4653 Y-32.2351
G01 X26.4648 Y-32.2429
G01 X26.4630 Y-32.2520
G01 X26.4605 Y-32.2594
G01 X26.4571 Y-32.2663
G01 X26.4528 Y-32.2729
G01 X26.4478 Y-32.2788
G01 X26.0401 Y-32.6866
G01 X26.1542 Y-32.6866
G01 X26.5460 Y-32.2948
G01 X26.5460 Y-30.9345
G01 X26.5403 Y-30.9321
G01 X26.5300 Y-30.9271
G01 X26.5203 Y-30.9212
G01 X26.5123 Y-30.9154
G01 X26.5003 Y-30.9047
G01 X26.4896 Y-30.8927
G01 X26.4838 Y-30.8847
G01 X26.4779 Y-30.8750
G01 X26.4710 Y-30.8604
G01 X26.4672 Y-30.8497
G01 X26.4648 Y-30.8401
G01 X26.4636 Y-30.8340
G01 X26.4621 Y-30.8227
G01 X26.4616 Y-30.8113
G01 X26.4616 Y-29.5332
G01 X26.4491 Y-29.5265
G01 X26.4426 Y-29.5222
G01 X26.4355 Y-29.5161
G01 X26.4303 Y-29.5103
G01 X26.4251 Y-29.5026
G01 X26.4217 Y-29.4956
G01 X26.4188 Y-29.4867
G01 X26.4172 Y-29.4775
G01 X26.4169 Y-29.4713
G01 X26.4169 Y-28.9550
G01 X26.3997 Y-28.8687
G01 X26.3543 Y-28.8007
G01 X26.2864 Y-28.7553
G01 X26.1999 Y-28.7381
G01 X25.8001 Y-28.7381
G01 X25.7136 Y-28.7553
G01 X25.6457 Y-28.8007
G01 X25.6003 Y-28.8687
G01 X25.5831 Y-28.9550
G01 X25.5831 Y-29.4834
G01 X25.5826 Y-29.4896
G01 X25.5816 Y-29.4957
G01 X25.5799 Y-29.5017
G01 X25.5777 Y-29.5075
G01 X25.5749 Y-29.5130
G01 X25.5715 Y-29.5183
G01 X25.5677 Y-29.5232
G01 X25.5634 Y-29.5277
G01 X25.5549 Y-29.5345
G01 X25.5496 Y-29.5377
G01 X25.5440 Y-29.5404
G01 X25.5381 Y-29.5425
G01 X25.5321 Y-29.5440
G01 X25.5213 Y-29.5452
G01 X25.0263 Y-29.5452
G01 X24.8924 Y-29.5719
G01 X24.7789 Y-29.6477
G01 X24.0177 Y-30.4089
G01 X23.9419 Y-30.5224
G01 X23.9152 Y-30.6563
G01 X23.9152 Y-32.5500
G01 X23.9149 Y-32.5562
G01 X23.9140 Y-32.5624
G01 X23.9125 Y-32.5684
G01 X23.9104 Y-32.5743
G01 X23.9077 Y-32.5799
G01 X23.9045 Y-32.5852
G01 X23.8998 Y-32.5914
G01 X23.8955 Y-32.5959
G01 X23.8870 Y-32.6027
G01 X23.8789 Y-32.6073
G01 X23.8687 Y-32.6111
G01 X23.8580 Y-32.6131
G01 X23.8518 Y-32.6134
G01 X23.7134 Y-32.6134
G01 X23.7133 Y-32.6971
G01 X23.7122 Y-32.7064
G01 X23.7092 Y-32.7168
G01 X23.7052 Y-32.7252
G01 X23.7009 Y-32.7318
G01 X23.6959 Y-32.7377
G01 X23.6902 Y-32.7430
G01 X23.6826 Y-32.7484
G01 X23.6757 Y-32.7520
G01 X23.6684 Y-32.7547
G01 X23.6593 Y-32.7567
G01 X23.6500 Y-32.7574
G01 X22.5041 Y-32.7574
G01 X22.3338 Y-32.7798
G01 X22.1790 Y-32.8439
G01 X22.0427 Y-32.9486
G01 X20.3486 Y-34.6426
G01 X20.2439 Y-34.7790
G01 X20.1798 Y-34.9338
G01 X20.1574 Y-35.1041
G01 X20.1574 Y-39.3940
G01 X20.1567 Y-39.4033
G01 X20.1551 Y-39.4109
G01 X20.1526 Y-39.4183
G01 X20.1484 Y-39.4266
G01 X20.1440 Y-39.4330
G01 X20.1377 Y-39.4399
G01 X20.1305 Y-39.4458
G01 X20.1239 Y-39.4499
G01 X20.1168 Y-39.4532
G01 X20.1094 Y-39.4555
G01 X20.1018 Y-39.4569
G01 X20.0940 Y-39.4574
G01 X6.9925 Y-39.4574
G01 X6.9832 Y-39.4567
G01 X6.9726 Y-39.4542
G01 X6.9640 Y-39.4506
G01 X6.9560 Y-39.4458
G01 X6.9477 Y-39.4388
G01 X3.4612 Y-35.9523
G01 X3.4551 Y-35.9453
G01 X3.4494 Y-35.9360
G01 X3.4453 Y-35.9259
G01 X3.4431 Y-35.9153
G01 X3.4426 Y-35.9075
G01 X3.4426 Y-12.5924
G01 X3.4435 Y-12.5816
G01 X3.4463 Y-12.5710
G01 X3.4487 Y-12.5653
G01 X3.4516 Y-12.5598
G01 X3.4551 Y-12.5546
G01 X3.4601 Y-12.5487
G01 X3.6488 Y-12.3601
G01 X3.6535 Y-12.3560
G01 X3.6586 Y-12.3524
G01 X3.6682 Y-12.3474
G01 X3.6741 Y-12.3453
G01 X3.6801 Y-12.3438
G01 X3.6909 Y-12.3426
G01 X16.9076 Y-12.3426
G01 X16.9154 Y-12.3431
G01 X16.9215 Y-12.3441
G01 X16.9275 Y-12.3458
G01 X16.9347 Y-12.3487
G01 X16.9441 Y-12.3542
G01 X16.9524 Y-12.3612
G01 X17.2485 Y-12.6574
G01 X17.2553 Y-12.6659
G01 X17.2606 Y-12.6754
G01 X17.2641 Y-12.6857
G01 X17.2658 Y-12.6964
G01 X17.2660 Y-13.7583
G01 X17.2653 Y-13.7675
G01 X17.2638 Y-13.7750
G01 X17.2613 Y-13.7823
G01 X17.2580 Y-13.7892
G01 X17.2538 Y-13.7957
G01 X17.1072 Y-13.9868
G01 X17.0723 Y-14.0710
G01 X17.0695 Y-14.0766
G01 X17.0661 Y-14.0818
G01 X17.0613 Y-14.0879
G01 X17.0557 Y-14.0933
G01 X17.0508 Y-14.0971
G01 X17.0442 Y-14.1012
G01 X17.0371 Y-14.1045
G01 X17.0297 Y-14.1068
G01 X17.0236 Y-14.1080
G01 X17.0159 Y-14.1087
G01 X16.1900 Y-14.1087
G01 X16.0197 Y-14.1312
G01 X15.8648 Y-14.1953
G01 X15.7284 Y-14.2999
G01 X15.1486 Y-14.8798
G01 X15.0439 Y-15.0161
G01 X14.9798 Y-15.1709
G01 X14.9574 Y-15.3412
G01 X14.9574 Y-19.0501
G01 X14.9798 Y-19.2204
G01 X15.0439 Y-19.3752
G01 X15.1486 Y-19.5116
G01 X15.7284 Y-20.0914
G01 X15.8648 Y-20.1960
G01 X16.0197 Y-20.2602
G01 X16.1899 Y-20.2826
G01 X17.1292 Y-20.2826
G01 X17.1386 Y-20.2833
G01 X17.1463 Y-20.2849
G01 X17.1551 Y-20.2881
G01 X17.1634 Y-20.2926
G01 X17.1709 Y-20.2983
G01 X17.1775 Y-20.3050
G01 X17.2893 Y-20.4506
G01 X17.5268 Y-20.6328
G01 X17.8033 Y-20.7473
G01 X18.1000 Y-20.7865
G01 X18.3967 Y-20.7473
G01 X18.6732 Y-20.6328
G01 X18.9106 Y-20.4506
G01 X19.0201 Y-20.3080
G01 X19.0243 Y-20.3034
G01 X19.0289 Y-20.2991
G01 X19.0352 Y-20.2945
G01 X19.0407 Y-20.2914
G01 X19.0479 Y-20.2883
G01 X19.0539 Y-20.2864
G01 X19.0616 Y-20.2850
G01 X19.0678 Y-20.2845
G01 X19.2849 Y-20.2845
G01 X19.2927 Y-20.2850
G01 X19.3003 Y-20.2864
G01 X19.3077 Y-20.2887
G01 X19.3161 Y-20.2927
G01 X19.3227 Y-20.2970
G01 X19.3297 Y-20.3031
G01 X19.4089 Y-20.3823
G01 X19.5223 Y-20.4581
G01 X19.6562 Y-20.4847
G01 X20.4500 Y-20.4847
G01 X20.4608 Y-20.4856
G01 X20.4699 Y-20.4879
G01 X20.4771 Y-20.4908
G01 X20.4852 Y-20.4954
G01 X20.4914 Y-20.5001
G01 X20.4970 Y-20.5055
G01 X20.5027 Y-20.5129
G01 X20.5066 Y-20.5196
G01 X20.5097 Y-20.5267
G01 X20.5119 Y-20.5342
G01 X20.5129 Y-20.5403
G01 X20.5134 Y-20.5481
G01 X20.5134 Y-20.6866
G01 X21.4869 Y-20.6866
G01 X21.4977 Y-20.6875
G01 X21.5083 Y-20.6903
G01 X21.5154 Y-20.6934
G01 X21.5208 Y-20.6964
G01 X21.5259 Y-20.7000
G01 X21.5317 Y-20.7052
G01 X22.0566 Y-21.2301
G01 X22.0627 Y-21.2371
G01 X22.0684 Y-21.2464
G01 X22.0725 Y-21.2565
G01 X22.0745 Y-21.2656
G01 X22.0752 Y-21.2733
G01 X22.0750 Y-21.2796
G01 X22.0728 Y-21.3096
G01 X22.0719 Y-21.3156
G01 X22.0705 Y-21.3215
G01 X22.0685 Y-21.3272
G01 X22.0287 Y-21.4256
G01 X22.0260 Y-21.4313
G01 X22.0211 Y-21.4392
G01 X22.0161 Y-21.4453
G01 X22.0091 Y-21.4516
G01 X22.0027 Y-21.4561
G01 X21.9958 Y-21.4597
G01 X21.9884 Y-21.4624
G01 X21.9808 Y-21.4643
G01 X21.9715 Y-21.4652
G01 X16.0649 Y-21.4652
G01 X16.0587 Y-21.4649
G01 X16.0525 Y-21.4640
G01 X16.0465 Y-21.4625
G01 X16.0392 Y-21.4598
G01 X16.0297 Y-21.4545
G01 X16.0247 Y-21.4508
G01 X16.0201 Y-21.4466
G01 X14.2533 Y-19.6799
G01 X14.2491 Y-19.6753
G01 X14.2454 Y-19.6703
G01 X14.2415 Y-19.6636
G01 X14.2389 Y-19.6579
G01 X14.2359 Y-19.6475
G01 X14.2350 Y-19.6413
G01 X14.2347 Y-19.6351
G01 X14.2347 Y-15.7062
G01 X14.2081 Y-15.5723
G01 X14.1323 Y-15.4589
G01 X13.3211 Y-14.6477
G01 X13.2076 Y-14.5719
G01 X13.0737 Y-14.5452
G01 X7.3000 Y-14.5452
G01 X7.2938 Y-14.5449
G01 X7.2831 Y-14.5429
G01 X7.2772 Y-14.5410
G01 X7.2715 Y-14.5384
G01 X7.2622 Y-14.5327
G01 X7.2541 Y-14.5255
G01 X7.2473 Y-14.5170
G01 X7.2420 Y-14.5075
G01 X7.2385 Y-14.4972
G01 X7.2368 Y-14.4865
G01 X7.2366 Y-13.7434
G01 X4.9634 Y-13.7434
G01 X4.9634 Y-16.0166
G01 X7.2366 Y-16.0166
G01 X7.2368 Y-15.2734
G01 X7.2385 Y-15.2627
G01 X7.2420 Y-15.2524
G01 X7.2473 Y-15.2429
G01 X7.2541 Y-15.2344
G01 X7.2586 Y-15.2301
G01 X7.2635 Y-15.2263
G01 X7.2729 Y-15.2208
G01 X7.2831 Y-15.2170
G01 X7.2938 Y-15.2150
G01 X7.3000 Y-15.2147
G01 X12.9151 Y-15.2147
G01 X12.9244 Y-15.2154
G01 X12.9350 Y-15.2179
G01 X12.9450 Y-15.2222
G01 X12.9541 Y-15.2281
G01 X12.9599 Y-15.2333
G01 X13.5478 Y-15.8212
G01 X13.5537 Y-15.8284
G01 X13.5592 Y-15.8378
G01 X13.5630 Y-15.8480
G01 X13.5648 Y-15.8571
G01 X13.5653 Y-15.8649
G01 X13.5653 Y-19.7938
G01 X13.5919 Y-19.9277
G01 X13.6677 Y-20.0411
G01 X15.6566 Y-22.0301
G01 X15.6636 Y-22.0384
G01 X15.6691 Y-22.0478
G01 X15.6729 Y-22.0580
G01 X15.6749 Y-22.0687
G01 X15.6751 Y-22.0780
G01 X15.6729 Y-22.1081
G01 X15.6722 Y-22.1141
G01 X15.6705 Y-22.1214
G01 X15.6685 Y-22.1272
G01 X15.6281 Y-22.2271
G01 X15.6253 Y-22.2327
G01 X15.6220 Y-22.2380
G01 X15.6150 Y-22.2465
G01 X15.6104 Y-22.2507
G01 X15.6054 Y-22.2545
G01 X15.6000 Y-22.2577
G01 X15.5943 Y-22.2604
G01 X15.5839 Y-22.2637
G01 X15.5777 Y-22.2648
G01 X15.5715 Y-22.2653
G01 X15.2633 Y-22.2653
G01 X15.2541 Y-22.2644
G01 X15.2435 Y-22.2616
G01 X15.2350 Y-22.2578
G01 X15.2271 Y-22.2528
G01 X15.2201 Y-22.2467
G01 X13.0533 Y-20.0799
G01 X13.0481 Y-20.0741
G01 X13.0422 Y-20.0650
G01 X13.0384 Y-20.0565
G01 X13.0356 Y-20.0459
G01 X13.0347 Y-20.0351
G01 X13.0347 Y-18.4062
G01 X13.0081 Y-18.2723
G01 X12.9323 Y-18.1589
G01 X11.8411 Y-17.0677
G01 X11.7277 Y-16.9919
G01 X11.5938 Y-16.9653
G01 X7.3036 Y-16.9653
G01 X7.2943 Y-16.9646
G01 X7.2868 Y-16.9630
G01 X7.2780 Y-16.9599
G01 X7.2698 Y-16.9556
G01 X7.2636 Y-16.9511
G01 X7.2579 Y-16.9458
G01 X7.2520 Y-16.9387
G01 X7.2479 Y-16.9321
G01 X7.2440 Y-16.9237
G01 X7.2418 Y-16.9162
G01 X7.2407 Y-16.9101
G01 X7.2202 Y-16.7538
G01 X7.1560 Y-16.5990
G01 X7.0541 Y-16.4659
G01 X6.9210 Y-16.3640
G01 X6.7661 Y-16.2998
G01 X6.5959 Y-16.2774
G01 X5.6041 Y-16.2774
G01 X5.4339 Y-16.2998
G01 X5.2790 Y-16.3640
G01 X5.1459 Y-16.4659
G01 X5.0439 Y-16.5990
G01 X4.9798 Y-16.7538
G01 X4.9574 Y-16.9241
G01 X4.9574 Y-17.9159
G01 X4.9798 Y-18.0862
G01 X5.0439 Y-18.2410
G01 X5.1459 Y-18.3741
G01 X5.2790 Y-18.4761
G01 X5.4338 Y-18.5402
G01 X5.6041 Y-18.5626
G01 X6.5959 Y-18.5626
G01 X6.7662 Y-18.5402
G01 X6.9210 Y-18.4761
G01 X7.0541 Y-18.3741
G01 X7.1560 Y-18.2410
G01 X7.2202 Y-18.0861
G01 X7.2426 Y-17.9159
G01 X7.2426 Y-17.6982
G01 X7.2431 Y-17.6904
G01 X7.2441 Y-17.6843
G01 X7.2468 Y-17.6754
G01 X7.2508 Y-17.6670
G01 X7.2560 Y-17.6592
G01 X7.2623 Y-17.6523
G01 X7.2708 Y-17.6455
G01 X7.2789 Y-17.6409
G01 X7.2876 Y-17.6375
G01 X7.2967 Y-17.6355
G01 X7.3060 Y-17.6348
G01 X11.4351 Y-17.6348
G01 X11.4444 Y-17.6355
G01 X11.4535 Y-17.6375
G01 X11.4622 Y-17.6409
G01 X11.4690 Y-17.6446
G01 X11.4753 Y-17.6492
G01 X11.4799 Y-17.6534
G01 X12.3466 Y-18.5201
G01 X12.3518 Y-18.5259
G01 X12.3562 Y-18.5323
G01 X12.3598 Y-18.5392
G01 X12.3620 Y-18.5450
G01 X12.3645 Y-18.5556
G01 X12.3652 Y-18.5649
G01 X12.3652 Y-20.1937
G01 X12.3919 Y-20.3276
G01 X12.4677 Y-20.4411
G01 X14.8566 Y-22.8300
G01 X14.8608 Y-22.8346
G01 X14.8645 Y-22.8396
G01 X14.8677 Y-22.8449
G01 X14.8704 Y-22.8505
G01 X14.8725 Y-22.8564
G01 X14.8740 Y-22.8624
G01 X14.8749 Y-22.8686
G01 X14.8752 Y-22.8748
G01 X14.8728 Y-22.9096
G01 X14.8719 Y-22.9155
G01 X14.8705 Y-22.9214
G01 X14.8685 Y-22.9272
G01 X14.8281 Y-23.0271
G01 X14.8253 Y-23.0327
G01 X14.8220 Y-23.0380
G01 X14.8182 Y-23.0430
G01 X14.8139 Y-23.0476
G01 X14.8091 Y-23.0517
G01 X14.8040 Y-23.0553
G01 X14.7986 Y-23.0584
G01 X14.7929 Y-23.0610
G01 X14.7824 Y-23.0641
G01 X14.7715 Y-23.0653
G01 X14.4633 Y-23.0653
G01 X14.4525 Y-23.0641
G01 X14.4421 Y-23.0611
G01 X14.4323 Y-23.0563
G01 X14.4247 Y-23.0509
G01 X14.4201 Y-23.0467
G01 X11.1011 Y-19.7277
G01 X10.9876 Y-19.6519
G01 X10.8537 Y-19.6252
G01 X7.3060 Y-19.6252
G01 X7.2998 Y-19.6249
G01 X7.2906 Y-19.6233
G01 X7.2817 Y-19.6204
G01 X7.2734 Y-19.6162
G01 X7.2658 Y-19.6108
G01 X7.2590 Y-19.6044
G01 X7.2533 Y-19.5970
G01 X7.2487 Y-19.5889
G01 X7.2453 Y-19.5802
G01 X7.2433 Y-19.5711
G01 X7.2426 Y-19.5634
G01 X7.2426 Y-19.4641
G01 X7.2202 Y-19.2939
G01 X7.1560 Y-19.1390
G01 X7.0541 Y-19.0060
G01 X6.9210 Y-18.9040
G01 X6.7661 Y-18.8398
G01 X6.5959 Y-18.8174
G01 X5.6041 Y-18.8174
G01 X5.4339 Y-18.8398
G01 X5.2790 Y-18.9040
G01 X5.1459 Y-19.0060
G01 X5.0439 Y-19.1390
G01 X4.9798 Y-19.2938
G01 X4.9574 Y-19.4641
G01 X4.9574 Y-20.4559
G01 X4.9798 Y-20.6262
G01 X5.0439 Y-20.7810
G01 X5.1459 Y-20.9140
G01 X5.2790 Y-21.0160
G01 X5.4339 Y-21.0802
G01 X5.6041 Y-21.1026
G01 X6.5959 Y-21.1026
G01 X6.7661 Y-21.0802
G01 X6.9210 Y-21.0160
G01 X7.0541 Y-20.9140
G01 X7.1560 Y-20.7810
G01 X7.2202 Y-20.6261
G01 X7.2426 Y-20.4559
G01 X7.2426 Y-20.3566
G01 X7.2433 Y-20.3489
G01 X7.2453 Y-20.3398
G01 X7.2487 Y-20.3311
G01 X7.2533 Y-20.3230
G01 X7.2580 Y-20.3168
G01 X7.2646 Y-20.3102
G01 X7.2721 Y-20.3046
G01 X7.2803 Y-20.3002
G01 X7.2891 Y-20.2971
G01 X7.2982 Y-20.2953
G01 X7.3060 Y-20.2948
G01 X10.6951 Y-20.2948
G01 X10.7044 Y-20.2955
G01 X10.7135 Y-20.2975
G01 X10.7208 Y-20.3002
G01 X10.7277 Y-20.3038
G01 X10.7341 Y-20.3082
G01 X10.7399 Y-20.3134
G01 X14.0566 Y-23.6301
G01 X14.0608 Y-23.6347
G01 X14.0645 Y-23.6397
G01 X14.0677 Y-23.6450
G01 X14.0704 Y-23.6506
G01 X14.0725 Y-23.6565
G01 X14.0740 Y-23.6625
G01 X14.0749 Y-23.6687
G01 X14.0752 Y-23.6749
G01 X14.0728 Y-23.7096
G01 X14.0719 Y-23.7156
G01 X14.0700 Y-23.7229
G01 X14.0274 Y-23.8284
G01 X14.0245 Y-23.8340
G01 X14.0201 Y-23.8405
G01 X14.0161 Y-23.8453
G01 X14.0116 Y-23.8496
G01 X14.0066 Y-23.8535
G01 X14.0014 Y-23.8568
G01 X13.9958 Y-23.8597
G01 X13.9899 Y-23.8620
G01 X13.9808 Y-23.8643
G01 X13.9699 Y-23.8652
G01 X13.5633 Y-23.8652
G01 X13.5541 Y-23.8643
G01 X13.5465 Y-23.8625
G01 X13.5378 Y-23.8591
G01 X13.5297 Y-23.8545
G01 X13.5247 Y-23.8508
G01 X13.5201 Y-23.8466
G01 X11.9411 Y-22.2677
G01 X11.8277 Y-22.1919
G01 X11.6938 Y-22.1653
G01 X7.3060 Y-22.1653
G01 X7.2982 Y-22.1648
G01 X7.2891 Y-22.1630
G01 X7.2803 Y-22.1599
G01 X7.2721 Y-22.1555
G01 X7.2646 Y-22.1499
G01 X7.2580 Y-22.1433
G01 X7.2524 Y-22.1358
G01 X7.2480 Y-22.1276
G01 X7.2453 Y-22.1203
G01 X7.2433 Y-22.1112
G01 X7.2426 Y-22.1035
G01 X7.2426 Y-22.0041
G01 X7.2202 Y-21.8339
G01 X7.1560 Y-21.6790
G01 X7.0541 Y-21.5459
G01 X6.9210 Y-21.4439
G01 X6.7662 Y-21.3798
G01 X6.5959 Y-21.3574
G01 X5.6041 Y-21.3574
G01 X5.4338 Y-21.3798
G01 X5.2790 Y-21.4439
G01 X5.1459 Y-21.5459
G01 X5.0439 Y-21.6790
G01 X4.9798 Y-21.8338
G01 X4.9574 Y-22.0041
G01 X4.9574 Y-22.9959
G01 X4.9798 Y-23.1662
G01 X5.0439 Y-23.3210
G01 X5.1459 Y-23.4541
G01 X5.2790 Y-23.5561
G01 X5.4338 Y-23.6202
G01 X5.6041 Y-23.6426
G01 X6.5959 Y-23.6426
G01 X6.7662 Y-23.6202
G01 X6.9210 Y-23.5561
G01 X7.0541 Y-23.4541
G01 X7.1560 Y-23.3210
G01 X7.2202 Y-23.1661
G01 X7.2426 Y-22.9959
G01 X7.2426 Y-22.8965
G01 X7.2433 Y-22.8888
G01 X7.2453 Y-22.8797
G01 X7.2487 Y-22.8710
G01 X7.2533 Y-22.8629
G01 X7.2580 Y-22.8567
G01 X7.2646 Y-22.8501
G01 X7.2721 Y-22.8445
G01 X7.2803 Y-22.8401
G01 X7.2891 Y-22.8370
G01 X7.2982 Y-22.8352
G01 X7.3060 Y-22.8347
G01 X11.5351 Y-22.8347
G01 X11.5429 Y-22.8352
G01 X11.5535 Y-22.8374
G01 X11.5622 Y-22.8408
G01 X11.5716 Y-22.8463
G01 X11.5799 Y-22.8533
G01 X13.1590 Y-24.4323
G01 X13.1763 Y-24.4441
G01 X13.1834 Y-24.4502
G01 X13.1885 Y-24.4560
G01 X13.1920 Y-24.4611
G01 X13.1951 Y-24.4665
G01 X13.1976 Y-24.4722
G01 X13.1995 Y-24.4781
G01 X13.2009 Y-24.4841
G01 X13.2016 Y-24.4903
G01 X13.2018 Y-24.4965
G01 X13.2011 Y-24.5042
G01 X13.1991 Y-24.5133
G01 X13.1606 Y-24.6402
G01 X13.1585 Y-24.6461
G01 X13.1558 Y-24.6517
G01 X13.1508 Y-24.6596
G01 X13.1458 Y-24.6655
G01 X13.1389 Y-24.6718
G01 X13.1325 Y-24.6762
G01 X13.1256 Y-24.6798
G01 X13.1168 Y-24.6829
G01 X13.1092 Y-24.6845
G01 X13.1015 Y-24.6852
G01 X7.3013 Y-24.6850
G01 X7.2921 Y-24.6837
G01 X7.2832 Y-24.6810
G01 X7.2748 Y-24.6770
G01 X7.2670 Y-24.6718
G01 X7.2590 Y-24.6644
G01 X7.2533 Y-24.6570
G01 X7.2487 Y-24.6489
G01 X7.2453 Y-24.6402
G01 X7.2435 Y-24.6326
G01 X7.2426 Y-24.6234
G01 X7.2426 Y-24.5441
G01 X7.2202 Y-24.3739
G01 X7.1560 Y-24.2190
G01 X7.0541 Y-24.0860
G01 X6.9210 Y-23.9840
G01 X6.7661 Y-23.9198
G01 X6.5959 Y-23.8974
G01 X5.6041 Y-23.8974
G01 X5.4339 Y-23.9198
G01 X5.2790 Y-23.9840
G01 X5.1459 Y-24.0860
G01 X5.0439 Y-24.2190
G01 X4.9798 Y-24.3738
G01 X4.9574 Y-24.5441
G01 X4.9574 Y-25.5359
G01 X4.9798 Y-25.7062
G01 X5.0439 Y-25.8610
G01 X5.1459 Y-25.9940
G01 X5.2790 Y-26.0960
G01 X5.4339 Y-26.1602
G01 X5.6041 Y-26.1826
G01 X6.5959 Y-26.1826
G01 X6.7661 Y-26.1602
G01 X6.9210 Y-26.0960
G01 X7.0541 Y-25.9940
G01 X7.1560 Y-25.8610
G01 X7.2202 Y-25.7061
G01 X7.2426 Y-25.5359
G01 X7.2426 Y-25.4165
G01 X7.2433 Y-25.4088
G01 X7.2449 Y-25.4012
G01 X7.2480 Y-25.3924
G01 X7.2533 Y-25.3829
G01 X7.2590 Y-25.3755
G01 X7.2658 Y-25.3691
G01 X7.2734 Y-25.3637
G01 X7.2817 Y-25.3595
G01 X7.2906 Y-25.3566
G01 X7.3013 Y-25.3549
G01 X12.4460 Y-25.3547
G01 X12.4553 Y-25.3556
G01 X12.4659 Y-25.3585
G01 X12.4758 Y-25.3630
G01 X12.4836 Y-25.3683
G01 X12.4895 Y-25.3735
G01 X12.4946 Y-25.3794
G01 X12.5126 Y-25.4039
G01 X12.5158 Y-25.4092
G01 X12.5186 Y-25.4147
G01 X12.5208 Y-25.4205
G01 X12.5526 Y-25.5271
G01 X12.5546 Y-25.5362
G01 X12.5552 Y-25.5470
G01 X12.5547 Y-25.5532
G01 X12.5536 Y-25.5593
G01 X12.5503 Y-25.5696
G01 X12.5477 Y-25.5752
G01 X12.5445 Y-25.5805
G01 X12.5408 Y-25.5854
G01 X12.5366 Y-25.5900
G01 X10.8999 Y-27.2267
G01 X10.8916 Y-27.2337
G01 X10.8836 Y-27.2385
G01 X10.8735 Y-27.2426
G01 X10.8629 Y-27.2448
G01 X10.8551 Y-27.2453
G01 X7.3060 Y-27.2453
G01 X7.2967 Y-27.2446
G01 X7.2891 Y-27.2430
G01 X7.2803 Y-27.2399
G01 X7.2721 Y-27.2355
G01 X7.2646 Y-27.2299
G01 X7.2580 Y-27.2233
G01 X7.2524 Y-27.2158
G01 X7.2480 Y-27.2076
G01 X7.2449 Y-27.1988
G01 X7.2433 Y-27.1912
G01 X7.2426 Y-27.1835
G01 X7.2426 Y-27.0841
G01 X7.2202 Y-26.9139
G01 X7.1560 Y-26.7590
G01 X7.0541 Y-26.6259
G01 X6.9210 Y-26.5239
G01 X6.7662 Y-26.4598
G01 X6.5959 Y-26.4374
G01 X5.6041 Y-26.4374
G01 X5.4338 Y-26.4598
G01 X5.2790 Y-26.5239
G01 X5.1459 Y-26.6259
G01 X5.0439 Y-26.7590
G01 X4.9798 Y-26.9138
G01 X4.9574 Y-27.0841
G01 X4.9574 Y-28.0759
G01 X4.9798 Y-28.2462
G01 X5.0439 Y-28.4010
G01 X5.1459 Y-28.5341
G01 X5.2790 Y-28.6361
G01 X5.4338 Y-28.7002
G01 X5.6041 Y-28.7226
G01 X6.5959 Y-28.7226
G01 X6.7662 Y-28.7002
G01 X6.9210 Y-28.6361
G01 X7.0541 Y-28.5341
G01 X7.1560 Y-28.4010
G01 X7.2202 Y-28.2461
G01 X7.2426 Y-28.0759
G01 X7.2426 Y-27.9765
G01 X7.2433 Y-27.9688
G01 X7.2453 Y-27.9597
G01 X7.2487 Y-27.9510
G01 X7.2533 Y-27.9429
G01 X7.2590 Y-27.9355
G01 X7.2658 Y-27.9291
G01 X7.2734 Y-27.9237
G01 X7.2817 Y-27.9195
G01 X7.2906 Y-27.9166
G01 X7.2998 Y-27.9150
G01 X7.3060 Y-27.9147
G01 X11.0138 Y-27.9147
G01 X11.1477 Y-27.8881
G01 X11.2611 Y-27.8123
G01 X12.9201 Y-26.1534
G01 X12.9284 Y-26.1464
G01 X12.9337 Y-26.1430
G01 X12.9392 Y-26.1402
G01 X12.9465 Y-26.1375
G01 X12.9525 Y-26.1360
G01 X12.9587 Y-26.1351
G01 X12.9649 Y-26.1348
G01 X14.4699 Y-26.1348
G01 X14.4777 Y-26.1353
G01 X14.4854 Y-26.1367
G01 X14.4929 Y-26.1391
G01 X14.5000 Y-26.1424
G01 X14.5053 Y-26.1456
G01 X14.5116 Y-26.1504
G01 X14.5171 Y-26.1559
G01 X14.5220 Y-26.1620
G01 X14.5260 Y-26.1687
G01 X14.5287 Y-26.1744
G01 X14.5700 Y-26.2771
G01 X14.5719 Y-26.2844
G01 X14.5728 Y-26.2904
G01 X14.5752 Y-26.3251
G01 X14.5749 Y-26.3313
G01 X14.5740 Y-26.3375
G01 X14.5725 Y-26.3435
G01 X14.5704 Y-26.3494
G01 X14.5677 Y-26.3550
G01 X14.5645 Y-26.3603
G01 X14.5608 Y-26.3653
G01 X14.5566 Y-26.3699
G01 X11.1599 Y-29.7666
G01 X11.1541 Y-29.7718
G01 X11.1477 Y-29.7762
G01 X11.1408 Y-29.7798
G01 X11.1335 Y-29.7825
G01 X11.1244 Y-29.7845
G01 X11.1151 Y-29.7852
G01 X7.3060 Y-29.7852
G01 X7.2982 Y-29.7847
G01 X7.2891 Y-29.7829
G01 X7.2803 Y-29.7798
G01 X7.2721 Y-29.7754
G01 X7.2646 Y-29.7698
G01 X7.2580 Y-29.7632
G01 X7.2533 Y-29.7570
G01 X7.2487 Y-29.7489
G01 X7.2453 Y-29.7402
G01 X7.2433 Y-29.7311
G01 X7.2426 Y-29.7234
G01 X7.2426 Y-29.6241
G01 X7.2202 Y-29.4539
G01 X7.1560 Y-29.2990
G01 X7.0541 Y-29.1660
G01 X6.9210 Y-29.0640
G01 X6.7661 Y-28.9998
G01 X6.5959 Y-28.9774
G01 X5.6041 Y-28.9774
G01 X5.4339 Y-28.9998
G01 X5.2790 Y-29.0640
G01 X5.1459 Y-29.1660
G01 X5.0439 Y-29.2990
G01 X4.9798 Y-29.4538
G01 X4.9574 Y-29.6241
G01 X4.9574 Y-30.6159
G01 X4.9798 Y-30.7862
G01 X5.0439 Y-30.9410
G01 X5.1459 Y-31.0740
G01 X5.2790 Y-31.1760
G01 X5.4339 Y-31.2402
G01 X5.6041 Y-31.2626
G01 X6.5959 Y-31.2626
G01 X6.7661 Y-31.2402
G01 X6.9210 Y-31.1760
G01 X7.0541 Y-31.0740
G01 X7.1560 Y-30.9410
G01 X7.2202 Y-30.7861
G01 X7.2426 Y-30.6159
G01 X7.2426 Y-30.5166
G01 X7.2433 Y-30.5089
G01 X7.2453 Y-30.4998
G01 X7.2487 Y-30.4911
G01 X7.2533 Y-30.4830
G01 X7.2590 Y-30.4756
G01 X7.2658 Y-30.4692
G01 X7.2734 Y-30.4638
G01 X7.2817 Y-30.4596
G01 X7.2906 Y-30.4567
G01 X7.2998 Y-30.4551
G01 X7.3060 Y-30.4548
G01 X11.2737 Y-30.4548
G01 X11.4076 Y-30.4281
G01 X11.5211 Y-30.3523
G01 X14.9201 Y-26.9533
G01 X14.9259 Y-26.9481
G01 X14.9350 Y-26.9422
G01 X14.9435 Y-26.9384
G01 X14.9541 Y-26.9356
G01 X14.9633 Y-26.9347
G01 X15.6699 Y-26.9347
G01 X15.6808 Y-26.9356
G01 X15.6884 Y-26.9375
G01 X15.6943 Y-26.9396
G01 X15.7000 Y-26.9423
G01 X15.7054 Y-26.9455
G01 X15.7116 Y-26.9503
G01 X15.7161 Y-26.9547
G01 X15.7201 Y-26.9594
G01 X15.7245 Y-26.9659
G01 X15.7287 Y-26.9743
G01 X15.7690 Y-27.0743
G01 X15.7716 Y-27.0830
G01 X15.7728 Y-27.0904
G01 X15.7752 Y-27.1237
G01 X15.7750 Y-27.1299
G01 X15.7740 Y-27.1376
G01 X15.7715 Y-27.1466
G01 X15.7677 Y-27.1551
G01 X15.7627 Y-27.1630
G01 X15.7566 Y-27.1700
G01 X10.6199 Y-32.3067
G01 X10.6116 Y-32.3137
G01 X10.6063 Y-32.3171
G01 X10.6008 Y-32.3199
G01 X10.5950 Y-32.3221
G01 X10.5875 Y-32.3241
G01 X10.5813 Y-32.3250
G01 X10.5751 Y-32.3253
G01 X7.3060 Y-32.3253
G01 X7.2982 Y-32.3248
G01 X7.2891 Y-32.3230
G01 X7.2803 Y-32.3199
G01 X7.2721 Y-32.3155
G01 X7.2646 Y-32.3099
G01 X7.2590 Y-32.3045
G01 X7.2533 Y-32.2971
G01 X7.2487 Y-32.2890
G01 X7.2453 Y-32.2803
G01 X7.2433 Y-32.2712
G01 X7.2426 Y-32.2635
G01 X7.2426 Y-32.1641
G01 X7.2202 Y-31.9939
G01 X7.1560 Y-31.8390
G01 X7.0541 Y-31.7059
G01 X6.9210 Y-31.6039
G01 X6.7662 Y-31.5398
G01 X6.5959 Y-31.5174
G01 X5.6041 Y-31.5174
G01 X5.4338 Y-31.5398
G01 X5.2790 Y-31.6039
G01 X5.1459 Y-31.7059
G01 X5.0439 Y-31.8390
G01 X4.9798 Y-31.9938
G01 X4.9574 Y-32.1641
G01 X4.9574 Y-33.1559
G01 X4.9798 Y-33.3262
G01 X5.0439 Y-33.4810
G01 X5.1459 Y-33.6141
G01 X5.2790 Y-33.7161
G01 X5.4338 Y-33.7802
G01 X5.6041 Y-33.8026
G01 X5.7019 Y-33.8026
G01 X5.7127 Y-33.8035
G01 X5.7188 Y-33.8049
G01 X5.7247 Y-33.8068
G01 X5.7304 Y-33.8094
G01 X5.7371 Y-33.8133
G01 X5.7433 Y-33.8180
G01 X5.7478 Y-33.8223
G01 X5.7519 Y-33.8270
G01 X5.7555 Y-33.8321
G01 X5.7599 Y-33.8403
G01 X5.7626 Y-33.8476
G01 X5.7646 Y-33.8567
G01 X5.7653 Y-33.8660
G01 X5.7653 Y-35.1938
G01 X5.7919 Y-35.3277
G01 X5.8677 Y-35.4411
G01 X6.8289 Y-36.4023
G01 X6.9423 Y-36.4781
G01 X7.0762 Y-36.5047
G01 X10.4743 Y-36.5047
G01 X10.4851 Y-36.5056
G01 X10.4912 Y-36.5070
G01 X10.4971 Y-36.5089
G01 X10.5042 Y-36.5122
G01 X10.5095 Y-36.5154
G01 X10.5145 Y-36.5191
G01 X10.5191 Y-36.5233
G01 X10.5233 Y-36.5279
G01 X10.5270 Y-36.5329
G01 X10.5302 Y-36.5382
G01 X10.5329 Y-36.5438
G01 X10.5946 Y-36.6927
G01 X10.7607 Y-36.9093
G01 X10.9773 Y-37.0754
G01 X11.2294 Y-37.1799
G01 X11.5000 Y-37.2156
G01 X11.7706 Y-37.1799
G01 X12.0227 Y-37.0754
G01 X12.2393 Y-36.9093
G01 X12.4054 Y-36.6927
G01 X12.5099 Y-36.4406
G01 X12.5456 Y-36.1700
G01 X12.5099 Y-35.8994
G01 X12.4054 Y-35.6472
G01 X12.2393 Y-35.4307
G01 X12.0227 Y-35.2646
G01 X11.7706 Y-35.1601
G01 X11.5000 Y-35.1244
G01 X11.2294 Y-35.1601
G01 X10.9773 Y-35.2646
G01 X10.7607 Y-35.4307
G01 X10.5946 Y-35.6472
G01 X10.5329 Y-35.7961
G01 X10.5302 Y-35.8017
G01 X10.5270 Y-35.8070
G01 X10.5233 Y-35.8120
G01 X10.5191 Y-35.8166
G01 X10.5133 Y-35.8218
G01 X10.5082 Y-35.8254
G01 X10.5028 Y-35.8284
G01 X10.4957 Y-35.8315
G01 X10.4897 Y-35.8333
G01 X10.4836 Y-35.8345
G01 X10.4743 Y-35.8352
G01 X7.2349 Y-35.8352
G01 X7.2271 Y-35.8347
G01 X7.2195 Y-35.8333
G01 X7.2121 Y-35.8310
G01 X7.2050 Y-35.8277
G01 X7.1971 Y-35.8227
G01 X7.1901 Y-35.8166
G01 X6.4533 Y-35.0799
G01 X6.4491 Y-35.0753
G01 X6.4454 Y-35.0703
G01 X6.4415 Y-35.0636
G01 X6.4389 Y-35.0579
G01 X6.4370 Y-35.0520
G01 X6.4356 Y-35.0459
G01 X6.4347 Y-35.0351
G01 X6.4347 Y-33.8660
G01 X6.4350 Y-33.8598
G01 X6.4359 Y-33.8536
G01 X6.4374 Y-33.8476
G01 X6.4395 Y-33.8417
G01 X6.4429 Y-33.8348
G01 X6.4472 Y-33.8282
G01 X6.4522 Y-33.8223
G01 X6.4579 Y-33.8170
G01 X6.4642 Y-33.8124
G01 X6.4710 Y-33.8087
G01 X6.4782 Y-33.8058
G01 X6.4857 Y-33.8038
G01 X6.4919 Y-33.8029
G01 X6.4981 Y-33.8026
G01 X6.5959 Y-33.8026
G01 X6.7662 Y-33.7802
G01 X6.9210 Y-33.7161
G01 X7.0541 Y-33.6141
G01 X7.1560 Y-33.4810
G01 X7.2202 Y-33.3261
G01 X7.2426 Y-33.1559
G01 X7.2426 Y-33.0565
G01 X7.2431 Y-33.0503
G01 X7.2441 Y-33.0442
G01 X7.2468 Y-33.0353
G01 X7.2501 Y-33.0282
G01 X7.2551 Y-33.0203
G01 X7.2612 Y-33.0133
G01 X7.2682 Y-33.0072
G01 X7.2761 Y-33.0022
G01 X7.2846 Y-32.9984
G01 X7.2936 Y-32.9959
G01 X7.2998 Y-32.9950
G01 X7.3060 Y-32.9947
G01 X10.7338 Y-32.9947
G01 X10.8677 Y-32.9681
G01 X10.9811 Y-32.8923
G01 X16.1201 Y-27.7533
G01 X16.1247 Y-27.7491
G01 X16.1297 Y-27.7454
G01 X16.1392 Y-27.7401
G01 X16.1450 Y-27.7379
G01 X16.1510 Y-27.7362
G01 X16.1571 Y-27.7352
G01 X16.1649 Y-27.7347
G01 X21.8199 Y-27.7347
G01 X21.8308 Y-27.7356
G01 X21.8369 Y-27.7370
G01 X21.8429 Y-27.7390
G01 X21.8527 Y-27.7439
G01 X21.8616 Y-27.7503
G01 X21.8661 Y-27.7547
G01 X21.8701 Y-27.7594
G01 X21.8737 Y-27.7646
G01 X21.8774 Y-27.7715
G01 X21.9185 Y-27.8728
G01 X21.9213 Y-27.8815
G01 X21.9228 Y-27.8904
G01 X21.9250 Y-27.9204
G01 X21.9249 Y-27.9313
G01 X21.9233 Y-27.9405
G01 X21.9210 Y-27.9479
G01 X21.9177 Y-27.9550
G01 X21.9127 Y-27.9629
G01 X21.9066 Y-27.9699
G01 X21.1317 Y-28.7448
G01 X21.1247 Y-28.7509
G01 X21.1154 Y-28.7566
G01 X21.1083 Y-28.7597
G01 X21.1023 Y-28.7615
G01 X21.0947 Y-28.7629
G01 X21.0869 Y-28.7634
G01 X19.8134 Y-28.7634
G01 X19.8134 Y-30.1366
G01 X21.5866 Y-30.1366
G01 X21.5866 Y-29.2631
G01 X21.5871 Y-29.2553
G01 X21.5881 Y-29.2492
G01 X21.5898 Y-29.2432
G01 X21.5920 Y-29.2374
G01 X21.5973 Y-29.2279
G01 X21.6010 Y-29.2229
G01 X21.6052 Y-29.2183
G01 X22.2701 Y-28.5534
G01 X22.2771 Y-28.5473
G01 X22.2837 Y-28.5430
G01 X22.2906 Y-28.5396
G01 X22.2980 Y-28.5371
G01 X22.3071 Y-28.5353
G01 X22.3149 Y-28.5348
G01 X23.1983 Y-28.5350
G01 X23.2059 Y-28.5360
G01 X23.2133 Y-28.5379
G01 X23.2191 Y-28.5401
G01 X23.2259 Y-28.5436
G01 X23.2311 Y-28.5470
G01 X23.2367 Y-28.5516
G01 X23.3087 Y-28.5997
G01 X23.3950 Y-28.6169
G01 X24.2235 Y-28.6169
G01 X24.2295 Y-28.6172
G01 X24.2355 Y-28.6180
G01 X24.2415 Y-28.6172
G01 X24.2475 Y-28.6169
G01 X25.2450 Y-28.6169
G01 X25.3313 Y-28.5997
G01 X25.3993 Y-28.5543
G01 X25.4447 Y-28.4864
G01 X25.4619 Y-28.3999
G01 X25.4619 Y-28.0000
G01 X25.4447 Y-27.9137
G01 X25.3898 Y-27.8312
G01 X25.3858 Y-27.8228
G01 X25.3835 Y-27.8154
G01 X25.3821 Y-27.8078
G01 X25.3816 Y-27.8000
G01 X25.3821 Y-27.7922
G01 X25.3839 Y-27.7831
G01 X25.3864 Y-27.7757
G01 X25.3898 Y-27.7688
G01 X25.4447 Y-27.6863
G01 X25.4619 Y-27.6000
G01 X25.4619 Y-27.2001
G01 X25.4447 Y-27.1136
G01 X25.3898 Y-27.0312
G01 X25.3864 Y-27.0243
G01 X25.3839 Y-27.0169
G01 X25.3821 Y-27.0078
G01 X25.3816 Y-27.0000
G01 X25.3821 Y-26.9922
G01 X25.3835 Y-26.9846
G01 X25.3858 Y-26.9772
G01 X25.3898 Y-26.9688
G01 X25.4447 Y-26.8864
G01 X25.4619 Y-26.7999
G01 X25.4619 Y-26.4000
G01 X25.4447 Y-26.3137
G01 X25.3898 Y-26.2312
G01 X25.3858 Y-26.2228
G01 X25.3835 Y-26.2154
G01 X25.3821 Y-26.2078
G01 X25.3816 Y-26.2000
G01 X25.3821 Y-26.1922
G01 X25.3839 Y-26.1831
G01 X25.3864 Y-26.1757
G01 X25.3898 Y-26.1688
G01 X25.4447 Y-26.0863
G01 X25.4619 Y-26.0000
G01 X25.4619 Y-25.6001
G01 X25.4447 Y-25.5136
G01 X25.3898 Y-25.4312
G01 X25.3864 Y-25.4243
G01 X25.3839 Y-25.4169
G01 X25.3821 Y-25.4078
G01 X25.3816 Y-25.4000
G01 X25.3821 Y-25.3922
G01 X25.3835 Y-25.3846
G01 X25.3858 Y-25.3772
G01 X25.3898 Y-25.3688
G01 X25.4447 Y-25.2864
G01 X25.4619 Y-25.1999
G01 X25.4619 Y-24.8001
G01 X25.4447 Y-24.7136
G01 X25.3898 Y-24.6312
G01 X25.3864 Y-24.6243
G01 X25.3839 Y-24.6169
G01 X25.3823 Y-24.6093
G01 X25.3816 Y-24.6000
G01 X25.3821 Y-24.5922
G01 X25.3835 Y-24.5846
G01 X25.3858 Y-24.5772
G01 X25.3898 Y-24.5688
G01 X25.4447 Y-24.4864
G01 X25.4619 Y-24.3999
G01 X25.4619 Y-24.0000
G01 X25.4447 Y-23.9137
G01 X25.3898 Y-23.8312
G01 X25.3858 Y-23.8228
G01 X25.3835 Y-23.8154
G01 X25.3821 Y-23.8078
G01 X25.3816 Y-23.8000
G01 X25.3821 Y-23.7922
G01 X25.3839 Y-23.7831
G01 X25.3864 Y-23.7757
G01 X25.3898 Y-23.7688
G01 X25.4447 Y-23.6863
G01 X25.4619 Y-23.6000
G01 X25.4619 Y-23.2001
G01 X25.4447 Y-23.1136
G01 X25.3898 Y-23.0312
G01 X25.3864 Y-23.0243
G01 X25.3839 Y-23.0169
G01 X25.3821 Y-23.0078
G01 X25.3816 Y-23.0000
G01 X25.3821 Y-22.9922
G01 X25.3835 Y-22.9846
G01 X25.3858 Y-22.9772
G01 X25.3898 Y-22.9688
G01 X25.4447 Y-22.8864
G01 X25.4619 Y-22.7999
G01 X25.4619 Y-22.4000
G01 X25.4447 Y-22.3137
G01 X25.3898 Y-22.2312
G01 X25.3858 Y-22.2228
G01 X25.3835 Y-22.2154
G01 X25.3821 Y-22.2078
G01 X25.3816 Y-22.2000
G01 X25.3821 Y-22.1922
G01 X25.3839 Y-22.1831
G01 X25.3864 Y-22.1757
G01 X25.3898 Y-22.1688
G01 X25.4447 Y-22.0863
G01 X25.4619 Y-22.0000
G01 X25.4619 Y-21.6001
G01 X25.4447 Y-21.5136
G01 X25.3898 Y-21.4312
G01 X25.3864 Y-21.4243
G01 X25.3839 Y-21.4169
G01 X25.3823 Y-21.4093
G01 X25.3816 Y-21.4016
G01 X25.3819 Y-21.3938
G01 X25.3835 Y-21.3846
G01 X25.3858 Y-21.3772
G01 X25.3891 Y-21.3701
G01 X25.3923 Y-21.3648
G01 X25.4447 Y-21.2864
G01 X25.4619 Y-21.1999
G01 X25.4619 Y-20.8001
G01 X25.4447 Y-20.7136
G01 X25.3993 Y-20.6457
G01 X25.3313 Y-20.6003
G01 X25.2450 Y-20.5831
G01 X23.3950 Y-20.5831
G01 X23.3087 Y-20.6003
G01 X23.2371 Y-20.6481
G01 X23.2323 Y-20.6522
G01 X23.2260 Y-20.6565
G01 X23.2191 Y-20.6600
G01 X23.2119 Y-20.6626
G01 X23.2044 Y-20.6644
G01 X23.1983 Y-20.6651
G01 X22.4649 Y-20.6653
G01 X22.4556 Y-20.6646
G01 X22.4465 Y-20.6626
G01 X22.4406 Y-20.6605
G01 X22.4336 Y-20.6571
G01 X22.4271 Y-20.6528
G01 X22.4212 Y-20.6478
G01 X22.1052 Y-20.3317
G01 X22.1000 Y-20.3259
G01 X22.0956 Y-20.3195
G01 X22.0914 Y-20.3112
G01 X22.0889 Y-20.3038
G01 X22.0871 Y-20.2947
G01 X22.0866 Y-20.2869
G01 X22.0866 Y-19.4134
G01 X20.5134 Y-19.4134
G01 X20.5132 Y-19.7566
G01 X20.5122 Y-19.7643
G01 X20.5102 Y-19.7718
G01 X20.5073 Y-19.7790
G01 X20.5036 Y-19.7858
G01 X20.4990 Y-19.7921
G01 X20.4937 Y-19.7978
G01 X20.4878 Y-19.8028
G01 X20.4812 Y-19.8071
G01 X20.4743 Y-19.8105
G01 X20.4654 Y-19.8134
G01 X20.4578 Y-19.8148
G01 X20.4500 Y-19.8153
G01 X19.8149 Y-19.8153
G01 X19.8071 Y-19.8148
G01 X19.7995 Y-19.8134
G01 X19.7935 Y-19.8116
G01 X19.7864 Y-19.8085
G01 X19.7797 Y-19.8046
G01 X19.7735 Y-19.7999
G01 X19.6909 Y-19.7174
G01 X19.5774 Y-19.6416
G01 X19.4436 Y-19.6150
G01 X19.2987 Y-19.6150
G01 X19.2910 Y-19.6145
G01 X19.2819 Y-19.6127
G01 X19.2717 Y-19.6090
G01 X19.2637 Y-19.6044
G01 X19.2563 Y-19.5988
G01 X19.2499 Y-19.5921
G01 X19.2437 Y-19.5832
G01 X19.2392 Y-19.5734
G01 X19.2363 Y-19.5629
G01 X19.2073 Y-19.3432
G01 X19.0928 Y-19.0668
G01 X18.9106 Y-18.8293
G01 X18.6732 Y-18.6472
G01 X18.3967 Y-18.5327
G01 X18.1000 Y-18.4935
G01 X17.8033 Y-18.5327
G01 X17.5268 Y-18.6472
G01 X17.2893 Y-18.8293
G01 X17.1765 Y-18.9762
G01 X17.1685 Y-18.9837
G01 X17.1593 Y-18.9898
G01 X17.1537 Y-18.9925
G01 X17.1478 Y-18.9946
G01 X17.1370 Y-18.9969
G01 X17.1292 Y-18.9974
G01 X16.4782 Y-18.9974
G01 X16.4704 Y-18.9969
G01 X16.4643 Y-18.9959
G01 X16.4568 Y-18.9937
G01 X16.4483 Y-18.9899
G01 X16.4417 Y-18.9858
G01 X16.4345 Y-18.9799
G01 X16.2612 Y-18.8066
G01 X16.2570 Y-18.8020
G01 X16.2508 Y-18.7930
G01 X16.2463 Y-18.7832
G01 X16.2435 Y-18.7726
G01 X16.2426 Y-18.7618
G01 X16.2426 Y-15.6296
G01 X16.2433 Y-15.6203
G01 X16.2458 Y-15.6097
G01 X16.2501 Y-15.5997
G01 X16.2551 Y-15.5918
G01 X16.2612 Y-15.5848
G01 X16.4345 Y-15.4115
G01 X16.4417 Y-15.4056
G01 X16.4497 Y-15.4008
G01 X16.4583 Y-15.3972
G01 X16.4658 Y-15.3952
G01 X16.4720 Y-15.3943
G01 X16.4782 Y-15.3940
G01 X17.2998 Y-15.3940
G01 X17.3090 Y-15.3949
G01 X17.3180 Y-15.3971
G01 X17.3265 Y-15.4006
G01 X17.3344 Y-15.4053
G01 X17.5268 Y-15.5528
G01 X17.8033 Y-15.6673
G01 X18.1000 Y-15.7065
G01 X18.3967 Y-15.6673
G01 X18.6732 Y-15.5528
G01 X18.9106 Y-15.3707
G01 X19.0928 Y-15.1332
G01 X19.2073 Y-14.8567
G01 X19.2465 Y-14.5600
G01 X19.2073 Y-14.2633
G01 X19.0928 Y-13.9868
G01 X18.9106 Y-13.7494
G01 X18.6732 Y-13.5672
G01 X18.5890 Y-13.5323
G01 X18.5834 Y-13.5295
G01 X18.5769 Y-13.5252
G01 X18.5699 Y-13.5191
G01 X18.5629 Y-13.5108
G01 X18.5574 Y-13.5014
G01 X18.5536 Y-13.4912
G01 X18.5518 Y-13.4821
G01 X18.5513 Y-13.4743
G01 X18.5513 Y-12.4129
G01 X18.5288 Y-12.2424
G01 X18.4647 Y-12.0876
G01 X18.3601 Y-11.9513
G01 X17.6573 Y-11.2486
G01 X17.5210 Y-11.1440
G01 X17.3661 Y-11.0798
G01 X17.1959 Y-11.0574
G01 X3.5060 Y-11.0574
G01 X3.4982 Y-11.0569
G01 X3.4891 Y-11.0551
G01 X3.4803 Y-11.0520
G01 X3.4708 Y-11.0467
G01 X3.4623 Y-11.0399
G01 X3.4551 Y-11.0318
G01 X3.4501 Y-11.0239
G01 X3.4458 Y-11.0139
G01 X3.4433 Y-11.0033
G01 X3.4426 Y-10.9940
G01 X3.4426 Y-7.0924
G01 X3.4431 Y-7.0846
G01 X3.4445 Y-7.0770
G01 X3.4468 Y-7.0696
G01 X3.4508 Y-7.0611
G01 X3.4560 Y-7.0534
G01 X3.4612 Y-7.0476
G01 X8.6477 Y-1.8612
G01 X8.6560 Y-1.8542
G01 X8.6640 Y-1.8494
G01 X8.6741 Y-1.8453
G01 X8.6847 Y-1.8431
G01 X8.6925 Y-1.8426
G01 X42.5940 Y-1.8426
G01 X42.6002 Y-1.8429
G01 X42.6079 Y-1.8441
G01 X42.6154 Y-1.8463
G01 X42.6211 Y-1.8487
G01 X42.6279 Y-1.8524
G01 X42.6354 Y-1.8580
G01 X42.6420 Y-1.8646
G01 X42.6476 Y-1.8721
G01 X42.6520 Y-1.8803
G01 X42.6547 Y-1.8876
G01 X42.6567 Y-1.8967
G01 X42.6574 Y-1.9044
G01 X42.6574 Y-3.9076
G01 X42.6567 Y-3.9169
G01 X42.6547 Y-3.9260
G01 X42.6520 Y-3.9333
G01 X42.6484 Y-3.9402
G01 X42.6440 Y-3.9466
G01 X42.6388 Y-3.9524
G01 X41.6489 Y-4.9420
G01 X41.6401 Y-4.9484
G01 X41.6303 Y-4.9532
G01 X41.6199 Y-4.9562
G01 X41.6137 Y-4.9571
G01 X41.6075 Y-4.9574
G01 X38.7041 Y-4.9574
G01 X38.5338 Y-4.9798
G01 X38.3790 Y-5.0439
G01 X38.2427 Y-5.1486
G01 X35.9485 Y-7.4427
G01 X35.8439 Y-7.5790
G01 X35.7798 Y-7.7338
G01 X35.7574 Y-7.9041
G01 X35.7574 Y-11.5075
G01 X35.7571 Y-11.5137
G01 X35.7559 Y-11.5214
G01 X35.7542 Y-11.5274
G01 X35.7513 Y-11.5346
G01 X35.7458 Y-11.5440
G01 X35.7388 Y-11.5523
G01 X34.4524 Y-12.8388
G01 X34.4466 Y-12.8440
G01 X34.4402 Y-12.8484
G01 X34.4333 Y-12.8520
G01 X34.4275 Y-12.8542
G01 X34.4169 Y-12.8567
G01 X34.4076 Y-12.8574
G01 X33.4500 Y-12.8574
G01 X33.4422 Y-12.8569
G01 X33.4331 Y-12.8551
G01 X33.4257 Y-12.8526
G01 X33.4174 Y-12.8484
G01 X33.4110 Y-12.8440
G01 X33.4052 Y-12.8388
G01 X33.3991 Y-12.8318
G01 X33.3948 Y-12.8252
G01 X33.3908 Y-12.8168
G01 X33.3878 Y-12.8064
G01 X33.3867 Y-12.7971
G01 X33.3866 Y-12.7134
G01 X32.1134 Y-12.7134
G01 X32.1134 Y-14.2866
G01 X32.4519 Y-14.2866
G01 X32.4581 Y-14.2869
G01 X32.4658 Y-14.2881
G01 X32.4747 Y-14.2908
G01 X32.4818 Y-14.2941
G01 X32.4897 Y-14.2991
G01 X32.4967 Y-14.3052
G01 X32.5019 Y-14.3110
G01 X32.5071 Y-14.3188
G01 X32.5105 Y-14.3257
G01 X32.5126 Y-14.3316
G01 X32.5141 Y-14.3376
G01 X32.5150 Y-14.3438
G01 X32.5153 Y-14.3500
G01 X32.5153 Y-15.2851
G01 X32.5150 Y-15.2913
G01 X32.5141 Y-15.2975
G01 X32.5111 Y-15.3079
G01 X32.5063 Y-15.3177
G01 X32.5028 Y-15.3229
G01 X32.4989 Y-15.3277
G01 X32.1677 Y-15.6589
G01 X32.1275 Y-15.7191
G01 X32.1238 Y-15.7241
G01 X32.1185 Y-15.7297
G01 X32.1125 Y-15.7347
G01 X32.1074 Y-15.7382
G01 X32.1005 Y-15.7418
G01 X32.0947 Y-15.7440
G01 X32.0887 Y-15.7457
G01 X32.0826 Y-15.7467
G01 X32.0764 Y-15.7472
G01 X31.9236 Y-15.7472
G01 X31.9144 Y-15.7463
G01 X31.9053 Y-15.7440
G01 X31.8967 Y-15.7404
G01 X31.8887 Y-15.7357
G01 X31.8815 Y-15.7297
G01 X31.8743 Y-15.7216
G01 X31.8323 Y-15.6589
G01 X31.5033 Y-15.3299
G01 X31.4991 Y-15.3253
G01 X31.4954 Y-15.3203
G01 X31.4901 Y-15.3108
G01 X31.4879 Y-15.3050
G01 X31.4862 Y-15.2990
G01 X31.4852 Y-15.2929
G01 X31.4847 Y-15.2851
G01 X31.4847 Y-14.2134
G01 X31.4040 Y-14.2134
G01 X31.4040 Y-15.3448
G01 X31.7796 Y-15.7204
G01 X31.7953 Y-15.7377
G01 X31.8094 Y-15.7563
G01 X31.8129 Y-15.7615
G01 X31.8240 Y-15.7803
G01 X31.8347 Y-15.8028
G01 X31.8431 Y-15.8263
G01 X31.8484 Y-15.8474
G01 X31.8496 Y-15.8535
G01 X31.8529 Y-15.8767
G01 X31.8540 Y-15.9000
G01 X31.8540 Y-17.4655
G01 X31.8597 Y-17.4679
G01 X31.8700 Y-17.4729
G01 X31.8797 Y-17.4788
G01 X31.8877 Y-17.4846
G01 X31.8997 Y-17.4953
G01 X31.9104 Y-17.5073
G01 X31.9162 Y-17.5153
G01 X31.9213 Y-17.5237
G01 X31.9284 Y-17.5381
G01 X31.9336 Y-17.5533
G01 X31.9359 Y-17.5629
G01 X31.9378 Y-17.5757
G01 X31.9384 Y-17.5887
G01 X31.9384 Y-18.8668
G01 X31.9509 Y-18.8735
G01 X31.9574 Y-18.8778
G01 X31.9634 Y-18.8828
G01 X31.9697 Y-18.8897
G01 X31.9749 Y-18.8974
G01 X31.9788 Y-18.9059
G01 X31.9816 Y-18.9148
G01 X31.9829 Y-18.9240
G01 X31.9831 Y-19.4450
G01 X32.0003 Y-19.5313
G01 X32.0479 Y-19.6026
G01 X32.0528 Y-19.6084
G01 X32.0570 Y-19.6149
G01 X32.0605 Y-19.6219
G01 X32.0630 Y-19.6293
G01 X32.0646 Y-19.6369
G01 X32.0653 Y-19.6446
G01 X32.0653 Y-22.3938
G01 X32.0919 Y-22.5277
G01 X32.1677 Y-22.6411
G01 X33.1589 Y-23.6323
G01 X33.2723 Y-23.7081
G01 X33.4062 Y-23.7347
G01 X34.4035 Y-23.7347
G01 X34.4127 Y-23.7354
G01 X34.4218 Y-23.7374
G01 X34.4304 Y-23.7407
G01 X34.4372 Y-23.7444
G01 X34.4423 Y-23.7479
G01 X34.4481 Y-23.7530
G01 X34.4761 Y-23.7807
G01 X34.4828 Y-23.7891
G01 X34.5441 Y-23.8948
G01 X34.5485 Y-23.9049
G01 X34.5511 Y-23.9156
G01 X34.5518 Y-23.9250
G01 X34.5511 Y-23.9344
G01 X34.5381 Y-24.0000
G01 X34.5381 Y-24.3999
G01 X34.5553 Y-24.4864
G01 X34.6007 Y-24.5543
G01 X34.6686 Y-24.5997
G01 X34.7551 Y-24.6169
G01 X36.6049 Y-24.6169
G01 X36.6914 Y-24.5997
G01 X36.7630 Y-24.5518
G01 X36.7684 Y-24.5473
G01 X36.7749 Y-24.5431
G01 X36.7819 Y-24.5396
G01 X36.7893 Y-24.5371
G01 X36.7969 Y-24.5355
G01 X36.8046 Y-24.5348
G01 X40.8547 Y-24.5350
G01 X40.8654 Y-24.5367
G01 X40.8757 Y-24.5402
G01 X40.8852 Y-24.5455
G01 X40.8937 Y-24.5523
G01 X40.9009 Y-24.5604
G01 X40.9044 Y-24.5656
G01 X40.9073 Y-24.5711
G01 X40.9111 Y-24.5813
G01 X40.9131 Y-24.5920
G01 X40.9134 Y-24.5982
G01 X40.9134 Y-25.1866
G01 X42.3866 Y-25.1866
G01 X42.3866 Y-23.4134
G01 X40.9134 Y-23.4134
G01 X40.9134 Y-23.8018
G01 X40.9129 Y-23.8096
G01 X40.9107 Y-23.8202
G01 X40.9066 Y-23.8303
G01 X40.9009 Y-23.8396
G01 X40.8937 Y-23.8477
G01 X40.8852 Y-23.8545
G01 X40.8757 Y-23.8598
G01 X40.8654 Y-23.8633
G01 X40.8547 Y-23.8650
G01 X39.2301 Y-23.8652
G01 X39.2238 Y-23.8649
G01 X39.2161 Y-23.8636
G01 X39.2086 Y-23.8614
G01 X39.2014 Y-23.8583
G01 X39.1947 Y-23.8544
G01 X39.1884 Y-23.8496
G01 X39.1829 Y-23.8441
G01 X39.1780 Y-23.8380
G01 X39.1740 Y-23.8313
G01 X39.1713 Y-23.8256
G01 X39.1300 Y-23.7229
G01 X39.1281 Y-23.7156
G01 X39.1272 Y-23.7096
G01 X39.1248 Y-23.6749
G01 X39.1251 Y-23.6687
G01 X39.1260 Y-23.6625
G01 X39.1275 Y-23.6565
G01 X39.1296 Y-23.6506
G01 X39.1323 Y-23.6450
G01 X39.1355 Y-23.6397
G01 X39.1392 Y-23.6347
G01 X39.1434 Y-23.6301
G01 X40.4201 Y-22.3533
G01 X40.4259 Y-22.3481
G01 X40.4323 Y-22.3437
G01 X40.4392 Y-22.3401
G01 X40.4480 Y-22.3370
G01 X40.4556 Y-22.3354
G01 X40.4649 Y-22.3347
G01 X41.0516 Y-22.3347
G01 X41.0608 Y-22.3356
G01 X41.0699 Y-22.3379
G01 X41.0771 Y-22.3408
G01 X41.0852 Y-22.3454
G01 X41.0914 Y-22.3501
G01 X41.0959 Y-22.3544
G01 X41.1000 Y-22.3591
G01 X41.1044 Y-22.3655
G01 X41.1080 Y-22.3724
G01 X41.1102 Y-22.3782
G01 X41.1122 Y-22.3857
G01 X41.1132 Y-22.3934
G01 X41.1134 Y-22.7866
G01 X42.3866 Y-22.7866
G01 X42.3866 Y-21.2134
G01 X41.1134 Y-21.2134
G01 X41.1132 Y-21.6066
G01 X41.1122 Y-21.6143
G01 X41.1097 Y-21.6233
G01 X41.1066 Y-21.6304
G01 X41.1027 Y-21.6371
G01 X41.0980 Y-21.6433
G01 X41.0926 Y-21.6489
G01 X41.0865 Y-21.6537
G01 X41.0785 Y-21.6585
G01 X41.0714 Y-21.6616
G01 X41.0654 Y-21.6634
G01 X41.0578 Y-21.6648
G01 X41.0500 Y-21.6653
G01 X40.3062 Y-21.6653
G01 X40.1723 Y-21.6919
G01 X40.0589 Y-21.7677
G01 X38.7799 Y-23.0467
G01 X38.7729 Y-23.0528
G01 X38.7650 Y-23.0578
G01 X38.7565 Y-23.0616
G01 X38.7475 Y-23.0641
G01 X38.7413 Y-23.0650
G01 X38.7351 Y-23.0653
G01 X36.9565 Y-23.0653
G01 X36.9503 Y-23.0650
G01 X36.9442 Y-23.0641
G01 X36.9338 Y-23.0611
G01 X36.9241 Y-23.0564
G01 X36.9190 Y-23.0530
G01 X36.9142 Y-23.0491
G01 X36.8839 Y-23.0193
G01 X36.8780 Y-23.0122
G01 X36.8747 Y-23.0070
G01 X36.8159 Y-22.9051
G01 X36.8115 Y-22.8950
G01 X36.8089 Y-22.8843
G01 X36.8082 Y-22.8749
G01 X36.8089 Y-22.8655
G01 X36.8219 Y-22.7999
G01 X36.8219 Y-22.4000
G01 X36.8094 Y-22.3375
G01 X36.8085 Y-22.3313
G01 X36.8082 Y-22.3234
G01 X36.8089 Y-22.3156
G01 X36.8106 Y-22.3079
G01 X36.8132 Y-22.3004
G01 X36.8167 Y-22.2934
G01 X36.8747 Y-22.1930
G01 X36.8809 Y-22.1841
G01 X36.8851 Y-22.1795
G01 X36.9120 Y-22.1530
G01 X36.9190 Y-22.1470
G01 X36.9269 Y-22.1421
G01 X36.9339 Y-22.1390
G01 X36.9412 Y-22.1367
G01 X36.9488 Y-22.1353
G01 X36.9565 Y-22.1348
G01 X38.5937 Y-22.1348
G01 X38.7276 Y-22.1081
G01 X38.8411 Y-22.0323
G01 X42.3201 Y-18.5534
G01 X42.3284 Y-18.5464
G01 X42.3364 Y-18.5416
G01 X42.3435 Y-18.5385
G01 X42.3495 Y-18.5367
G01 X42.3571 Y-18.5353
G01 X42.3649 Y-18.5348
G01 X44.2937 Y-18.5348
G01 X44.4276 Y-18.5081
G01 X44.5411 Y-18.4323
G01 X48.1123 Y-14.8611
G01 X48.1881 Y-14.7477
G01 X48.2147 Y-14.6138
G01 X48.2147 Y-12.2340
G01 X48.2152 Y-12.2262
G01 X48.2166 Y-12.2186
G01 X48.2184 Y-12.2126
G01 X48.2208 Y-12.2069
G01 X48.2245 Y-12.2001
G01 X48.2281 Y-12.1950
G01 X48.2333 Y-12.1892
G01 X48.2379 Y-12.1850
G01 X48.2429 Y-12.1813
G01 X48.2482 Y-12.1781
G01 X48.2538 Y-12.1754
G01 X48.4532 Y-12.0928
G01 X48.6907 Y-11.9106
G01 X48.8728 Y-11.6732
G01 X48.9873 Y-11.3967
G01 X49.0265 Y-11.1000
G01 X48.9873 Y-10.8033
G01 X48.8728 Y-10.5268
G01 X48.6907 Y-10.2893
G01 X48.4532 Y-10.1072
G01 X48.1767 Y-9.9927
G01 X47.8800 Y-9.9535
G01 X47.5833 Y-9.9927
G01 X47.3068 Y-10.1072
G01 X47.0693 Y-10.2893
G01 X46.8872 Y-10.5268
G01 X46.7727 Y-10.8032
G01 X46.7366 Y-11.0764
G01 X46.7354 Y-11.0825
G01 X46.7335 Y-11.0884
G01 X46.7311 Y-11.0941
G01 X46.7279 Y-11.1000
G01 X46.7311 Y-11.1059
G01 X46.7335 Y-11.1115
G01 X46.7354 Y-11.1174
G01 X46.7366 Y-11.1235
G01 X46.7727 Y-11.3968
G01 X46.8872 Y-11.6732
G01 X47.0693 Y-11.9106
G01 X47.3068 Y-12.0928
G01 X47.5061 Y-12.1754
G01 X47.5117 Y-12.1781
G01 X47.5170 Y-12.1813
G01 X47.5232 Y-12.1860
G01 X47.5288 Y-12.1914
G01 X47.5327 Y-12.1962
G01 X47.5362 Y-12.2014
G01 X47.5398 Y-12.2083
G01 X47.5420 Y-12.2141
G01 X47.5440 Y-12.2216
G01 X47.5449 Y-12.2278
G01 X47.5452 Y-12.2340
G01 X47.5452 Y-14.4551
G01 X47.5449 Y-14.4613
G01 X47.5440 Y-14.4675
G01 X47.5410 Y-14.4779
G01 X47.5384 Y-14.4836
G01 X47.5354 Y-14.4890
G01 X47.5318 Y-14.4941
G01 X47.5277 Y-14.4988
G01 X44.1799 Y-17.8466
G01 X44.1716 Y-17.8536
G01 X44.1622 Y-17.8591
G01 X44.1535 Y-17.8625
G01 X44.1444 Y-17.8645
G01 X44.1351 Y-17.8652
G01 X42.2063 Y-17.8652
G01 X42.0724 Y-17.8919
G01 X41.9589 Y-17.9677
G01 X38.4799 Y-21.4466
G01 X38.4753 Y-21.4508
G01 X38.4677 Y-21.4562
G01 X38.4579 Y-21.4610
G01 X38.4475 Y-21.4640
G01 X38.4367 Y-21.4652
G01 X37.8301 Y-21.4652
G01 X37.8192 Y-21.4643
G01 X37.8086 Y-21.4614
G01 X37.7986 Y-21.4568
G01 X37.7896 Y-21.4506
G01 X37.7818 Y-21.4429
G01 X37.7780 Y-21.4380
G01 X37.7747 Y-21.4326
G01 X37.7713 Y-21.4256
G01 X37.7315 Y-21.3272
G01 X37.7295 Y-21.3215
G01 X37.7281 Y-21.3156
G01 X37.7272 Y-21.3096
G01 X37.7250 Y-21.2796
G01 X37.7248 Y-21.2733
G01 X37.7255 Y-21.2656
G01 X37.7275 Y-21.2565
G01 X37.7309 Y-21.2478
G01 X37.7355 Y-21.2397
G01 X37.7423 Y-21.2312
G01 X41.8201 Y-17.1534
G01 X41.8259 Y-17.1482
G01 X41.8337 Y-17.1430
G01 X41.8435 Y-17.1385
G01 X41.8541 Y-17.1357
G01 X41.8649 Y-17.1348
G01 X43.7937 Y-17.1348
G01 X43.9276 Y-17.1081
G01 X44.0411 Y-17.0323
G01 X45.5723 Y-15.5011
G01 X45.6481 Y-15.3877
G01 X45.6747 Y-15.2538
G01 X45.6747 Y-12.2340
G01 X45.6750 Y-12.2278
G01 X45.6759 Y-12.2216
G01 X45.6774 Y-12.2156
G01 X45.6801 Y-12.2083
G01 X45.6829 Y-12.2028
G01 X45.6872 Y-12.1962
G01 X45.6922 Y-12.1903
G01 X45.6967 Y-12.1860
G01 X45.7029 Y-12.1813
G01 X45.7082 Y-12.1781
G01 X45.7138 Y-12.1754
G01 X45.9132 Y-12.0928
G01 X46.1507 Y-11.9106
G01 X46.3328 Y-11.6732
G01 X46.4473 Y-11.3967
G01 X46.4834 Y-11.1236
G01 X46.4846 Y-11.1175
G01 X46.4865 Y-11.1116
G01 X46.4889 Y-11.1059
G01 X46.4921 Y-11.1000
G01 X46.4889 Y-11.0940
G01 X46.4865 Y-11.0883
G01 X46.4846 Y-11.0824
G01 X46.4834 Y-11.0763
G01 X46.4473 Y-10.8033
G01 X46.3328 Y-10.5268
G01 X46.1507 Y-10.2893
G01 X45.9132 Y-10.1072
G01 X45.6367 Y-9.9927
G01 X45.3400 Y-9.9535
G01 X45.0433 Y-9.9927
G01 X44.7668 Y-10.1072
G01 X44.5293 Y-10.2893
G01 X44.3472 Y-10.5268
G01 X44.2327 Y-10.8032
G01 X44.1966 Y-11.0764
G01 X44.1954 Y-11.0825
G01 X44.1935 Y-11.0884
G01 X44.1911 Y-11.0941
G01 X44.1879 Y-11.1000
G01 X44.1911 Y-11.1059
G01 X44.1935 Y-11.1115
G01 X44.1954 Y-11.1174
G01 X44.1966 Y-11.1235
G01 X44.2327 Y-11.3968
G01 X44.3472 Y-11.6732
G01 X44.5293 Y-11.9106
G01 X44.7668 Y-12.0928
G01 X44.9661 Y-12.1754
G01 X44.9717 Y-12.1781
G01 X44.9783 Y-12.1822
G01 X44.9832 Y-12.1860
G01 X44.9888 Y-12.1914
G01 X44.9927 Y-12.1962
G01 X44.9962 Y-12.2014
G01 X44.9998 Y-12.2083
G01 X45.0020 Y-12.2141
G01 X45.0040 Y-12.2216
G01 X45.0049 Y-12.2278
G01 X45.0052 Y-12.2340
G01 X45.0052 Y-15.0951
G01 X45.0049 Y-15.1013
G01 X45.0040 Y-15.1075
G01 X45.0025 Y-15.1135
G01 X45.0004 Y-15.1194
G01 X44.9954 Y-15.1290
G01 X44.9918 Y-15.1341
G01 X44.9877 Y-15.1388
G01 X43.6799 Y-16.4467
G01 X43.6753 Y-16.4509
G01 X43.6703 Y-16.4546
G01 X43.6650 Y-16.4578
G01 X43.6594 Y-16.4605
G01 X43.6535 Y-16.4626
G01 X43.6475 Y-16.4641
G01 X43.6413 Y-16.4650
G01 X43.6351 Y-16.4653
G01 X41.7062 Y-16.4653
G01 X41.5723 Y-16.4919
G01 X41.4589 Y-16.5677
G01 X37.3799 Y-20.6467
G01 X37.3729 Y-20.6528
G01 X37.3636 Y-20.6585
G01 X37.3565 Y-20.6616
G01 X37.3505 Y-20.6634
G01 X37.3444 Y-20.6646
G01 X37.3367 Y-20.6653
G01 X36.9565 Y-20.6653
G01 X36.9503 Y-20.6650
G01 X36.9412 Y-20.6634
G01 X36.9338 Y-20.6611
G01 X36.9268 Y-20.6579
G01 X36.9190 Y-20.6530
G01 X36.9119 Y-20.6470
G01 X36.8839 Y-20.6193
G01 X36.8789 Y-20.6134
G01 X36.8747 Y-20.6070
G01 X36.8159 Y-20.5051
G01 X36.8115 Y-20.4950
G01 X36.8089 Y-20.4843
G01 X36.8082 Y-20.4749
G01 X36.8089 Y-20.4655
G01 X36.8219 Y-20.3999
G01 X36.8219 Y-20.0000
G01 X36.8047 Y-19.9137
G01 X36.7593 Y-19.8457
G01 X36.6914 Y-19.8003
G01 X36.6049 Y-19.7831
G01 X36.0750 Y-19.7830
G01 X36.0688 Y-19.7824
G01 X36.0612 Y-19.7808
G01 X36.0538 Y-19.7783
G01 X36.0482 Y-19.7756
G01 X36.0416 Y-19.7715
G01 X36.0355 Y-19.7667
G01 X36.0311 Y-19.7623
G01 X36.0263 Y-19.7562
G01 X36.0215 Y-19.7482
G01 X36.0174 Y-19.7381
G01 X36.0154 Y-19.7290
G01 X36.0147 Y-19.7197
G01 X36.0147 Y-18.1849
G01 X36.0150 Y-18.1787
G01 X36.0162 Y-18.1710
G01 X36.0184 Y-18.1635
G01 X36.0215 Y-18.1564
G01 X36.0263 Y-18.1484
G01 X36.0333 Y-18.1401
G01 X37.7201 Y-16.4533
G01 X37.7259 Y-16.4481
G01 X37.7350 Y-16.4422
G01 X37.7435 Y-16.4384
G01 X37.7541 Y-16.4356
G01 X37.7649 Y-16.4347
G01 X40.7938 Y-16.4347
G01 X40.9277 Y-16.4081
G01 X41.0411 Y-16.3323
G01 X43.0323 Y-14.3411
G01 X43.1081 Y-14.2276
G01 X43.1348 Y-14.0937
G01 X43.1348 Y-12.2340
G01 X43.1351 Y-12.2278
G01 X43.1363 Y-12.2201
G01 X43.1380 Y-12.2141
G01 X43.1409 Y-12.2069
G01 X43.1446 Y-12.2001
G01 X43.1482 Y-12.1950
G01 X43.1523 Y-12.1903
G01 X43.1580 Y-12.1850
G01 X43.1630 Y-12.1813
G01 X43.1683 Y-12.1781
G01 X43.1739 Y-12.1754
G01 X43.3732 Y-12.0928
G01 X43.6106 Y-11.9106
G01 X43.7928 Y-11.6732
G01 X43.9073 Y-11.3968
G01 X43.9434 Y-11.1235
G01 X43.9446 Y-11.1174
G01 X43.9465 Y-11.1115
G01 X43.9489 Y-11.1059
G01 X43.9521 Y-11.1000
G01 X43.9489 Y-11.0940
G01 X43.9465 Y-11.0884
G01 X43.9446 Y-11.0825
G01 X43.9434 Y-11.0764
G01 X43.9073 Y-10.8032
G01 X43.7928 Y-10.5268
G01 X43.6106 Y-10.2893
G01 X43.3732 Y-10.1072
G01 X43.0967 Y-9.9927
G01 X42.8000 Y-9.9535
G01 X42.5033 Y-9.9927
G01 X42.2268 Y-10.1072
G01 X41.9894 Y-10.2893
G01 X41.8072 Y-10.5268
G01 X41.6927 Y-10.8033
G01 X41.6566 Y-11.0763
G01 X41.6554 Y-11.0824
G01 X41.6535 Y-11.0883
G01 X41.6511 Y-11.0940
G01 X41.6479 Y-11.1000
G01 X41.6511 Y-11.1059
G01 X41.6535 Y-11.1116
G01 X41.6554 Y-11.1175
G01 X41.6566 Y-11.1236
G01 X41.6927 Y-11.3967
G01 X41.8072 Y-11.6732
G01 X41.9894 Y-11.9106
G01 X42.2268 Y-12.0928
G01 X42.4261 Y-12.1754
G01 X42.4317 Y-12.1781
G01 X42.4370 Y-12.1813
G01 X42.4420 Y-12.1850
G01 X42.4466 Y-12.1892
G01 X42.4508 Y-12.1938
G01 X42.4554 Y-12.2001
G01 X42.4584 Y-12.2055
G01 X42.4610 Y-12.2112
G01 X42.4629 Y-12.2171
G01 X42.4647 Y-12.2262
G01 X42.4652 Y-12.2340
G01 X42.4652 Y-13.9351
G01 X42.4647 Y-13.9429
G01 X42.4629 Y-13.9520
G01 X42.4598 Y-13.9608
G01 X42.4562 Y-13.9677
G01 X42.4518 Y-13.9741
G01 X42.4466 Y-13.9799
G01 X40.6799 Y-15.7467
G01 X40.6753 Y-15.7509
G01 X40.6690 Y-15.7555
G01 X40.6622 Y-15.7592
G01 X40.6565 Y-15.7616
G01 X40.6459 Y-15.7644
G01 X40.6351 Y-15.7653
G01 X37.6062 Y-15.7653
G01 X37.4723 Y-15.7919
G01 X37.3589 Y-15.8677
G01 X35.4477 Y-17.7788
G01 X35.3719 Y-17.8923
G01 X35.3453 Y-18.0262
G01 X35.3453 Y-19.7197
G01 X35.3450 Y-19.7259
G01 X35.3441 Y-19.7321
G01 X35.3426 Y-19.7381
G01 X35.3405 Y-19.7440
G01 X35.3371 Y-19.7509
G01 X35.3319 Y-19.7587
G01 X35.3256 Y-19.7656
G01 X35.3197 Y-19.7706
G01 X35.3131 Y-19.7749
G01 X35.3047 Y-19.7789
G01 X35.2958 Y-19.7816
G01 X35.2866 Y-19.7829
G01 X34.7551 Y-19.7831
G01 X34.6686 Y-19.8003
G01 X34.6007 Y-19.8457
G01 X34.5553 Y-19.9137
G01 X34.5381 Y-20.0000
G01 X34.5381 Y-20.3999
G01 X34.5553 Y-20.4864
G01 X34.6102 Y-20.5688
G01 X34.6142 Y-20.5772
G01 X34.6165 Y-20.5846
G01 X34.6179 Y-20.5922
G01 X34.6184 Y-20.6000
G01 X34.6179 Y-20.6078
G01 X34.6161 Y-20.6169
G01 X34.6136 Y-20.6243
G01 X34.6102 Y-20.6312
G01 X34.5553 Y-20.7136
G01 X34.5381 Y-20.8001
G01 X34.5381 Y-21.1999
G01 X34.5553 Y-21.2864
G01 X34.6102 Y-21.3688
G01 X34.6142 Y-21.3772
G01 X34.6165 Y-21.3846
G01 X34.6179 Y-21.3922
G01 X34.6184 Y-21.4000
G01 X34.6179 Y-21.4078
G01 X34.6161 Y-21.4169
G01 X34.6136 Y-21.4243
G01 X34.6102 Y-21.4312
G01 X34.5553 Y-21.5136
G01 X34.5381 Y-21.6001
G01 X34.5381 Y-22.0000
G01 X34.5553 Y-22.0863
G01 X34.6077 Y-22.1648
G01 X34.6109 Y-22.1701
G01 X34.6147 Y-22.1786
G01 X34.6169 Y-22.1861
G01 X34.6181 Y-22.1938
G01 X34.6183 Y-22.2031
G01 X34.6175 Y-22.2108
G01 X34.6157 Y-22.2184
G01 X34.6130 Y-22.2257
G01 X34.6102 Y-22.2312
G01 X34.5553 Y-22.3137
G01 X34.5381 Y-22.4000
G01 X34.5381 Y-22.7999
G01 X34.5511 Y-22.8655
G01 X34.5518 Y-22.8765
G01 X34.5513 Y-22.8828
G01 X34.5502 Y-22.8890
G01 X34.5474 Y-22.8980
G01 X34.5441 Y-22.9051
G01 X34.4853 Y-23.0070
G01 X34.4801 Y-23.0146
G01 X34.4750 Y-23.0204
G01 X34.4481 Y-23.0470
G01 X34.4410 Y-23.0530
G01 X34.4345 Y-23.0572
G01 X34.4276 Y-23.0605
G01 X34.4188 Y-23.0634
G01 X34.4112 Y-23.0648
G01 X34.4035 Y-23.0653
G01 X33.5649 Y-23.0653
G01 X33.5571 Y-23.0648
G01 X33.5495 Y-23.0634
G01 X33.5421 Y-23.0611
G01 X33.5364 Y-23.0585
G01 X33.5284 Y-23.0537
G01 X33.5201 Y-23.0467
G01 X32.7533 Y-22.2799
G01 X32.7472 Y-22.2729
G01 X32.7415 Y-22.2636
G01 X32.7374 Y-22.2535
G01 X32.7352 Y-22.2429
G01 X32.7347 Y-22.2351
G01 X32.7347 Y-19.7965
G01 X32.7352 Y-19.7888
G01 X32.7370 Y-19.7797
G01 X32.7395 Y-19.7724
G01 X32.7436 Y-19.7641
G01 X32.7479 Y-19.7577
G01 X32.7530 Y-19.7519
G01 X32.7807 Y-19.7239
G01 X32.7891 Y-19.7172
G01 X32.8948 Y-19.6559
G01 X32.9034 Y-19.6520
G01 X32.9125 Y-19.6495
G01 X32.9234 Y-19.6482
G01 X32.9344 Y-19.6489
G01 X33.0000 Y-19.6619
G01 X33.3999 Y-19.6619
G01 X33.4864 Y-19.6447
G01 X33.5688 Y-19.5898
G01 X33.5757 Y-19.5864
G01 X33.5816 Y-19.5843
G01 X33.5892 Y-19.5825
G01 X33.5953 Y-19.5818
G01 X33.6047 Y-19.5818
G01 X33.6124 Y-19.5828
G01 X33.6214 Y-19.5853
G01 X33.6299 Y-19.5891
G01 X33.6352 Y-19.5923
G01 X33.7136 Y-19.6447
G01 X33.8001 Y-19.6619
G01 X34.1999 Y-19.6619
G01 X34.2864 Y-19.6447
G01 X34.3543 Y-19.5993
G01 X34.3997 Y-19.5313
G01 X34.4169 Y-19.4450
G01 X34.4169 Y-17.5950
G01 X34.3997 Y-17.5087
G01 X34.3543 Y-17.4407
G01 X34.2864 Y-17.3953
G01 X34.1999 Y-17.3781
G01 X33.7922 Y-17.3781
G01 X33.7829 Y-17.3772
G01 X33.7753 Y-17.3753
G01 X33.7679 Y-17.3726
G01 X33.7610 Y-17.3689
G01 X33.7558 Y-17.3654
G01 X33.7509 Y-17.3614
G01 X33.7078 Y-17.3196
G01 X33.7029 Y-17.3134
G01 X33.6989 Y-17.3067
G01 X33.6957 Y-17.2995
G01 X33.6934 Y-17.2920
G01 X33.6921 Y-17.2842
G01 X33.6917 Y-17.2779
G01 X33.6904 Y-17.1082
G01 X33.6915 Y-17.0973
G01 X33.6930 Y-17.0912
G01 X33.6951 Y-17.0853
G01 X33.6978 Y-17.0796
G01 X33.7010 Y-17.0742
G01 X33.7048 Y-17.0691
G01 X33.7090 Y-17.0645
G01 X35.8201 Y-14.9533
G01 X35.8259 Y-14.9481
G01 X35.8336 Y-14.9429
G01 X35.8406 Y-14.9395
G01 X35.8495 Y-14.9366
G01 X35.8571 Y-14.9352
G01 X35.8649 Y-14.9347
G01 X38.6938 Y-14.9347
G01 X38.8277 Y-14.9081
G01 X38.9411 Y-14.8323
G01 X40.4923 Y-13.2811
G01 X40.5681 Y-13.1677
G01 X40.5947 Y-13.0338
G01 X40.5947 Y-12.2340
G01 X40.5950 Y-12.2278
G01 X40.5959 Y-12.2216
G01 X40.5974 Y-12.2156
G01 X40.5995 Y-12.2097
G01 X40.6045 Y-12.2001
G01 X40.6111 Y-12.1914
G01 X40.6155 Y-12.1870
G01 X40.6203 Y-12.1831
G01 X40.6296 Y-12.1774
G01 X40.8332 Y-12.0928
G01 X41.0707 Y-11.9106
G01 X41.2528 Y-11.6732
G01 X41.3673 Y-11.3967
G01 X41.4034 Y-11.1236
G01 X41.4046 Y-11.1175
G01 X41.4065 Y-11.1116
G01 X41.4089 Y-11.1059
G01 X41.4121 Y-11.1000
G01 X41.4089 Y-11.0940
G01 X41.4065 Y-11.0883
G01 X41.4046 Y-11.0824
G01 X41.4034 Y-11.0763
G01 X41.3673 Y-10.8033
G01 X41.2528 Y-10.5268
G01 X41.0707 Y-10.2893
G01 X40.8332 Y-10.1072
G01 X40.5568 Y-9.9927
G01 X40.4683 Y-9.9810
G01 X40.4608 Y-9.9794
G01 X40.4535 Y-9.9768
G01 X40.4465 Y-9.9734
G01 X40.4401 Y-9.9691
G01 X40.4342 Y-9.9641
G01 X40.4280 Y-9.9572
G01 X40.4236 Y-9.9508
G01 X40.4195 Y-9.9425
G01 X40.4166 Y-9.9337
G01 X40.4152 Y-9.9261
G01 X40.4147 Y-9.9184
G01 X40.4147 Y-8.7594
G01 X40.4154 Y-8.7501
G01 X40.4174 Y-8.7410
G01 X40.4215 Y-8.7309
G01 X40.4263 Y-8.7229
G01 X40.4322 Y-8.7157
G01 X40.4391 Y-8.7094
G01 X40.4455 Y-8.7050
G01 X40.4510 Y-8.7021
G01 X40.4732 Y-8.6928
G01 X40.7106 Y-8.5107
G01 X40.8928 Y-8.2732
G01 X40.9767 Y-8.0710
G01 X40.9813 Y-8.0629
G01 X40.9870 Y-8.0555
G01 X40.9926 Y-8.0501
G01 X41.0001 Y-8.0445
G01 X41.0083 Y-8.0401
G01 X41.0156 Y-8.0374
G01 X41.0247 Y-8.0354
G01 X41.0340 Y-8.0347
G01 X45.2661 Y-8.0347
G01 X45.2754 Y-8.0354
G01 X45.2815 Y-8.0366
G01 X45.2889 Y-8.0390
G01 X45.2960 Y-8.0422
G01 X45.3026 Y-8.0463
G01 X45.3087 Y-8.0511
G01 X45.3131 Y-8.0555
G01 X45.3170 Y-8.0603
G01 X45.3213 Y-8.0669
G01 X45.3247 Y-8.0739
G01 X45.4072 Y-8.2732
G01 X45.5894 Y-8.5107
G01 X45.8268 Y-8.6928
G01 X46.1033 Y-8.8073
G01 X46.4000 Y-8.8465
G01 X46.6967 Y-8.8073
G01 X46.9732 Y-8.6928
G01 X47.2106 Y-8.5107
G01 X47.3928 Y-8.2732
G01 X47.4753 Y-8.0739
G01 X47.4787 Y-8.0669
G01 X47.4830 Y-8.0603
G01 X47.4869 Y-8.0555
G01 X47.4925 Y-8.0501
G01 X47.4974 Y-8.0463
G01 X47.5040 Y-8.0422
G01 X47.5111 Y-8.0390
G01 X47.5170 Y-8.0370
G01 X47.5246 Y-8.0354
G01 X47.5339 Y-8.0347
G01 X48.6000 Y-8.0347
G01 X48.6078 Y-8.0352
G01 X48.6169 Y-8.0370
G01 X48.6257 Y-8.0401
G01 X48.6339 Y-8.0445
G01 X48.6414 Y-8.0501
G01 X48.6480 Y-8.0567
G01 X48.6536 Y-8.0642
G01 X48.6573 Y-8.0710
G01 X48.6607 Y-8.0797
G01 X48.6627 Y-8.0888
G01 X48.6634 Y-8.0981
G01 X48.6634 Y-8.3366
G01 X49.9366 Y-8.3366
G01 X49.9366 Y-7.0634
G01 X48.6634 Y-7.0634
G01 X48.6634 Y-7.3018
G01 X48.6627 Y-7.3111
G01 X48.6611 Y-7.3187
G01 X48.6580 Y-7.3275
G01 X48.6536 Y-7.3357
G01 X48.6480 Y-7.3432
G01 X48.6414 Y-7.3498
G01 X48.6339 Y-7.3554
G01 X48.6257 Y-7.3598
G01 X48.6169 Y-7.3629
G01 X48.6078 Y-7.3647
G01 X48.6000 Y-7.3652
G01 X47.5339 Y-7.3652
G01 X47.5246 Y-7.3645
G01 X47.5170 Y-7.3629
G01 X47.5111 Y-7.3610
G01 X47.5040 Y-7.3577
G01 X47.4987 Y-7.3545
G01 X47.4937 Y-7.3508
G01 X47.4880 Y-7.3455
G01 X47.4830 Y-7.3396
G01 X47.4787 Y-7.3330
G01 X47.4753 Y-7.3261
G01 X47.3928 Y-7.1268
G01 X47.2106 Y-6.8894
G01 X46.9732 Y-6.7072
G01 X46.6968 Y-6.5927
G01 X46.4000 Y-6.5536
G01 X46.1032 Y-6.5927
G01 X45.8268 Y-6.7072
G01 X45.5894 Y-6.8894
G01 X45.4072 Y-7.1268
G01 X45.3247 Y-7.3261
G01 X45.3213 Y-7.3330
G01 X45.3170 Y-7.3396
G01 X45.3120 Y-7.3455
G01 X45.3075 Y-7.3498
G01 X45.3013 Y-7.3545
G01 X45.2946 Y-7.3584
G01 X45.2889 Y-7.3610
G01 X45.2815 Y-7.3633
G01 X45.2754 Y-7.3645
G01 X45.2661 Y-7.3652
G01 X41.0324 Y-7.3652
G01 X41.0247 Y-7.3645
G01 X41.0186 Y-7.3633
G01 X41.0112 Y-7.3610
G01 X41.0041 Y-7.3577
G01 X40.9975 Y-7.3536
G01 X40.9914 Y-7.3488
G01 X40.9860 Y-7.3432
G01 X40.9813 Y-7.3370
G01 X40.9781 Y-7.3317
G01 X40.9754 Y-7.3261
G01 X40.8928 Y-7.1268
G01 X40.7106 Y-6.8894
G01 X40.4732 Y-6.7072
G01 X40.1968 Y-6.5927
G01 X39.9000 Y-6.5536
G01 X39.6032 Y-6.5927
G01 X39.3268 Y-6.7072
G01 X39.0893 Y-6.8894
G01 X38.9072 Y-7.1268
G01 X38.7927 Y-7.4033
G01 X38.7535 Y-7.7000
G01 X38.7927 Y-7.9967
G01 X38.9072 Y-8.2732
G01 X39.0893 Y-8.5107
G01 X39.3268 Y-8.6928
G01 X39.6032 Y-8.8073
G01 X39.6917 Y-8.8190
G01 X39.6992 Y-8.8206
G01 X39.7065 Y-8.8232
G01 X39.7135 Y-8.8266
G01 X39.7199 Y-8.8309
G01 X39.7247 Y-8.8348
G01 X39.7301 Y-8.8404
G01 X39.7347 Y-8.8465
G01 X39.7386 Y-8.8532
G01 X39.7416 Y-8.8604
G01 X39.7438 Y-8.8678
G01 X39.7450 Y-8.8754
G01 X39.7453 Y-8.8816
G01 X39.7453 Y-10.0406
G01 X39.7446 Y-10.0499
G01 X39.7430 Y-10.0575
G01 X39.7399 Y-10.0663
G01 X39.7346 Y-10.0758
G01 X39.7289 Y-10.0832
G01 X39.7209 Y-10.0906
G01 X39.7145 Y-10.0950
G01 X39.7090 Y-10.0979
G01 X39.6868 Y-10.1072
G01 X39.4494 Y-10.2893
G01 X39.2672 Y-10.5268
G01 X39.1527 Y-10.8033
G01 X39.1135 Y-11.1000
G01 X39.1527 Y-11.3967
G01 X39.2672 Y-11.6732
G01 X39.4494 Y-11.9106
G01 X39.6868 Y-12.0928
G01 X39.8904 Y-12.1774
G01 X39.8997 Y-12.1831
G01 X39.9078 Y-12.1903
G01 X39.9146 Y-12.1988
G01 X39.9199 Y-12.2083
G01 X39.9221 Y-12.2141
G01 X39.9238 Y-12.2201
G01 X39.9248 Y-12.2262
G01 X39.9253 Y-12.2340
G01 X39.9253 Y-12.8767
G01 X39.9241 Y-12.8875
G01 X39.9211 Y-12.8979
G01 X39.9171 Y-12.9063
G01 X39.9109 Y-12.9153
G01 X39.9067 Y-12.9199
G01 X38.5799 Y-14.2467
G01 X38.5741 Y-14.2519
G01 X38.5677 Y-14.2563
G01 X38.5608 Y-14.2599
G01 X38.5550 Y-14.2621
G01 X38.5444 Y-14.2646
G01 X38.5351 Y-14.2653
G01 X35.7062 Y-14.2653
G01 X35.5723 Y-14.2919
G01 X35.4589 Y-14.3677
G01 X33.0522 Y-16.7745
G01 X33.0433 Y-16.7875
G01 X33.0361 Y-16.7957
G01 X33.0288 Y-16.8016
G01 X33.0208 Y-16.8063
G01 X33.0137 Y-16.8094
G01 X33.0047 Y-16.8118
G01 X32.8293 Y-16.8416
G01 X32.8200 Y-16.8423
G01 X32.8107 Y-16.8416
G01 X32.8046 Y-16.8403
G01 X32.7986 Y-16.8385
G01 X32.7929 Y-16.8361
G01 X32.7874 Y-16.8332
G01 X32.7602 Y-16.8132
G01 X32.7543 Y-16.8082
G01 X32.7471 Y-16.8001
G01 X32.7414 Y-16.7908
G01 X32.7389 Y-16.7851
G01 X32.7370 Y-16.7793
G01 X32.7350 Y-16.7686
G01 X32.7347 Y-16.7624
G01 X32.7347 Y-16.0649
G01 X32.7354 Y-16.0556
G01 X32.7379 Y-16.0450
G01 X32.7415 Y-16.0364
G01 X32.7463 Y-16.0284
G01 X32.7522 Y-16.0212
G01 X33.0823 Y-15.6911
G01 X33.1581 Y-15.5777
G01 X33.1847 Y-15.4438
G01 X33.1847 Y-14.3500
G01 X33.1850 Y-14.3438
G01 X33.1859 Y-14.3376
G01 X33.1874 Y-14.3316
G01 X33.1895 Y-14.3257
G01 X33.1929 Y-14.3188
G01 X33.1972 Y-14.3122
G01 X33.2022 Y-14.3063
G01 X33.2079 Y-14.3010
G01 X33.2142 Y-14.2964
G01 X33.2210 Y-14.2927
G01 X33.2282 Y-14.2898
G01 X33.2357 Y-14.2878
G01 X33.2419 Y-14.2869
G01 X33.2481 Y-14.2866
G01 X33.3866 Y-14.2866
G01 X33.3867 Y-14.2029
G01 X33.3878 Y-14.1936
G01 X33.3908 Y-14.1832
G01 X33.3941 Y-14.1761
G01 X33.3991 Y-14.1682
G01 X33.4041 Y-14.1623
G01 X33.4098 Y-14.1570
G01 X33.4174 Y-14.1516
G01 X33.4243 Y-14.1480
G01 X33.4316 Y-14.1453
G01 X33.4407 Y-14.1433
G01 X33.4500 Y-14.1426
G01 X34.6959 Y-14.1426
G01 X34.8662 Y-14.1202
G01 X35.0210 Y-14.0561
G01 X35.1573 Y-13.9514
G01 X36.8514 Y-12.2573
G01 X36.9560 Y-12.1210
G01 X37.0202 Y-11.9661
G01 X37.0426 Y-11.7959
G01 X37.0426 Y-8.1925
G01 X37.0435 Y-8.1817
G01 X37.0458 Y-8.1726
G01 X37.0487 Y-8.1654
G01 X37.0524 Y-8.1586
G01 X37.0570 Y-8.1523
G01 X37.0612 Y-8.1477
G01 X38.9499 Y-6.2590
G01 X38.9547 Y-6.2551
G01 X38.9599 Y-6.2516
G01 X38.9697 Y-6.2468
G01 X38.9801 Y-6.2438
G01 X38.9863 Y-6.2429
G01 X38.9925 Y-6.2426
G01 X41.8959 Y-6.2426
G01 X42.0661 Y-6.2202
G01 X42.2210 Y-6.1560
G01 X42.3574 Y-6.0514
G01 X43.7514 Y-4.6573
G01 X43.8560 Y-4.5210
G01 X43.9202 Y-4.3661
G01 X43.9426 Y-4.1959
G01 X43.9426 Y-1.9044
G01 X43.9435 Y-1.8952
G01 X43.9463 Y-1.8846
G01 X43.9501 Y-1.8761
G01 X43.9551 Y-1.8682
G01 X43.9612 Y-1.8612
G01 X43.9695 Y-1.8542
G01 X43.9775 Y-1.8494
G01 X43.9861 Y-1.8458
G01 X43.9967 Y-1.8433
G01 X44.0060 Y-1.8426
G01 X48.8076 Y-1.8426
G01 X48.8184 Y-1.8435
G01 X48.8290 Y-1.8463
G01 X48.8347 Y-1.8487
G01 X48.8402 Y-1.8516
G01 X48.8490 Y-1.8580
G01 X50.2388 Y-3.2476
G01 X50.2449 Y-3.2546
G01 X50.2499 Y-3.2625
G01 X50.2532 Y-3.2696
G01 X50.2559 Y-3.2785
G01 X50.2571 Y-3.2862
G01 X50.2574 Y-3.2924
G01 X50.2574 Y-7.6959
G01 X50.2629 Y-7.7377
G01 X50.2634 Y-7.7459
G01 X50.2634 Y-8.3366
G01 X50.8541 Y-8.3366
G01 X50.8623 Y-8.3371
G01 X50.9000 Y-8.3421
G01 X50.9377 Y-8.3371
G01 X50.9459 Y-8.3366
G01 X51.5366 Y-8.3366
G01 X51.5366 Y-7.7459
G01 X51.5371 Y-7.7377
G01 X51.5426 Y-7.6959
G01 X51.5426 Y-3.0041
G01 X51.5202 Y-2.8339
G01 X51.4560 Y-2.6790
G01 X51.3515 Y-2.5427
G01 X49.5573 Y-0.7486
G01 X49.4210 Y-0.6440
G01 X49.2661 Y-0.5798
G01 X49.0959 Y-0.5574
G01 X8.4041 Y-0.5574
G00 Z2.0000
G00 X11.1660 Y-7.4314
G01 F60.00
G01 Z-0.0500
G01 F60.00
G01 X11.1660 Y-8.8216
G01 X11.1676 Y-8.8480
G01 X11.1709 Y-8.8696
G01 X11.1761 Y-8.8907
G01 X11.1779 Y-8.8967
G01 X11.1853 Y-8.9172
G01 X11.1960 Y-8.9397
G01 X11.2088 Y-8.9611
G01 X11.2217 Y-8.9787
G01 X11.2257 Y-8.9835
G01 X11.2404 Y-8.9996
G01 X12.8204 Y-10.5796
G01 X12.8389 Y-10.5963
G01 X12.8563 Y-10.6094
G01 X12.8615 Y-10.6129
G01 X12.8830 Y-10.6254
G01 X12.9014 Y-10.6340
G01 X12.9103 Y-10.6374
G01 X12.9263 Y-10.6431
G01 X12.9474 Y-10.6484
G01 X12.9535 Y-10.6496
G01 X12.9751 Y-10.6528
G01 X13.0000 Y-10.6540
G01 X17.7948 Y-10.6540
G01 X20.8460 Y-13.7052
G01 X20.8460 Y-14.8000
G01 X20.8470 Y-14.8218
G01 X20.8476 Y-14.8280
G01 X20.8509 Y-14.8496
G01 X20.8561 Y-14.8707
G01 X20.8642 Y-14.8943
G01 X20.8666 Y-14.9000
G01 X20.8760 Y-14.9197
G01 X20.8888 Y-14.9411
G01 X20.9037 Y-14.9611
G01 X20.9193 Y-14.9785
G01 X24.4204 Y-18.4796
G01 X24.4377 Y-18.4953
G01 X24.4589 Y-18.5112
G01 X24.4776 Y-18.5225
G01 X24.4830 Y-18.5254
G01 X24.5057 Y-18.5358
G01 X24.5263 Y-18.5431
G01 X24.5504 Y-18.5491
G01 X24.5751 Y-18.5528
G01 X24.5969 Y-18.5539
G01 X25.6407 Y-18.5540
G01 X25.6473 Y-18.5803
G01 X25.6552 Y-18.6023
G01 X25.6616 Y-18.6159
G01 X25.6616 Y-19.4544
G01 X25.6622 Y-19.4643
G01 X25.6636 Y-19.4740
G01 X25.6672 Y-19.4897
G01 X25.6716 Y-19.5019
G01 X25.6758 Y-19.5108
G01 X25.6838 Y-19.5247
G01 X25.6936 Y-19.5375
G01 X25.7003 Y-19.5447
G01 X25.7075 Y-19.5514
G01 X25.7190 Y-19.5603
G01 X25.7314 Y-19.5678
G01 X25.7446 Y-19.5740
G01 X25.7583 Y-19.5786
G01 X25.7679 Y-19.5809
G01 X25.7777 Y-19.5824
G01 X25.7921 Y-19.5834
G01 X26.2063 Y-19.5834
G01 X26.2193 Y-19.5828
G01 X26.2321 Y-19.5809
G01 X26.2447 Y-19.5778
G01 X26.2569 Y-19.5734
G01 X26.2686 Y-19.5678
G01 X26.2797 Y-19.5612
G01 X26.2901 Y-19.5535
G01 X26.2997 Y-19.5447
G01 X26.3094 Y-19.5339
G01 X26.3162 Y-19.5247
G01 X26.3221 Y-19.5150
G01 X26.3271 Y-19.5047
G01 X26.3295 Y-19.4990
G01 X26.3328 Y-19.4897
G01 X26.3359 Y-19.4771
G01 X26.3378 Y-19.4643
G01 X26.3384 Y-19.4529
G01 X26.3384 Y-17.5887
G01 X26.3378 Y-17.5757
G01 X26.3359 Y-17.5629
G01 X26.3328 Y-17.5503
G01 X26.3295 Y-17.5410
G01 X26.3271 Y-17.5353
G01 X26.3213 Y-17.5237
G01 X26.3153 Y-17.5140
G01 X26.3075 Y-17.5037
G01 X26.2997 Y-17.4953
G01 X26.2889 Y-17.4856
G01 X26.2784 Y-17.4780
G01 X26.2658 Y-17.4708
G01 X26.2540 Y-17.4655
G01 X26.2447 Y-17.4622
G01 X26.2351 Y-17.4598
G01 X26.2208 Y-17.4574
G01 X26.2079 Y-17.4566
G01 X25.7937 Y-17.4566
G01 X25.7839 Y-17.4570
G01 X25.7777 Y-17.4576
G01 X25.7664 Y-17.4594
G01 X25.7553 Y-17.4622
G01 X25.7431 Y-17.4666
G01 X25.7287 Y-17.4737
G01 X25.7203 Y-17.4788
G01 X25.7099 Y-17.4865
G01 X25.7003 Y-17.4953
G01 X25.6915 Y-17.5049
G01 X25.6838 Y-17.5153
G01 X25.6772 Y-17.5264
G01 X25.6716 Y-17.5381
G01 X25.6672 Y-17.5503
G01 X25.6641 Y-17.5629
G01 X25.6622 Y-17.5757
G01 X25.6616 Y-17.5887
G01 X25.6616 Y-18.0460
G01 X24.7052 Y-18.0460
G01 X21.3540 Y-14.6948
G01 X21.3540 Y-13.5984
G01 X21.3528 Y-13.5751
G01 X21.3496 Y-13.5535
G01 X21.3484 Y-13.5474
G01 X21.3431 Y-13.5263
G01 X21.3347 Y-13.5028
G01 X21.3254 Y-13.4830
G01 X21.3225 Y-13.4776
G01 X21.3094 Y-13.4563
G01 X21.2963 Y-13.4389
G01 X21.2796 Y-13.4204
G01 X18.0796 Y-10.2204
G01 X18.0599 Y-10.2027
G01 X18.0411 Y-10.1888
G01 X18.0197 Y-10.1760
G01 X17.9972 Y-10.1653
G01 X17.9767 Y-10.1579
G01 X17.9526 Y-10.1516
G01 X17.9465 Y-10.1504
G01 X17.9249 Y-10.1472
G01 X17.9000 Y-10.1460
G01 X13.1052 Y-10.1460
G01 X11.6740 Y-8.7148
G01 X11.6740 Y-7.4314
G01 X11.7302 Y-7.4171
G01 X11.8284 Y-7.3818
G01 X11.9213 Y-7.3378
G01 X12.0095 Y-7.2850
G01 X12.0946 Y-7.2220
G01 X12.1697 Y-7.1541
G01 X12.1741 Y-7.1497
G01 X12.2430 Y-7.0734
G01 X12.3042 Y-6.9908
G01 X12.3578 Y-6.9013
G01 X12.4025 Y-6.8069
G01 X12.4366 Y-6.7116
G01 X12.4384 Y-6.7057
G01 X12.4623 Y-6.6105
G01 X12.4635 Y-6.6044
G01 X12.4783 Y-6.5042
G01 X12.4834 Y-6.3984
G01 X12.4783 Y-6.2958
G01 X12.4630 Y-6.1925
G01 X12.4376 Y-6.0913
G01 X12.4036 Y-5.9960
G01 X12.4012 Y-5.9902
G01 X12.3592 Y-5.9015
G01 X12.3563 Y-5.8960
G01 X12.3042 Y-5.8092
G01 X12.2420 Y-5.7254
G01 X12.1719 Y-5.6481
G01 X12.0970 Y-5.5800
G01 X12.0922 Y-5.5761
G01 X12.0133 Y-5.5176
G01 X12.0082 Y-5.5142
G01 X11.9213 Y-5.4622
G01 X11.8269 Y-5.4175
G01 X11.7287 Y-5.3824
G01 X11.6290 Y-5.3574
G01 X11.5242 Y-5.3417
G01 X11.4200 Y-5.3366
G01 X11.3158 Y-5.3417
G01 X11.2125 Y-5.3570
G01 X11.1113 Y-5.3824
G01 X11.0131 Y-5.4175
G01 X10.9187 Y-5.4622
G01 X10.8292 Y-5.5158
G01 X10.7454 Y-5.5780
G01 X10.6681 Y-5.6481
G01 X10.5980 Y-5.7254
G01 X10.5358 Y-5.8092
G01 X10.4822 Y-5.8987
G01 X10.4375 Y-5.9931
G01 X10.4024 Y-6.0913
G01 X10.3774 Y-6.1910
G01 X10.3617 Y-6.2958
G01 X10.3566 Y-6.4000
G01 X10.3617 Y-6.5042
G01 X10.3770 Y-6.6075
G01 X10.4024 Y-6.7087
G01 X10.4375 Y-6.8069
G01 X10.4822 Y-6.9013
G01 X10.5350 Y-6.9895
G01 X10.5980 Y-7.0746
G01 X10.6681 Y-7.1519
G01 X10.7454 Y-7.2220
G01 X10.8279 Y-7.2833
G01 X10.9187 Y-7.3378
G01 X11.0116 Y-7.3818
G01 X11.1098 Y-7.4171
G01 X11.1660 Y-7.4314
G00 Z2.0000
G00 X13.7060 Y-7.4314
G01 F60.00
G01 Z-0.0500
G01 F60.00
G01 X13.7060 Y-8.5616
G01 X13.7076 Y-8.5880
G01 X13.7109 Y-8.6096
G01 X13.7161 Y-8.6307
G01 X13.7179 Y-8.6367
G01 X13.7253 Y-8.6572
G01 X13.7353 Y-8.6784
G01 X13.7471 Y-8.6985
G01 X13.7506 Y-8.7037
G01 X13.7637 Y-8.7211
G01 X13.7804 Y-8.7396
G01 X14.8204 Y-9.7796
G01 X14.8389 Y-9.7963
G01 X14.8589 Y-9.8112
G01 X14.8803 Y-9.8240
G01 X14.9000 Y-9.8334
G01 X14.9057 Y-9.8358
G01 X14.9263 Y-9.8431
G01 X14.9504 Y-9.8491
G01 X14.9751 Y-9.8528
G01 X15.0000 Y-9.8540
G01 X18.9948 Y-9.8540
G01 X26.5155 Y-17.3747
G01 X26.5155 Y-17.4823
G01 X26.5087 Y-17.4875
G01 X26.5014 Y-17.4942
G01 X26.4925 Y-17.5037
G01 X26.4838 Y-17.5153
G01 X26.4764 Y-17.5278
G01 X26.4710 Y-17.5396
G01 X26.4664 Y-17.5533
G01 X26.4641 Y-17.5629
G01 X26.4626 Y-17.5727
G01 X26.4616 Y-17.5871
G01 X26.4616 Y-19.4513
G01 X26.4626 Y-19.4673
G01 X26.4641 Y-19.4771
G01 X26.4668 Y-19.4882
G01 X26.4705 Y-19.4990
G01 X26.4729 Y-19.5047
G01 X26.4772 Y-19.5136
G01 X26.4838 Y-19.5247
G01 X26.4915 Y-19.5351
G01 X26.4981 Y-19.5425
G01 X26.5099 Y-19.5535
G01 X26.5203 Y-19.5612
G01 X26.5287 Y-19.5663
G01 X26.5431 Y-19.5734
G01 X26.5553 Y-19.5778
G01 X26.5649 Y-19.5802
G01 X26.5710 Y-19.5814
G01 X26.5823 Y-19.5829
G01 X26.5937 Y-19.5834
G01 X27.0063 Y-19.5834
G01 X27.0193 Y-19.5828
G01 X27.0321 Y-19.5809
G01 X27.0447 Y-19.5778
G01 X27.0569 Y-19.5734
G01 X27.0686 Y-19.5678
G01 X27.0797 Y-19.5612
G01 X27.0901 Y-19.5535
G01 X27.0997 Y-19.5447
G01 X27.1064 Y-19.5375
G01 X27.1104 Y-19.5327
G01 X27.1178 Y-19.5221
G01 X27.1236 Y-19.5122
G01 X27.1290 Y-19.5004
G01 X27.1328 Y-19.4897
G01 X27.1359 Y-19.4771
G01 X27.1378 Y-19.4643
G01 X27.1384 Y-19.4529
G01 X27.1384 Y-17.5887
G01 X27.1380 Y-17.5789
G01 X27.1374 Y-17.5727
G01 X27.1352 Y-17.5599
G01 X27.1323 Y-17.5489
G01 X27.1278 Y-17.5367
G01 X27.1228 Y-17.5264
G01 X27.1162 Y-17.5153
G01 X27.1085 Y-17.5049
G01 X27.1008 Y-17.4964
G01 X27.0913 Y-17.4875
G01 X27.0823 Y-17.4806
G01 X27.0771 Y-17.4772
G01 X27.0672 Y-17.4714
G01 X27.0569 Y-17.4666
G01 X27.0447 Y-17.4622
G01 X27.0336 Y-17.4594
G01 X27.0235 Y-17.4577
G01 X27.0235 Y-17.2679
G01 X27.0223 Y-17.2446
G01 X27.0189 Y-17.2215
G01 X27.0126 Y-17.1958
G01 X27.0053 Y-17.1752
G01 X27.0029 Y-17.1695
G01 X26.9935 Y-17.1498
G01 X26.9824 Y-17.1310
G01 X26.9668 Y-17.1096
G01 X26.9491 Y-17.0899
G01 X19.2796 Y-9.4204
G01 X19.2635 Y-9.4057
G01 X19.2437 Y-9.3906
G01 X19.2385 Y-9.3871
G01 X19.2197 Y-9.3760
G01 X19.2000 Y-9.3666
G01 X19.1943 Y-9.3642
G01 X19.1737 Y-9.3569
G01 X19.1496 Y-9.3509
G01 X19.1249 Y-9.3472
G01 X19.1016 Y-9.3460
G01 X15.1052 Y-9.3460
G01 X14.2140 Y-8.4548
G01 X14.2140 Y-7.4314
G01 X14.2702 Y-7.4171
G01 X14.3684 Y-7.3818
G01 X14.4613 Y-7.3378
G01 X14.5495 Y-7.2850
G01 X14.6346 Y-7.2220
G01 X14.7097 Y-7.1541
G01 X14.7141 Y-7.1497
G01 X14.7830 Y-7.0734
G01 X14.8442 Y-6.9908
G01 X14.8978 Y-6.9013
G01 X14.9425 Y-6.8069
G01 X14.9766 Y-6.7116
G01 X14.9784 Y-6.7057
G01 X15.0023 Y-6.6105
G01 X15.0035 Y-6.6044
G01 X15.0183 Y-6.5042
G01 X15.0234 Y-6.3984
G01 X15.0183 Y-6.2958
G01 X15.0030 Y-6.1925
G01 X14.9776 Y-6.0913
G01 X14.9436 Y-5.9960
G01 X14.9412 Y-5.9902
G01 X14.8992 Y-5.9015
G01 X14.8963 Y-5.8960
G01 X14.8442 Y-5.8092
G01 X14.7820 Y-5.7254
G01 X14.7119 Y-5.6481
G01 X14.6370 Y-5.5800
G01 X14.6322 Y-5.5761
G01 X14.5533 Y-5.5176
G01 X14.5482 Y-5.5142
G01 X14.4613 Y-5.4622
G01 X14.3669 Y-5.4175
G01 X14.2687 Y-5.3824
G01 X14.1690 Y-5.3574
G01 X14.0642 Y-5.3417
G01 X13.9600 Y-5.3366
G01 X13.8558 Y-5.3417
G01 X13.7525 Y-5.3570
G01 X13.6513 Y-5.3824
G01 X13.5531 Y-5.4175
G01 X13.4587 Y-5.4622
G01 X13.3692 Y-5.5158
G01 X13.2854 Y-5.5780
G01 X13.2081 Y-5.6481
G01 X13.1380 Y-5.7254
G01 X13.0758 Y-5.8092
G01 X13.0222 Y-5.8987
G01 X12.9775 Y-5.9931
G01 X12.9424 Y-6.0913
G01 X12.9174 Y-6.1910
G01 X12.9017 Y-6.2958
G01 X12.8966 Y-6.4000
G01 X12.9017 Y-6.5042
G01 X12.9170 Y-6.6075
G01 X12.9424 Y-6.7087
G01 X12.9775 Y-6.8069
G01 X13.0222 Y-6.9013
G01 X13.0750 Y-6.9895
G01 X13.1380 Y-7.0746
G01 X13.2081 Y-7.1519
G01 X13.2854 Y-7.2220
G01 X13.3679 Y-7.2833
G01 X13.4587 Y-7.3378
G01 X13.5516 Y-7.3818
G01 X13.6498 Y-7.4171
G01 X13.7060 Y-7.4314
G00 Z2.0000
G00 X16.2460 Y-7.4314
G01 F60.00
G01 Z-0.0500
G01 F60.00
G01 X16.2461 Y-8.1031
G01 X16.2476 Y-8.1280
G01 X16.2509 Y-8.1496
G01 X16.2561 Y-8.1707
G01 X16.2579 Y-8.1767
G01 X16.2653 Y-8.1972
G01 X16.2760 Y-8.2197
G01 X16.2888 Y-8.2411
G01 X16.3017 Y-8.2587
G01 X16.3057 Y-8.2635
G01 X16.3204 Y-8.2796
G01 X17.0204 Y-8.9796
G01 X17.0389 Y-8.9963
G01 X17.0563 Y-9.0094
G01 X17.0615 Y-9.0129
G01 X17.0816 Y-9.0247
G01 X17.1057 Y-9.0358
G01 X17.1263 Y-9.0431
G01 X17.1474 Y-9.0484
G01 X17.1535 Y-9.0496
G01 X17.1751 Y-9.0528
G01 X17.1984 Y-9.0540
G01 X19.3948 Y-9.0540
G01 X27.3460 Y-17.0052
G01 X27.3460 Y-17.4655
G01 X27.3403 Y-17.4679
G01 X27.3300 Y-17.4729
G01 X27.3203 Y-17.4788
G01 X27.3111 Y-17.4856
G01 X27.3025 Y-17.4931
G01 X27.2981 Y-17.4975
G01 X27.2915 Y-17.5049
G01 X27.2847 Y-17.5140
G01 X27.2787 Y-17.5237
G01 X27.2758 Y-17.5292
G01 X27.2716 Y-17.5381
G01 X27.2672 Y-17.5503
G01 X27.2636 Y-17.5660
G01 X27.2622 Y-17.5757
G01 X27.2616 Y-17.5871
G01 X27.2616 Y-19.4513
G01 X27.2622 Y-19.4643
G01 X27.2644 Y-19.4786
G01 X27.2672 Y-19.4897
G01 X27.2710 Y-19.5004
G01 X27.2758 Y-19.5108
G01 X27.2787 Y-19.5163
G01 X27.2838 Y-19.5247
G01 X27.2915 Y-19.5351
G01 X27.3003 Y-19.5447
G01 X27.3075 Y-19.5514
G01 X27.3123 Y-19.5554
G01 X27.3216 Y-19.5620
G01 X27.3314 Y-19.5678
G01 X27.3431 Y-19.5734
G01 X27.3583 Y-19.5786
G01 X27.3679 Y-19.5809
G01 X27.3807 Y-19.5828
G01 X27.3937 Y-19.5834
G01 X27.8063 Y-19.5834
G01 X27.8177 Y-19.5829
G01 X27.8306 Y-19.5812
G01 X27.8417 Y-19.5786
G01 X27.8476 Y-19.5768
G01 X27.8597 Y-19.5721
G01 X27.8686 Y-19.5678
G01 X27.8797 Y-19.5612
G01 X27.8901 Y-19.5535
G01 X27.8986 Y-19.5458
G01 X27.9085 Y-19.5351
G01 X27.9162 Y-19.5247
G01 X27.9228 Y-19.5136
G01 X27.9284 Y-19.5019
G01 X27.9328 Y-19.4897
G01 X27.9359 Y-19.4771
G01 X27.9378 Y-19.4643
G01 X27.9384 Y-19.4529
G01 X27.9384 Y-17.5871
G01 X27.9378 Y-17.5757
G01 X27.9364 Y-17.5660
G01 X27.9328 Y-17.5503
G01 X27.9284 Y-17.5381
G01 X27.9242 Y-17.5292
G01 X27.9213 Y-17.5237
G01 X27.9153 Y-17.5140
G01 X27.9085 Y-17.5049
G01 X27.9019 Y-17.4975
G01 X27.8975 Y-17.4931
G01 X27.8889 Y-17.4856
G01 X27.8797 Y-17.4788
G01 X27.8700 Y-17.4729
G01 X27.8597 Y-17.4679
G01 X27.8540 Y-17.4655
G01 X27.8540 Y-16.9000
G01 X27.8529 Y-16.8767
G01 X27.8496 Y-16.8535
G01 X27.8484 Y-16.8474
G01 X27.8431 Y-16.8263
G01 X27.8347 Y-16.8028
G01 X27.8254 Y-16.7830
G01 X27.8225 Y-16.7776
G01 X27.8112 Y-16.7589
G01 X27.7973 Y-16.7401
G01 X27.7796 Y-16.7204
G01 X19.6796 Y-8.6204
G01 X19.6599 Y-8.6027
G01 X19.6411 Y-8.5888
G01 X19.6197 Y-8.5760
G01 X19.5972 Y-8.5653
G01 X19.5767 Y-8.5579
G01 X19.5526 Y-8.5516
G01 X19.5465 Y-8.5504
G01 X19.5249 Y-8.5472
G01 X19.5016 Y-8.5460
G01 X17.3052 Y-8.5460
G01 X16.7540 Y-7.9948
G01 X16.7540 Y-7.4314
G01 X16.8102 Y-7.4171
G01 X16.9084 Y-7.3818
G01 X17.0013 Y-7.3378
G01 X17.0895 Y-7.2850
G01 X17.1746 Y-7.2220
G01 X17.2497 Y-7.1541
G01 X17.2541 Y-7.1497
G01 X17.3230 Y-7.0734
G01 X17.3842 Y-6.9908
G01 X17.4378 Y-6.9013
G01 X17.4825 Y-6.8069
G01 X17.5166 Y-6.7116
G01 X17.5184 Y-6.7057
G01 X17.5423 Y-6.6105
G01 X17.5435 Y-6.6044
G01 X17.5583 Y-6.5042
G01 X17.5634 Y-6.3984
G01 X17.5583 Y-6.2958
G01 X17.5430 Y-6.1925
G01 X17.5176 Y-6.0913
G01 X17.4836 Y-5.9960
G01 X17.4812 Y-5.9902
G01 X17.4392 Y-5.9015
G01 X17.4363 Y-5.8960
G01 X17.3842 Y-5.8092
G01 X17.3220 Y-5.7254
G01 X17.2519 Y-5.6481
G01 X17.1770 Y-5.5800
G01 X17.1722 Y-5.5761
G01 X17.0933 Y-5.5176
G01 X17.0882 Y-5.5142
G01 X17.0013 Y-5.4622
G01 X16.9069 Y-5.4175
G01 X16.8087 Y-5.3824
G01 X16.7090 Y-5.3574
G01 X16.6042 Y-5.3417
G01 X16.5000 Y-5.3366
G01 X16.3958 Y-5.3417
G01 X16.2925 Y-5.3570
G01 X16.1913 Y-5.3824
G01 X16.0931 Y-5.4175
G01 X15.9987 Y-5.4622
G01 X15.9092 Y-5.5158
G01 X15.8254 Y-5.5780
G01 X15.7481 Y-5.6481
G01 X15.6780 Y-5.7254
G01 X15.6158 Y-5.8092
G01 X15.5622 Y-5.8987
G01 X15.5175 Y-5.9931
G01 X15.4824 Y-6.0913
G01 X15.4574 Y-6.1910
G01 X15.4417 Y-6.2958
G01 X15.4366 Y-6.4000
G01 X15.4417 Y-6.5042
G01 X15.4570 Y-6.6075
G01 X15.4824 Y-6.7087
G01 X15.5175 Y-6.8069
G01 X15.5622 Y-6.9013
G01 X15.6150 Y-6.9895
G01 X15.6780 Y-7.0746
G01 X15.7481 Y-7.1519
G01 X15.8254 Y-7.2220
G01 X15.9079 Y-7.2833
G01 X15.9987 Y-7.3378
G01 X16.0916 Y-7.3818
G01 X16.1898 Y-7.4171
G01 X16.2460 Y-7.4314
G00 Z2.0000
G00 X18.9507 Y-7.4591
G01 F60.00
G01 Z-0.0500
G01 F60.00
G01 X18.9541 Y-7.4719
G01 X18.9615 Y-7.4925
G01 X18.9734 Y-7.5178
G01 X18.9855 Y-7.5378
G01 X18.9984 Y-7.5554
G01 X19.0024 Y-7.5602
G01 X19.0171 Y-7.5763
G01 X28.1460 Y-16.7052
G01 X28.1460 Y-17.4655
G01 X28.1403 Y-17.4679
G01 X28.1300 Y-17.4729
G01 X28.1203 Y-17.4788
G01 X28.1111 Y-17.4856
G01 X28.1025 Y-17.4931
G01 X28.0981 Y-17.4975
G01 X28.0915 Y-17.5049
G01 X28.0847 Y-17.5140
G01 X28.0787 Y-17.5237
G01 X28.0758 Y-17.5292
G01 X28.0716 Y-17.5381
G01 X28.0672 Y-17.5503
G01 X28.0636 Y-17.5660
G01 X28.0622 Y-17.5757
G01 X28.0616 Y-17.5871
G01 X28.0616 Y-19.4513
G01 X28.0622 Y-19.4643
G01 X28.0641 Y-19.4771
G01 X28.0672 Y-19.4897
G01 X28.0705 Y-19.4990
G01 X28.0772 Y-19.5136
G01 X28.0838 Y-19.5247
G01 X28.0906 Y-19.5339
G01 X28.0981 Y-19.5425
G01 X28.1025 Y-19.5469
G01 X28.1099 Y-19.5535
G01 X28.1203 Y-19.5612
G01 X28.1314 Y-19.5678
G01 X28.1403 Y-19.5721
G01 X28.1460 Y-19.5745
G01 X28.1568 Y-19.5782
G01 X28.1679 Y-19.5809
G01 X28.1792 Y-19.5826
G01 X28.1937 Y-19.5834
G01 X28.6063 Y-19.5834
G01 X28.6161 Y-19.5830
G01 X28.6223 Y-19.5824
G01 X28.6336 Y-19.5806
G01 X28.6447 Y-19.5778
G01 X28.6569 Y-19.5734
G01 X28.6713 Y-19.5663
G01 X28.6797 Y-19.5612
G01 X28.6901 Y-19.5535
G01 X28.6997 Y-19.5447
G01 X28.7094 Y-19.5339
G01 X28.7170 Y-19.5234
G01 X28.7242 Y-19.5108
G01 X28.7295 Y-19.4990
G01 X28.7328 Y-19.4897
G01 X28.7352 Y-19.4801
G01 X28.7376 Y-19.4658
G01 X28.7384 Y-19.4529
G01 X28.7384 Y-17.5871
G01 X28.7378 Y-17.5757
G01 X28.7364 Y-17.5660
G01 X28.7328 Y-17.5503
G01 X28.7284 Y-17.5381
G01 X28.7242 Y-17.5292
G01 X28.7213 Y-17.5237
G01 X28.7153 Y-17.5140
G01 X28.7085 Y-17.5049
G01 X28.7019 Y-17.4975
G01 X28.6975 Y-17.4931
G01 X28.6889 Y-17.4856
G01 X28.6797 Y-17.4788
G01 X28.6700 Y-17.4729
G01 X28.6597 Y-17.4679
G01 X28.6540 Y-17.4655
G01 X28.6539 Y-16.5969
G01 X28.6528 Y-16.5751
G01 X28.6496 Y-16.5535
G01 X28.6484 Y-16.5474
G01 X28.6431 Y-16.5263
G01 X28.6358 Y-16.5057
G01 X28.6334 Y-16.5000
G01 X28.6240 Y-16.4803
G01 X28.6112 Y-16.4589
G01 X28.5963 Y-16.4389
G01 X28.5796 Y-16.4204
G01 X19.5113 Y-7.3521
G01 X19.5426 Y-7.3371
G01 X19.6321 Y-7.2833
G01 X19.7146 Y-7.2220
G01 X19.7908 Y-7.1530
G01 X19.8600 Y-7.0770
G01 X19.8639 Y-7.0722
G01 X19.9242 Y-6.9908
G01 X19.9786 Y-6.8999
G01 X20.0225 Y-6.8069
G01 X20.0576 Y-6.7087
G01 X20.0830 Y-6.6075
G01 X20.0979 Y-6.5073
G01 X20.0985 Y-6.5011
G01 X20.1033 Y-6.4031
G01 X20.1033 Y-6.3969
G01 X20.0983 Y-6.2958
G01 X20.0833 Y-6.1941
G01 X20.0584 Y-6.0943
G01 X20.0566 Y-6.0884
G01 X20.0225 Y-5.9931
G01 X19.9778 Y-5.8987
G01 X19.9242 Y-5.8092
G01 X19.8639 Y-5.7278
G01 X19.8600 Y-5.7230
G01 X19.7941 Y-5.6503
G01 X19.7897 Y-5.6459
G01 X19.7146 Y-5.5780
G01 X19.6308 Y-5.5158
G01 X19.5413 Y-5.4622
G01 X19.4498 Y-5.4188
G01 X19.4440 Y-5.4164
G01 X19.3516 Y-5.3834
G01 X19.3457 Y-5.3816
G01 X19.2475 Y-5.3570
G01 X19.1442 Y-5.3417
G01 X19.0400 Y-5.3366
G01 X18.9358 Y-5.3417
G01 X18.8325 Y-5.3570
G01 X18.7313 Y-5.3824
G01 X18.6331 Y-5.4175
G01 X18.5387 Y-5.4622
G01 X18.4492 Y-5.5158
G01 X18.3654 Y-5.5780
G01 X18.2881 Y-5.6481
G01 X18.2180 Y-5.7254
G01 X18.1558 Y-5.8092
G01 X18.1022 Y-5.8987
G01 X18.0575 Y-5.9931
G01 X18.0224 Y-6.0913
G01 X17.9970 Y-6.1925
G01 X17.9817 Y-6.2958
G01 X17.9766 Y-6.4000
G01 X17.9817 Y-6.5042
G01 X17.9970 Y-6.6075
G01 X18.0224 Y-6.7087
G01 X18.0575 Y-6.8069
G01 X18.1022 Y-6.9013
G01 X18.1558 Y-6.9908
G01 X18.2180 Y-7.0746
G01 X18.2881 Y-7.1519
G01 X18.3654 Y-7.2220
G01 X18.4492 Y-7.2842
G01 X18.5387 Y-7.3378
G01 X18.6331 Y-7.3825
G01 X18.7313 Y-7.4176
G01 X18.8325 Y-7.4430
G01 X18.9327 Y-7.4579
G01 X18.9507 Y-7.4591
G00 Z2.0000
G00 X26.1833 Y-17.2120
G01 F60.00
G01 Z-0.0500
G01 F60.00
G01 X26.1862 Y-17.2031
G01 X26.1878 Y-17.1939
G01 X26.1880 Y-17.1846
G01 X26.1869 Y-17.1753
G01 X26.1844 Y-17.1663
G01 X26.1806 Y-17.1578
G01 X26.1756 Y-17.1499
G01 X26.1695 Y-17.1429
G01 X18.9777 Y-9.9511
G01 X18.9690 Y-9.9445
G01 X18.9594 Y-9.9395
G01 X18.9490 Y-9.9362
G01 X18.9429 Y-9.9352
G01 X18.9367 Y-9.9347
G01 X18.2301 Y-9.9347
G01 X18.2238 Y-9.9350
G01 X18.2176 Y-9.9359
G01 X18.2101 Y-9.9379
G01 X18.2042 Y-9.9402
G01 X18.1973 Y-9.9439
G01 X18.1921 Y-9.9474
G01 X18.1873 Y-9.9514
G01 X18.1829 Y-9.9558
G01 X18.1771 Y-9.9633
G01 X18.1719 Y-9.9729
G01 X18.1315 Y-10.0728
G01 X18.1295 Y-10.0786
G01 X18.1281 Y-10.0844
G01 X18.1271 Y-10.0919
G01 X18.1249 Y-10.1220
G01 X18.1249 Y-10.1282
G01 X18.1255 Y-10.1344
G01 X18.1275 Y-10.1435
G01 X18.1309 Y-10.1522
G01 X18.1355 Y-10.1603
G01 X18.1412 Y-10.1677
G01 X21.3323 Y-13.3589
G01 X21.4081 Y-13.4723
G01 X21.4347 Y-13.6062
G01 X21.4347 Y-14.6367
G01 X21.4359 Y-14.6475
G01 X21.4389 Y-14.6579
G01 X21.4429 Y-14.6663
G01 X21.4491 Y-14.6753
G01 X21.4533 Y-14.6799
G01 X24.7223 Y-17.9489
G01 X24.7271 Y-17.9528
G01 X24.7323 Y-17.9563
G01 X24.7421 Y-17.9611
G01 X24.7480 Y-17.9630
G01 X24.7541 Y-17.9644
G01 X24.7649 Y-17.9653
G01 X25.5197 Y-17.9653
G01 X25.5275 Y-17.9648
G01 X25.5336 Y-17.9638
G01 X25.5411 Y-17.9616
G01 X25.5482 Y-17.9585
G01 X25.5549 Y-17.9546
G01 X25.5611 Y-17.9499
G01 X25.5667 Y-17.9445
G01 X25.5724 Y-17.9371
G01 X25.5763 Y-17.9304
G01 X25.5794 Y-17.9233
G01 X25.5816 Y-17.9158
G01 X25.5828 Y-17.9081
G01 X25.5831 Y-17.9019
G01 X25.5831 Y-17.5950
G01 X25.6003 Y-17.5087
G01 X25.6457 Y-17.4407
G01 X25.7136 Y-17.3953
G01 X25.8001 Y-17.3781
G01 X26.0737 Y-17.3781
G01 X26.0845 Y-17.3769
G01 X26.0905 Y-17.3754
G01 X26.0964 Y-17.3733
G01 X26.1060 Y-17.3683
G01 X26.1147 Y-17.3617
G01 X26.1221 Y-17.3537
G01 X26.1280 Y-17.3446
G01 X26.1307 Y-17.3390
G01 X26.1833 Y-17.2120
G00 Z2.0000
G00 X28.8616 Y-17.5911
G01 F60.00
G01 Z-0.0500
G01 F60.00
G01 X28.8616 Y-19.4513
G01 X28.8622 Y-19.4643
G01 X28.8636 Y-19.4740
G01 X28.8672 Y-19.4897
G01 X28.8729 Y-19.5047
G01 X28.8772 Y-19.5136
G01 X28.8838 Y-19.5247
G01 X28.8936 Y-19.5375
G01 X28.9003 Y-19.5447
G01 X28.9075 Y-19.5514
G01 X28.9203 Y-19.5612
G01 X28.9342 Y-19.5692
G01 X28.9431 Y-19.5734
G01 X28.9539 Y-19.5773
G01 X28.9649 Y-19.5802
G01 X28.9710 Y-19.5814
G01 X28.9807 Y-19.5828
G01 X28.9937 Y-19.5834
G01 X29.4063 Y-19.5834
G01 X29.4193 Y-19.5828
G01 X29.4290 Y-19.5814
G01 X29.4447 Y-19.5778
G01 X29.4597 Y-19.5721
G01 X29.4686 Y-19.5678
G01 X29.4797 Y-19.5612
G01 X29.4901 Y-19.5535
G01 X29.4986 Y-19.5458
G01 X29.5064 Y-19.5375
G01 X29.5104 Y-19.5327
G01 X29.5162 Y-19.5247
G01 X29.5221 Y-19.5150
G01 X29.5271 Y-19.5047
G01 X29.5295 Y-19.4990
G01 X29.5328 Y-19.4897
G01 X29.5359 Y-19.4771
G01 X29.5378 Y-19.4643
G01 X29.5384 Y-19.4544
G01 X29.5384 Y-17.5887
G01 X29.5378 Y-17.5757
G01 X29.5364 Y-17.5660
G01 X29.5328 Y-17.5503
G01 X29.5271 Y-17.5353
G01 X29.5228 Y-17.5264
G01 X29.5162 Y-17.5153
G01 X29.5064 Y-17.5025
G01 X29.4997 Y-17.4953
G01 X29.4901 Y-17.4865
G01 X29.4797 Y-17.4788
G01 X29.4700 Y-17.4729
G01 X29.4597 Y-17.4679
G01 X29.4540 Y-17.4655
G01 X29.4540 Y-16.3984
G01 X29.4528 Y-16.3751
G01 X29.4496 Y-16.3535
G01 X29.4484 Y-16.3474
G01 X29.4431 Y-16.3263
G01 X29.4347 Y-16.3028
G01 X29.4254 Y-16.2830
G01 X29.4225 Y-16.2776
G01 X29.4103 Y-16.2576
G01 X29.3963 Y-16.2389
G01 X29.3796 Y-16.2204
G01 X21.8340 Y-8.6748
G01 X21.8340 Y-7.4634
G01 X22.5831 Y-7.4633
G01 X22.5924 Y-7.4622
G01 X22.6028 Y-7.4592
G01 X22.6126 Y-7.4544
G01 X22.6202 Y-7.4490
G01 X22.6270 Y-7.4426
G01 X22.6336 Y-7.4339
G01 X22.6380 Y-7.4257
G01 X22.6415 Y-7.4154
G01 X22.6429 Y-7.4078
G01 X22.6434 Y-7.4000
G01 X22.6434 Y-5.4000
G01 X22.6427 Y-5.3907
G01 X22.6407 Y-5.3816
G01 X22.6373 Y-5.3729
G01 X22.6336 Y-5.3661
G01 X22.6280 Y-5.3586
G01 X22.6226 Y-5.3530
G01 X22.6165 Y-5.3482
G01 X22.6099 Y-5.3441
G01 X22.6028 Y-5.3408
G01 X22.5954 Y-5.3385
G01 X22.5878 Y-5.3371
G01 X22.5800 Y-5.3366
G01 X20.5800 Y-5.3366
G01 X20.5707 Y-5.3373
G01 X20.5616 Y-5.3393
G01 X20.5529 Y-5.3427
G01 X20.5448 Y-5.3473
G01 X20.5386 Y-5.3520
G01 X20.5330 Y-5.3574
G01 X20.5282 Y-5.3635
G01 X20.5241 Y-5.3701
G01 X20.5208 Y-5.3772
G01 X20.5189 Y-5.3831
G01 X20.5173 Y-5.3907
G01 X20.5166 Y-5.3984
G01 X20.5166 Y-7.4000
G01 X20.5169 Y-7.4062
G01 X20.5181 Y-7.4139
G01 X20.5214 Y-7.4243
G01 X20.5264 Y-7.4339
G01 X20.5320 Y-7.4414
G01 X20.5398 Y-7.4490
G01 X20.5474 Y-7.4544
G01 X20.5572 Y-7.4592
G01 X20.5676 Y-7.4622
G01 X20.5769 Y-7.4633
G01 X21.3260 Y-7.4634
G01 X21.3260 Y-8.7816
G01 X21.3272 Y-8.8049
G01 X21.3304 Y-8.8265
G01 X21.3316 Y-8.8326
G01 X21.3369 Y-8.8537
G01 X21.3442 Y-8.8743
G01 X21.3466 Y-8.8800
G01 X21.3560 Y-8.8997
G01 X21.3688 Y-8.9211
G01 X21.3837 Y-8.9411
G01 X21.4004 Y-8.9596
G01 X28.9460 Y-16.5052
G01 X28.9460 Y-17.4655
G01 X28.9403 Y-17.4679
G01 X28.9300 Y-17.4729
G01 X28.9203 Y-17.4788
G01 X28.9099 Y-17.4865
G01 X28.9003 Y-17.4953
G01 X28.8936 Y-17.5025
G01 X28.8838 Y-17.5153
G01 X28.8772 Y-17.5264
G01 X28.8729 Y-17.5353
G01 X28.8672 Y-17.5503
G01 X28.8641 Y-17.5629
G01 X28.8626 Y-17.5727
G01 X28.8620 Y-17.5789
G01 X28.8616 Y-17.5911
G00 Z2.0000
G00 X29.6616 Y-17.5911
G01 F60.00
G01 Z-0.0500
G01 F60.00
G01 X29.6616 Y-19.4513
G01 X29.6622 Y-19.4643
G01 X29.6636 Y-19.4740
G01 X29.6672 Y-19.4897
G01 X29.6729 Y-19.5047
G01 X29.6772 Y-19.5136
G01 X29.6838 Y-19.5247
G01 X29.6936 Y-19.5375
G01 X29.7003 Y-19.5447
G01 X29.7075 Y-19.5514
G01 X29.7203 Y-19.5612
G01 X29.7342 Y-19.5692
G01 X29.7431 Y-19.5734
